SnyprDragun/scots_vcz_franka/recorded motion/example_1_joint_ee_log.csv
elapsed_time,joint_1,joint_2,joint_3,joint_4,joint_5,joint_6,joint_7,ee_x,ee_y,ee_z
0.0,-0.0021316136377969603,-0.7825958375070877,0.0006054138910564677,-2.352941120132064,0.008269343264410077,1.5755246966465983,0.7672405957658476,0.3085458241861092,0.0013059501420946882,0.4879604402334582
0.099995,-0.00363519921948338,-0.7971017362138744,0.0026376522398585474,-2.3794533298817324,0.008257604082291686,1.5851590079738596,0.7672458977681095,0.30461409853796056,0.0015330590733097233,0.47962152188225604
0.199972,-0.004093321201446454,-0.8045051767189365,0.008284423104182743,-2.405075605050338,0.008305295186256023,1.5980588952939139,0.7672361746537851,0.3034828961457189,0.003369949406509086,0.4712858991855443
0.29999,-0.004164150050962101,-0.7992048635972862,0.017021736198223263,-2.4170625678587134,0.009863223884229177,1.6160563802205958,0.7672431910398629,0.3065143822791104,0.006440463106645641,0.4657960798709618
0.399993,-0.004668299037344978,-0.7927015868275936,0.0261557108852429,-2.4270003252909595,0.016244043208268298,1.6368917128577034,0.7672419793652431,0.3101902533708726,0.010352985185902878,0.4607552327029488
0.499987,-0.005949812202198267,-0.7856789301984056,0.03490162207660416,-2.4375628128063904,0.01984783239002484,1.6549031289921197,0.7672382426859133,0.31312584198379234,0.01316873340018471,0.4550286320074092
0.599995,-0.007873965577979484,-0.777959794002132,0.040843808091889325,-2.4483080293837696,0.02244053163523729,1.6751088973823276,0.7672422117749514,0.3164902859908911,0.014641433701996207,0.4490627418617225
0.699995,-0.010508029081672646,-0.7700611822472776,0.04349271274575079,-2.4598675955848566,0.02352039512676083,1.6930814323792716,0.7672437095054043,0.3192002302357892,0.014548142507235262,0.44261871456565094
0.79999,-0.01369855840875258,-0.760205282421425,0.04377994639245165,-2.4692261998208767,0.023606424016800222,1.7128214286429373,0.7672476062794141,0.32292211617059763,0.013423099327621231,0.4366236116486285
0.89999,-0.017206005747324286,-0.7502021137763952,0.043766742465862735,-2.4802188565751133,0.023602728487229028,1.7322220437050295,0.7672461337365596,0.32581881600499907,0.012163953563946821,0.42982623021511823
0.999994,-0.020072021007831,-0.7406885910871529,0.043743087045826905,-2.490056038697267,0.02360232585145385,1.751052282460495,0.7672456567850361,0.32895339710576926,0.011144748195707134,0.42385266275020533
1.099983,-0.021308964646827522,-0.7312688389073279,0.04377765945037532,-2.498963937413354,0.02364831372247477,1.7706083710987175,0.767245771001594,0.3319761954903738,0.010704022285222155,0.41806693929096667
1.199991,-0.021361585833495504,-0.7241994400788063,0.04480512017483236,-2.511129982671674,0.024313952084101895,1.7894437562896819,0.767248854070633,0.33386529893696015,0.011050861802961102,0.41147574930276365
1.29999,-0.021370904230981015,-0.7204461149590711,0.04855218113991289,-2.524043478870417,0.026784510065221475,1.8059141453191203,0.7672474006696688,0.334717264877305,0.01254655866862505,0.4054843031398388
1.399996,-0.021357744083543472,-0.720239686395818,0.052551606245351594,-2.540436939526242,0.02832131202743513,1.820519536703426,0.7672429345574979,0.3339704320479873,0.013566981637309804,0.39863473457523546
1.499991,-0.02186286059805319,-0.7208170808755977,0.05290450569529729,-2.5592662050763164,0.02844585563193092,1.8353761263048756,0.7672425702119703,0.33257316904690626,0.013018654689172779,0.3909515439563838
1.59999,-0.023765351258318277,-0.7225893887456855,0.05252746831093479,-2.579922420390042,0.02843935832991223,1.8480699341206301,0.7672451511634099,0.33034252013843685,0.011873339429508332,0.38286437373851223
1.699996,-0.025302906297747455,-0.7233858151983519,0.05228886569034659,-2.596872871974386,0.028442245036665537,1.8623953307112868,0.7672556094207986,0.32958275517478264,0.01107356181497734,0.376615975955112
1.79997,-0.0255362965871285,-0.7225429997336931,0.05255030915935442,-2.607286225436802,0.028659179839618385,1.8815817562606885,0.7672506280663363,0.331204877009404,0.011017020365533887,0.37323155551194065
1.899987,-0.02552253338334848,-0.7174508483963964,0.05432378107313945,-2.6135128912309775,0.03024587712579732,1.9013433035464293,0.767245013383506,0.3340920079965246,0.011774794974724792,0.3701561002558127
1.99999,-0.02551548106743325,-0.7096778616610635,0.05745178368805214,-2.621917195447925,0.033322290534044556,1.9207486942530818,0.7672450133835061,0.33592300857175494,0.012987299490669776,0.36492696974397004
2.09999,-0.025535856709904495,-0.7074734929467702,0.05849985416470311,-2.6392473672773145,0.034124674726036475,1.9364757726215323,0.7672448989516159,0.3343185798714201,0.0128604557091837,0.35697638839853385
2.199991,-0.02603817934119379,-0.7075378068923645,0.05839903361135611,-2.6606564528170176,0.03412924428911935,1.9512914150920937,0.7672503435254538,0.3316009183091737,0.012170493721321025,0.34819595829998884
2.299983,-0.02704872808760101,-0.7075631613823616,0.05783387465188402,-2.679434425731955,0.034121564508748585,1.9648855596355912,0.7672524093270991,0.3294031856235297,0.011296795161633295,0.34079342029247656
2.400012,-0.027350731439150604,-0.7066051137038223,0.05780256158528592,-2.6921344543273915,0.034138824154422195,1.982589098931291,0.76724622549149,0.3298883446399943,0.010993213610985684,0.33633771960958725
2.499996,-0.027333584972589354,-0.6989922653809579,0.05855642336660489,-2.6964607168379966,0.03448199680746402,2.0033963276565903,0.767250407624946,0.3332262584133657,0.011251113316178,0.33363081185123844
2.599983,-0.02730724155326709,-0.6854283421981402,0.06104234732871769,-2.6991729852834028,0.03590020864323765,2.0261434963173253,0.7672496673231893,0.33695059426778595,0.012131652392487974,0.3294989824617145
2.699972,-0.027294452208403503,-0.6747090409572876,0.0632142154641086,-2.711276389439894,0.03761043646308482,2.0454037882877887,0.7672526293957026,0.33659435659611614,0.012530690055776342,0.32152636430061143
2.799973,-0.027332684370439887,-0.673773861767548,0.06329442074019792,-2.732833987248893,0.03775491858824849,2.060077418148739,0.7672485659935538,0.33291110778541144,0.0120078350018461,0.31251944939018544
2.899973,-0.02742522222408381,-0.6737712136916044,0.06311709897219837,-2.7523050592659053,0.03775818597262356,2.0748874041604624,0.767255439799451,0.3298890269245849,0.011464971118111296,0.3050475655640675
2.999971,-0.027526521274713407,-0.6730801981416454,0.06296391796574094,-2.7654348737006043,0.03776047097476622,2.092277215430241,0.7672515391171802,0.32956951617044405,0.01111642382389719,0.30056011738398847
3.099985,-0.027508154848458758,-0.664549018401329,0.06301467922965183,-2.7708473334423736,0.03783377798710452,2.1145389038530467,0.767247171805863,0.33245995685649715,0.011082580456423807,0.29721005521927046
3.199992,-0.02746813053033765,-0.6443938474622507,0.06441218540759412,-2.7720388113462553,0.03876971735235617,2.137610336316477,0.7672511779764978,0.33607512758461,0.011660003738892144,0.2915969258590869
3.299971,-0.027367160262117118,-0.6243787346979113,0.06697844725257782,-2.778073932175874,0.04088772872722838,2.159387038941535,0.7672511302315564,0.33720273740508294,0.012425594891179859,0.28389756560614554
3.399981,-0.02736989772172492,-0.616329822667888,0.06779558995479983,-2.7941468833427496,0.041412431696101884,2.1784708540568736,0.7672468565403533,0.3347297479127574,0.012175253698940432,0.2756653362779163
3.499971,-0.027426977415412473,-0.6162203778984039,0.0677637669773349,-2.8129519917455665,0.041413967468209266,2.1950866659016834,0.767256197417539,0.3314314115783118,0.01165960645138666,0.26885264541366377
3.599971,-0.027555916867057256,-0.6146013577169873,0.06755307307036318,-2.827092631056471,0.04141262567127457,2.2128660884486195,0.7672581729415778,0.3301280156827946,0.011225110694125306,0.26375806469383334
3.699977,-0.027550384897376975,-0.604557543160795,0.06756325635180305,-2.83278942751231,0.04142030778216778,2.2345653371666483,0.7672532468924975,0.3321223542623506,0.01114846578699935,0.2598263542915254
3.799991,-0.027518484321551857,-0.5839028962705995,0.06792291810979839,-2.8339805005350214,0.041619203396888536,2.2586820950757245,0.767250555490933,0.33522613369385684,0.011349396922279412,0.25441692336057553
3.899997,-0.027364417374108472,-0.5589684995544751,0.07035550574859048,-2.8364718310357984,0.04260505389154814,2.2827278777568902,0.7672442557654181,0.3369120646170594,0.012163292845812922,0.2468918990213147
3.999993,-0.027308722355778327,-0.5406337080367194,0.07324283384387598,-2.846204246645042,0.04407937120308635,2.306402352926773,0.767245423691296,0.33598173327646047,0.0127100314586767,0.23849663546635935
4.099991,-0.027373624388513568,-0.5325590867217318,0.07355318767724671,-2.861359915405941,0.04427246503842261,2.3271107139132856,0.7672500297214999,0.3333472506069875,0.012295669249462505,0.23141026902285178
4.199992,-0.02757593424971263,-0.5289803066912693,0.0734497428435991,-2.8765458456655457,0.044275441444745364,2.348003582969836,0.7672550865806775,0.33105340548712703,0.011790734900994627,0.22579940668926032
4.299997,-0.02767327072808816,-0.5221277581792765,0.07333315354651745,-2.8838485478742073,0.044275935182483704,2.363617633615389,0.7672539238634135,0.3309053428918463,0.011612227669299247,0.22209862961635699
4.39999,-0.02765986171351121,-0.5082278694314368,0.073388727968522,-2.8839549507871585,0.044312358618927634,2.379918284728576,0.7672494439486094,0.33269717147993205,0.01171486518460601,0.21880329576932672
4.499991,-0.027615533537170254,-0.49086590290394677,0.07453783715907729,-2.8836942350788886,0.0446517919593709,2.3911887884459673,0.7672526975801677,0.333047824653271,0.012160814496408429,0.21398847328165435
4.599994,-0.027521680119459265,-0.47507361860616626,0.07665792346141109,-2.8836478304866695,0.0451460219457853,2.4037197342362044,0.7672496673231893,0.33390082673972266,0.012781720454125161,0.20999729914181103
4.699991,-0.027560564328414215,-0.4645386819338154,0.07736936765686976,-2.8856920969004434,0.045369687672183516,2.4223050792139036,0.7672479294239593,0.3355741417355625,0.012905435456256616,0.20737584308299628
4.799987,-0.027671685557873867,-0.4604866621589597,0.07726580140189103,-2.895222290054605,0.04537526300762009,2.444194293691935,0.7672499105041097,0.33515139014508605,0.012546070103056445,0.20388998465785652
4.89999,-0.02786856636213871,-0.44930922948835383,0.0768765111055947,-2.9068007238584608,0.04537227158860586,2.4694696354105985,0.767253924563275,0.33376121321646474,0.012122824272965321,0.1974563927270439
4.999985,-0.02796802588096509,-0.42325294068262415,0.07685921881450679,-2.911917464397545,0.045377180458993874,2.496764255007585,0.7672492725858845,0.33368179363589257,0.012123775295639103,0.18908925855699327
5.099978,-0.027957086131606326,-0.3895564069318047,0.0774370435788034,-2.9125909665229317,0.04539105336098319,2.5229409772836693,0.7672461230731776,0.33383311588812575,0.012475484130821586,0.17986273873548425
5.19998,-0.02792592216954559,-0.35944556634829816,0.0796936161711787,-2.912811750232471,0.04541119121475965,2.54665527128187,0.7672469401898527,0.33400857101873654,0.013240042529391583,0.1720694882076294
5.299981,-0.02792527987033567,-0.3413568335186709,0.08138127729455324,-2.913880308213674,0.04542612598524245,2.564872384879256,0.767247286237782,0.33444254800174644,0.013693871488816744,0.16764090354147884
5.399997,-0.028040058731641258,-0.3374616759738399,0.08133455909311431,-2.9196659135978242,0.045420036060707,2.580767415553656,0.7672456565696953,0.334145406808251,0.013475921858920646,0.16582093577539625
5.500018,-0.028485538659507852,-0.337471420818669,0.0809107397921124,-2.9267980698856406,0.045410425029267405,2.591281390506711,0.7672462403692724,0.3328226137315048,0.01293861603124087,0.16415803590331918
5.59999,-0.02967961338038709,-0.33593088993392844,0.08044539421866027,-2.930986091665388,0.04541181090000801,2.5989772465391563,0.7672563858140374,0.3323980503645215,0.012380639225739168,0.16291256037823096
5.699989,-0.02978069387806749,-0.3272427555403281,0.08057613914164956,-2.930448092653184,0.04541818696944218,2.6105753718797016,0.7672449512794162,0.3336795086548322,0.01252704791581733,0.16103492572098574
5.799972,-0.02976589410785756,-0.30747832615069626,0.08200190537366503,-2.926998505292766,0.04542076094320396,2.6225790480844324,0.7672414253866552,0.33426953168574874,0.013197452170692568,0.15636953037504142
5.899982,-0.029744961409996034,-0.28330083240505904,0.0841730244628689,-2.925065212079094,0.04541913793297068,2.6390867425560094,0.7672443701973168,0.334298605170771,0.013973663387598548,0.15034216152803936
5.999979,-0.02982022469203098,-0.2621273127065815,0.08472998467079393,-2.9262578281400704,0.04541890932490192,2.6623456187794954,0.767246582403035,0.3347650253895222,0.01418206739551944,0.145003441277625
6.099988,-0.03072283506978542,-0.2444638172972838,0.08470363185829767,-2.9311364768576342,0.045395857328227464,2.6889758340952414,0.7672494446602091,0.33450891179392483,0.013788790549534595,0.1398838519161622
6.199991,-0.033163247680785164,-0.22634428211942298,0.08446572972096617,-2.936185917849791,0.04537215951398951,2.713504323725427,0.7672478102086132,0.33335028016386636,0.012883989863057077,0.13428460320827876
6.299965,-0.035054155899276955,-0.20815810256917483,0.08444687225846269,-2.93840150951955,0.045142226372122486,2.73131883784967,0.7672488014739421,0.33238383916285175,0.01241082554135013,0.12917017659122465
6.39999,-0.03535998167368638,-0.19119023870965682,0.08540285844851746,-2.9377279280715842,0.04511624728071763,2.7417412294209376,0.7672436649070377,0.3315100538253119,0.012866298758613922,0.12480816474737687
6.499989,-0.03535351237562842,-0.17478768839190503,0.08884402127084277,-2.934325226496498,0.045076393700733,2.7524567883709974,0.7672434462362541,0.3323205846102453,0.014158940046606264,0.121449334649726
6.599993,-0.035448890044104064,-0.1582115877700433,0.09205568779681172,-2.9304938391934874,0.044702637185274514,2.771533487597704,0.7672477973692908,0.3348252643673227,0.015261201413521764,0.11861914507248938
6.699986,-0.037349157735031134,-0.13777816418329233,0.09240726398401265,-2.9304723590718647,0.043318463160105014,2.796847783791885,0.7672474820976919,0.3356373404343996,0.014791297230827555,0.11387791683027293
6.799989,-0.04224701825970443,-0.11327800574965026,0.09234022025319574,-2.932439727829542,0.04057454641829723,2.8248928635997004,0.7672521690412507,0.3348876433143107,0.013348288738225994,0.10749253021711212
6.899967,-0.04683550483058983,-0.08905508370510937,0.0923174326145489,-2.9347814040177327,0.038271796048812035,2.8465874141779888,0.7672500702052572,0.33270280665670543,0.012160268704825615,0.10076956152809582
6.99999,-0.04863430113851464,-0.06982662656374142,0.09237492603055711,-2.9348619246443577,0.033837022439935145,2.8586643855947034,0.7672890401156187,0.3306969002573477,0.012059053562650078,0.09557792631722342
7.099988,-0.04865580261662868,-0.05581721357226641,0.09341004797146113,-2.9315644568565413,0.02888531565401732,2.8674313245546723,0.768002767470898,0.33146063026030037,0.012847392125128407,0.09282565690718894
7.199987,-0.048644601320548715,-0.04083294226559735,0.09487145130562828,-2.925239176414451,0.025012103628955836,2.8799434854683414,0.7693475238548186,0.33415393876315025,0.01378580507568109,0.09064596815040997
7.299993,-0.048646634821398485,-0.021788694103790827,0.09469022714822305,-2.922027507777476,0.017257743055405055,2.9035755312244174,0.770279233221394,0.3358867046029986,0.014404137283464132,0.08681584732465486
7.399984,-0.04863152002535611,0.004102418569743207,0.09154809362621147,-2.9223707203805254,0.0070087230213814865,2.9312106295810922,0.7716666061221116,0.3348230762467161,0.01404734183319556,0.08025257523636198
7.49999,-0.04843514058819911,0.03307263183024333,0.08218643031981533,-2.923377594707286,-0.0005947512380497033,2.9555341964920987,0.7741884418704381,0.3319521769415631,0.011557698090392587,0.07254302385493863
7.599993,-0.04538799589811101,0.056816379705031436,0.06938354040570933,-2.923289444215377,-0.006005357976209493,2.97228248928557,0.7778209631093671,0.3294918438874013,0.009063387949712034,0.0664203489022006
7.699992,-0.033843095209756154,0.07193041501591946,0.05814793103412485,-2.920509414532544,-0.007736941540607134,2.9798216532133956,0.7838897500620249,0.32910919718925513,0.009742702998961215,0.0630803888575835
7.79997,-0.014048718274596413,0.08409997828956114,0.04742089787903365,-2.9125961106519043,-0.007972998787927161,2.9881505589348922,0.7901695183320748,0.3323173098726657,0.012928902428646642,0.06165083023998881
7.899975,0.00716607538281211,0.09801961309484877,0.033729452941677326,-2.904231114507693,-0.007981909142388648,3.0051017346994526,0.7949406346632589,0.336827822537441,0.015232731745420851,0.06015751239668515
7.999974,0.022252187692554257,0.12126914207659058,0.018249155464874243,-2.9011505414113894,-0.007235935690656345,3.030260251610362,0.7949698532722652,0.3368597845503482,0.01442711645230891,0.05479715724010782
8.09997,0.024778486500613282,0.15174531152025325,0.009691588521073385,-2.9013017354608612,-0.002019212094259008,3.056488402263792,0.7949785904154906,0.33349085809838347,0.011751123288091385,0.04661725104121853
8.199975,0.02496542681267203,0.1821045903251623,0.00522185491666365,-2.9012288908469404,0.0013830036187516743,3.076324708061763,0.7949750554583299,0.3290007708984031,0.009991640226922595,0.03840572480747771
8.299969,0.02800515844680836,0.2041455774635392,0.003739540476473329,-2.89884603475956,0.003964549168180847,3.0881010329025664,0.7949694707146147,0.3268030072409973,0.010464097073630853,0.03304903299424013
8.399968,0.04069824974175415,0.2177090310302395,0.0017189907637561613,-2.8902900116565737,0.008480635579726812,3.092737343489658,0.794970888083144,0.3292320544670016,0.013889118414608742,0.030947048168031052
8.499975,0.05796064293169409,0.2251987413487025,0.0014550181653161917,-2.879661191554944,0.02105064844211723,3.1012818828220645,0.794968164496175,0.3349581912616227,0.018875397283034397,0.031166574835867294
8.599971,0.07480807054794365,0.23467629953624983,0.0014504795958712891,-2.873082559191053,0.0397966493439906,3.1146979474642356,0.7949704368478031,0.3380600071464992,0.022994451691962726,0.030259219005789623
8.699982,0.08706435621596775,0.24106203842997306,0.0014678551058628327,-2.8728724788134334,0.05826076285006999,3.1331732029698642,0.7949741105123507,0.3398372586406168,0.02541557871470573,0.029880130342096592
8.799988,0.09663905651236765,0.24526598545286804,0.0014942882724778808,-2.8727777225798206,0.07527691593652239,3.1469069158733887,0.794972421239731,0.34126162789785813,0.027138085039326566,0.029769195763035314
8.899973,0.10642331214138889,0.24856697826641883,0.0015116075241981795,-2.8702766497174417,0.08942108127649329,3.153591504120952,0.7949685249000908,0.3429839550937047,0.029420124113192545,0.029723325879773776
8.999968,0.11821519136294076,0.2527489369890925,0.0014850461378485122,-2.8624727365926086,0.10005458356545757,3.154246067441421,0.7949739364758069,0.34618706174738306,0.03302796099719543,0.029826173657834854
9.099973,0.13189164354492733,0.2559154858506969,0.0014398693052600005,-2.8554150884606875,0.11020564695969741,3.1531261385923197,0.7949701488759404,0.3484839369495465,0.03726508374328238,0.029946193657864342
9.199973,0.14566417151975974,0.2567386430808035,0.0014136395415496618,-2.8528105024609696,0.12110468523384933,3.151648157386758,0.7949731788578192,0.3486964197457805,0.04114916408872029,0.029987403570943413
9.29999,0.15822926727525852,0.25674153397662053,0.0014170494289611891,-2.852920185350949,0.13185006887900763,3.151666280540538,0.7949710736433685,0.348114171314608,0.04452425160292601,0.029959983946783342
9.399972,0.16970894793510932,0.25673781687697245,0.001405516749431226,-2.85357395534247,0.1446940097473515,3.1524179890534945,0.7949739111377095,0.3474059341361807,0.04721985801862688,0.029907704595101073
9.499995,0.1806304387710876,0.2567340740054188,0.0013959290228286012,-2.853802858611089,0.15610270531059206,3.1527337853541413,0.7949729841379958,0.34685285944517263,0.050009990735074436,0.029894545617926288
9.599992,0.19282719277707586,0.2567539165581471,0.001305859234980188,-2.8535865724895633,0.16595011377349925,3.1524529568024797,0.7949718361803103,0.34633602963373455,0.05343434751913825,0.0298999733395785
9.699982,0.20672345907142892,0.25739906678550156,-0.00014354261261472726,-2.8508476922911963,0.17273201746201644,3.149560053326086,0.7949649631939422,0.3466088932755696,0.0573316314885755,0.02991792370481136
9.799971,0.22057664844963998,0.25923659038787583,-0.0013076928020891707,-2.8459898293782513,0.18084661285508774,3.146392465134801,0.794970339718275,0.3474802689446976,0.06135124242282209,0.029882372233796223
9.899973,0.23348902556994477,0.260155688971696,-0.0023615900706821526,-2.8442536386208226,0.19181969087094705,3.145809038125038,0.7949711944718972,0.3472372878284309,0.06449429679506397,0.02983864841719687
9.999994,0.24499718732271816,0.2601530132278667,-0.0024003929885765543,-2.8443685759913913,0.2057813455113289,3.145840963294078,0.7949727097080732,0.3464585855066991,0.06720285924325314,0.029806404080460744
10.099988,0.2565423442249367,0.26015344529886814,-0.0024850452760097133,-2.844670706569821,0.21936584631014502,3.1461330238985714,0.7949672966967517,0.3456224682797764,0.0699319393886304,0.029778216921573397
10.199995,0.2700617844523823,0.2601582298990649,-0.0031322676390304802,-2.8446576195078555,0.23092173284467393,3.146092971907042,0.7949626039997134,0.3447425885253526,0.07341395491718417,0.02977076699942048
10.300015,0.28534702929708483,0.26083289201218646,-0.0055441179372799744,-2.842478819376446,0.24030878879696657,3.1436099060472675,0.7949711944718972,0.3445502381997383,0.0771346420888019,0.02970858524087408
10.399976,0.30014852217035226,0.2636055323826652,-0.009448107497938923,-2.8355652416132298,0.24678656677527394,3.138807352508304,0.7949689216176333,0.3460071376019262,0.08089840534653048,0.029622700555562542
10.499993,0.313498233702754,0.26554888809892135,-0.013054947461317844,-2.830334289391835,0.2570672328934884,3.1352663147693454,0.7949676664168055,0.3467699144703644,0.08373621924975276,0.029618738449017135
10.600165,0.32564340339876285,0.26583781951068297,-0.014228801453277916,-2.8298323812481274,0.27180816035194194,3.1351196282930505,0.7949725085248519,0.34600481273748235,0.0862330868049046,0.029596108848250535
10.699987,0.3386245119742954,0.2658474998914213,-0.014646643770515326,-2.8298700868806517,0.28744918961028965,3.135128310702196,0.7949650252960381,0.34491313199522083,0.08931838173090523,0.029575624273954534
10.799973,0.352800360746407,0.26590126610907266,-0.014954140434076838,-2.8298651667801487,0.2998262946284113,3.135106578227809,0.7949631100696428,0.34367930960951004,0.09300530104447018,0.029544504937224172
10.89997,0.3690610135562114,0.2663910859243881,-0.019674506924643467,-2.8284627905936643,0.3070307421060956,3.1333759389228004,0.7949620009549202,0.34319362718088153,0.09620825306985713,0.029514602847341614
10.999978,0.3840636495291186,0.2682877733987043,-0.02588908311358395,-2.8216623697672745,0.3149001607386251,3.126531515750395,0.7949698173150598,0.34444478455251176,0.09923637218229028,0.029544825517014123
11.099969,0.3981820009833366,0.271429075008971,-0.031768495958543704,-2.81413903922638,0.3246663883002197,3.12160916980877,0.7949721261264456,0.3460155456704432,0.10214455284850206,0.029470435208081167
11.199994,0.41151187452513305,0.27334918843847933,-0.03473479542824695,-2.81069690973499,0.3361033984987081,3.121347167196653,0.7949648417047128,0.34610338508267524,0.10503584646370104,0.02945718907015664
11.299993,0.4251364094820128,0.2734265623133587,-0.035599810254777584,-2.8106481972277972,0.35047694550420944,3.1213852404507487,0.7949690426722704,0.34476361247780085,0.10830136040251105,0.0294380870048416
11.39997,0.43992405114327665,0.27343836192530535,-0.03613332811788025,-2.81066387851928,0.36469051270526115,3.1213933364279955,0.7949651991145453,0.34326238468867254,0.11198448948158536,0.02942535094744396
11.499972,0.457297135970351,0.27381020223619684,-0.04066608931209707,-2.8102083525895365,0.3723970061465612,3.121015505919011,0.7949655145980994,0.34215016404811593,0.11544725199187131,0.029386718112855786
11.59998,0.4742841789153805,0.27585813362910516,-0.04896776125367621,-2.804916498448931,0.38044870238458833,3.116273353532982,0.7949614647146213,0.3430252680157738,0.11819284597947856,0.029359075431179577
11.699965,0.48879055644451674,0.27947440570636994,-0.05691309692091224,-2.7944276261648544,0.38657804897065606,3.1087999862539206,0.7949638786532288,0.34558997414621506,0.12150572165707627,0.0294909731153242
11.799992,0.5022540142461175,0.282545687440892,-0.0617766563560732,-2.787293453875471,0.39864554391494217,3.105399707707143,0.7949675611320138,0.3467482295613449,0.12450167863264051,0.029543210025455915
11.899989,0.5162450402757249,0.28309222787237287,-0.064948065318825,-2.7863777105871343,0.41093633934298684,3.1050495089619057,0.7949632967152807,0.3456521884489034,0.1272490039763759,0.029534478423809893
11.999991,0.5313695245143445,0.28313670785009126,-0.06621751503696509,-2.786395583365053,0.4242955570059761,3.105034963981045,0.7949598798956902,0.3438838527891261,0.13101003105052247,0.029519702728802624
12.099998,0.5495644513012248,0.28323164524789834,-0.0702613528775709,-2.786343896592938,0.43531295397675646,3.1043512413490095,0.7949627852432867,0.34211198601453524,0.13462870380662034,0.029483242593158696
12.199996,0.5678011203462892,0.2841977928843195,-0.07824944550414695,-2.7835618215897022,0.44134541730468085,3.1000874901672497,0.794962342896773,0.3415975272159248,0.1377104343689036,0.029427180900292713
12.299995,0.5827958882350095,0.28678789870622745,-0.08769262048043479,-2.7750071541038825,0.44540794351151486,3.0905527254767415,0.7949680410776392,0.3432235848843432,0.14070863157398633,0.029503412986274652
12.399991,0.5965459088974864,0.29118364546382397,-0.09525981498823739,-2.7650689589313555,0.45325288626512966,3.0848869828389556,0.7949730558895807,0.34535160662357856,0.14377767452819443,0.029476841435775794
12.499982,0.6112420415951351,0.29398072603652614,-0.10080220781728583,-2.760368434506516,0.46650135229228756,3.0839856372954357,0.7949732247416618,0.3455332938434826,0.146460715603086,0.0294304100825189
12.599988,0.626770230601088,0.29420856880458535,-0.10490597459188879,-2.7601939476088386,0.4813516071637593,3.083963086630325,0.7949736771377235,0.34401276285179444,0.1491394288070035,0.029447721100445898
12.69999,0.6445186113113661,0.2943587164842754,-0.10837986621953022,-2.760182719978678,0.49179892015600374,3.0836232556867045,0.7949736771438122,0.34192569866861716,0.1530867499681127,0.02943120666713213
12.799984,0.6638659721020364,0.2949811976159246,-0.11469791879189122,-2.75872819894156,0.49817678695991297,3.0807689893316064,0.7949843740485267,0.3403623199981047,0.15702328981639643,0.02937174908914615
12.899986,0.6810237072522367,0.2977015262924759,-0.12405064282149515,-2.7514911935694335,0.5022294763592221,3.0722049390695396,0.7949871760119407,0.3410468543985223,0.16045743415783575,0.029264851559672442
12.999973,0.6957779012870895,0.3030127894650195,-0.13403158299038007,-2.739959646607543,0.5092307074784241,3.065241273596368,0.7949881562951018,0.34387454770573683,0.1635488359437555,0.029298617146716124
13.099995,0.7102887651311766,0.30741021939956814,-0.14298007601764984,-2.7316066075564986,0.5208363255910213,3.0626420164233537,0.7949983958290995,0.3456673519768866,0.16587425066747533,0.029394400781883476
13.199995,0.7244291466789798,0.3083721001491562,-0.14917982892075085,-2.730328809901931,0.5324853302128006,3.06216703818416,0.7949983380152944,0.344826889860506,0.167656327328687,0.02943052479092484
13.300053,0.7417720622702243,0.30866414921203356,-0.15495498899841018,-2.7303301531796285,0.5456971834332498,3.061418706881988,0.7950015094811287,0.34288232181636386,0.17055487588021528,0.029410720819702738
13.399993,0.762209679972952,0.30893443234218226,-0.16162510329439883,-2.729548628269011,0.5564849186732614,3.0581792094072884,0.7950049635386676,0.3406361320119652,0.1744067799484925,0.029371711895198813
13.499988,0.78098165861784,0.3108861097100001,-0.16966093785609926,-2.7235742918136245,0.5601385720405184,3.050507537753218,0.7950151050719063,0.3403459623584085,0.1789869902896314,0.029457856077752295
13.599993,0.7964849907242504,0.3159774866292592,-0.17870813614162462,-2.7128042429088355,0.5632349616711256,3.042933493190923,0.7950287501585653,0.34220222507554554,0.18298982423842122,0.02937238278887344
13.699985,0.8107481944600565,0.3213312014379876,-0.18889559554417992,-2.7027875695794625,0.5678005134375744,3.0369279049284295,0.7951049696525815,0.3442088074138427,0.1857023228004627,0.02930976613130548
13.799974,0.8239012425757196,0.3235472313321947,-0.19648288934539887,-2.6987136091092414,0.5796041092147531,3.033571224405955,0.7955827115806783,0.34420854799779843,0.18732584268250466,0.02931547374197957
13.899998,0.840825706364833,0.32481406420260256,-0.20472683805688008,-2.6976927292457904,0.5944263188050792,3.032674999334968,0.7959221572095416,0.34302148853573294,0.1891758794513032,0.029287484786695364
13.999995,0.859975751006897,0.32572507122930533,-0.21115555594626165,-2.696944931243698,0.6043268382601488,3.031689226513867,0.7960784911635443,0.3409834468922185,0.1928056522087498,0.02928090553538007
14.099992,0.8798990655910095,0.3279063682612431,-0.21860891986796616,-2.69276731808201,0.6107290248164754,3.0273627974901163,0.7962603082677092,0.3398212702649829,0.19729539841168806,0.029246166689524816
14.199993,0.8969709782294667,0.33261828934765997,-0.22861303963817187,-2.683519898291574,0.6155206636247601,3.0202768050745408,0.7964441101058529,0.34101815439253036,0.2012428866150206,0.02926248255458387
14.299997,0.9115633631282257,0.33729797682896095,-0.23979638128997197,-2.6727254023755913,0.6187190883016295,3.01004469230228,0.7965741837229788,0.3428516938876716,0.2044079110730846,0.029374018790560216
14.399993,0.9247736010011923,0.3415861346831543,-0.24917475899004943,-2.6651443985034065,0.6262945213219837,3.004992936491136,0.7970471879659168,0.34404777360694844,0.20657454289414987,0.02937133129575982
14.499993,0.940720976076762,0.3440179286695955,-0.25840810591499724,-2.6629160468634105,0.6388421254987648,3.0041972285246783,0.7975315686129527,0.3435469224711702,0.20802713959512334,0.029334232911630065
14.599992,0.9579856491711388,0.3453288897381989,-0.2651048355434627,-2.6621990583011024,0.6481849080289063,3.0033996945892176,0.7979991883682458,0.34164772778138114,0.2109807070668311,0.029277596765051303
14.699996,0.9762219474361509,0.3466859167923237,-0.27081911858680485,-2.6599776161232187,0.656502688798842,2.9999030598479433,0.798789144558433,0.3394432814115145,0.21521615487076304,0.0292291749543358
14.799996,0.9942733987072301,0.3499836299751508,-0.2791308482750452,-2.6529082366838477,0.6604964672275754,2.991108192582745,0.8000997200251526,0.33881448363272115,0.21976125356314774,0.029145233941900994
14.899993,1.00997715271295,0.35632045289161746,-0.28976925005639953,-2.6414815825253433,0.6632468475088659,2.9833087314510327,0.801769075485662,0.34091974819505255,0.22374220564024627,0.02920728429763826
14.999986,1.0229554230384827,0.36231755325883097,-0.30124220985781147,-2.630075482723705,0.6674639924933403,2.975058832705867,0.8039391746184218,0.3433060464017805,0.2264412145660552,0.02937188961128219
15.099991,1.0357070482883481,0.36536544686671135,-0.31034346682238234,-2.6257572437765075,0.6754112335642275,2.9707382098437063,0.8067199648175643,0.3434109458214286,0.22771007563146767,0.02933904228217002
15.199997,1.0501005572417297,0.3671073739035328,-0.31860984622146743,-2.6253884303726616,0.6823868564153637,2.970303857734711,0.8085662563953683,0.34236026620979726,0.22910605525022748,0.029263602029416164
15.299992,1.0659865676822577,0.3685522228962909,-0.32360109153831335,-2.623886124489789,0.6917558616991368,2.968779421835885,0.8094556269915851,0.34030334297976755,0.23255501718839633,0.029242373239100714
15.399993,1.0839035676148379,0.37130612480718933,-0.3302820390661957,-2.6191478136201845,0.6972124541016995,2.963766547700608,0.8119809166639803,0.33883159247112693,0.2372820836087784,0.029245066540185077
15.500018,1.0997336769171049,0.3768714387387262,-0.3388549005094254,-2.6088723766449107,0.6981197944750072,2.954365056688004,0.8166922765707376,0.33931520369633095,0.24199274207349403,0.029150910668183316
15.599987,1.1109205201381902,0.3838265255743915,-0.3472866594630376,-2.5967115779184655,0.6986460060577993,2.946494587096288,0.8215226484530117,0.3416830625900513,0.2457414094701633,0.029215858288013832
15.699993,1.1207077094848965,0.38865204622500543,-0.3559498085107068,-2.5879239583449962,0.7000514509285996,2.9404353135067125,0.8246244806293094,0.3433601821850032,0.24799802898934287,0.029452773710855612
15.79999,1.131494822238268,0.3906783410352899,-0.3627950438657011,-2.585997612719924,0.7065417358693814,2.938284673213723,0.8288919919611578,0.34284752339886915,0.24910735431977996,0.029435864216535476
15.899998,1.1445102673624385,0.3918859208468653,-0.3686807889649238,-2.5854997821605825,0.7145393568413329,2.9365983750490146,0.836915188544688,0.34117903782368697,0.25106879667965876,0.02939326692940937
15.999991,1.1577987765175541,0.3932806942178674,-0.3720640073493349,-2.5832562492191244,0.7155883300999601,2.9333200118502827,0.8466497695876559,0.33898672316022915,0.2551200983556424,0.029350604251076495
16.09999,1.1691846502456984,0.396947954614891,-0.3748219458647853,-2.5759274281670237,0.7155907970854432,2.9275248017586772,0.8522225147210254,0.3383712064989249,0.2600137235140743,0.02932138676406422
16.19999,1.1786426549847238,0.40301601749794225,-0.3804837502772751,-2.565176730524046,0.7155894709089334,2.920202664767783,0.8560039524913825,0.3397770552414459,0.2640165861835445,0.02932331304182499
16.299995,1.1865063689587474,0.4095940627776724,-0.3878303648606978,-2.553746571677201,0.7155887192582783,2.912756870601414,0.8593136727708083,0.3421744909856338,0.26697981494630224,0.02941122399228252
16.39999,1.1952360644739757,0.41378363099875376,-0.39498887595942095,-2.54759484153961,0.7156614607166918,2.908907688896733,0.8629067356575638,0.34304706871760304,0.2686879035904814,0.029503187316534216
16.499986,1.2053733689022321,0.4151242330195082,-0.4001173757717714,-2.547252431808872,0.716752901478153,2.9085887708425298,0.8658955006329141,0.3419330509820709,0.27017929138496805,0.029510100748795592
16.599979,1.2161520674073545,0.4158540640583367,-0.4020214121367663,-2.5464711492261123,0.7182806071765497,2.907663654516335,0.8733683675339605,0.3396287606508018,0.2734522852992625,0.02950388580840911
16.699995,1.2269769861359974,0.4180674347002021,-0.40391494598823063,-2.5419656241882835,0.7185303570685907,2.9032145894322823,0.8841209540340473,0.33796437783019656,0.27783213432277243,0.02947396922983432
16.799995,1.2346104532590452,0.4232179682785878,-0.4069095049967418,-2.5311594881093264,0.7185326395749085,2.8945218031427453,0.8901986733708468,0.3386304438781573,0.2824608844000666,0.029522899620139487
16.900002,1.2400056688156635,0.4294671996678402,-0.41171877106960875,-2.5199854152414733,0.7185339840545512,2.886453619352763,0.8941830764599071,0.340524662928833,0.28550583732621526,0.02947298224390507
16.999999,1.2470155037612878,0.4354486751977631,-0.41855547830323014,-2.5109540386095475,0.7185310161135542,2.8818040950855797,0.8971540230886362,0.3426073066956908,0.28776642365803656,0.029611184348872013
17.100005,1.2561521104366362,0.4388536699591015,-0.4244159423836639,-2.5069991648909906,0.7185744919188802,2.8805040783573257,0.9016333271737399,0.34267802340636594,0.28960031006997805,0.0296980658952027
17.199996,1.2653419637619203,0.4399367115122633,-0.4272564935719037,-2.506120805735074,0.7187791691471019,2.880196207803992,0.9072437574089856,0.34109070905057925,0.29195264143667726,0.029735071326819004
17.299977,1.274857995860562,0.44100569253144384,-0.42859330685503194,-2.5038006600290483,0.7188589182531622,2.877200529716104,0.9187994406947584,0.3388834198392246,0.29552206742048825,0.02972991598936131
17.399986,1.2826464418418686,0.4442706565765422,-0.4295116031580456,-2.496512362656323,0.7188618960891205,2.8707006627520926,0.9279999981261136,0.33791255850623886,0.30010495029998224,0.0297056410129595
17.50002,1.2874304697002608,0.4503078859424125,-0.4318084794561395,-2.4848785396565876,0.7188631502651682,2.862751763589438,0.932020971378821,0.3392394874132169,0.30426340208925784,0.0297209881903088
17.599993,1.2917525336385889,0.4564440724506149,-0.43685935954731153,-2.473831290973229,0.7188620603611687,2.8536737840843824,0.9338066403219788,0.34108636081697996,0.3068661686953865,0.02971217997550918
17.699997,1.2991311866058188,0.46150118946145596,-0.4436787195357693,-2.4671310591576896,0.7188579255644806,2.849793178256231,0.936491387437426,0.34235085819874184,0.30852359388434325,0.02977853087469419
17.799967,1.3088444944715911,0.46445275430931715,-0.44935101536700395,-2.464654532880658,0.7188653701670762,2.8494494255708482,0.9419743093125434,0.3419476358598864,0.31027089520436085,0.029831891898261548
17.899995,1.317250949452078,0.4658317715337721,-0.45096754101747843,-2.462598299869651,0.718883450082999,2.848886706700297,0.9487118050529952,0.340298883214997,0.31331984699547055,0.029932952731861348
17.999984,1.325790147491257,0.4674744136084515,-0.45115826015013716,-2.458526817937686,0.718885908509844,2.8460452768977,0.959968141089459,0.3382616411147734,0.31758140954677394,0.030044213519086996
18.100018,1.3329496574013084,0.4708047237861162,-0.451535607013845,-2.451105124381086,0.7188865390996118,2.83979419712444,0.9662027899146683,0.33702177636374814,0.3221626583040375,0.03000150965557717
18.199991,1.3376453171820302,0.4773006460319883,-0.4540363609756462,-2.4393230253856935,0.7188907688967199,2.8314280902663254,0.9677975742131526,0.33820818522239865,0.32618932682693413,0.029925922748064077
18.299992,1.340422740512659,0.4851827300337118,-0.45891082566975,-2.425550790809202,0.7188935031765114,2.8217956406000404,0.9696666257768178,0.34109857383093134,0.32924561629672305,0.029932793237142596
18.399977,1.343245994420805,0.49338160167780737,-0.4656308834496688,-2.411052399745719,0.7188939038691803,2.812225041512845,0.9709819227144688,0.3448263093544542,0.3320978750641964,0.03027705766378956
18.499988,1.3454921985393085,0.5020454310432273,-0.4715039729978154,-2.3972569897431533,0.7188917137589195,2.8033927624115087,0.9718236822044671,0.34822642421713396,0.3345333201328115,0.03019479014142082
18.599992,1.348076978895427,0.5106333348431391,-0.4770360536000721,-2.3832374089064996,0.7188909546751683,2.7936561420937207,0.9725311256747748,0.3513411460549508,0.3374230044703197,0.030195616692680186
18.69998,1.3517358653842524,0.5197141346306654,-0.48370499934453315,-2.368048803703705,0.7188866159978707,2.7850385097387576,0.9729874020849647,0.3549807465440355,0.34061645424828957,0.030522139907355986
18.799982,1.3555379620005898,0.5280258702989509,-0.4899887397282658,-2.354195734105564,0.7188864807975076,2.7740347447972686,0.9734755449636172,0.3576394651757185,0.343533902591645,0.030595650485396794
18.899986,1.3588181623220095,0.5369883331647322,-0.49541431268034075,-2.340222358316363,0.7188850157820854,2.7653130259643977,0.9742045339499811,0.36057950883110484,0.34652227649442224,0.030505946084421864
18.999991,1.3614220547607205,0.5461889576230509,-0.5006778078962011,-2.3241598094471114,0.7188865626098346,2.7564279175901594,0.9754714356073315,0.3641326792570968,0.35026081030927053,0.030905129820490776
19.099989,1.3623412775053494,0.554865526677236,-0.5042077011644749,-2.310011170226368,0.7188884625595252,2.747494540330403,0.9769162164548504,0.366933092239787,0.35311247691420145,0.03074119492340953
19.199986,1.3635175464486486,0.5628300013419358,-0.5086144613882242,-2.2958913305551842,0.7188864809676125,2.7365739823887356,0.9788110543359247,0.3697890398964174,0.35592891365451435,0.030886940334915014
19.299992,1.3646368976993875,0.5718297114108267,-0.513402594530374,-2.280620337957617,0.7188864809857819,2.7283512596451533,0.9801809609031817,0.3735536092383427,0.3590711827265216,0.03126089809140613
19.399978,1.3653230299063084,0.5804193304675275,-0.5172842212129997,-2.266242386659165,0.7188873468229041,2.7187224113624078,0.9813606190690478,0.37640775037396,0.3617757620681909,0.031197428718978765
19.499988,1.3662632570162392,0.5892197759146651,-0.5214858097038588,-2.2519427647661705,0.7188881044341213,2.709163815911341,0.9826077434312709,0.37946609103201934,0.36455606597634294,0.031191949537318797
19.599991,1.3675002713540012,0.5984035608987798,-0.526277504596247,-2.2359300055403923,0.7188858054974236,2.699129762677564,0.9846030716078498,0.38283252167558185,0.36780955932343257,0.03152293860488829
19.700016,1.3678031383757154,0.6071024160933535,-0.5293931427960493,-2.2210562007945343,0.7188833424833344,2.69025884686411,0.988080425949517,0.38577634474197947,0.3709751537119812,0.03158004725640695
19.799969,1.3680796726142816,0.6159245377387538,-0.5324172369806407,-2.206598811630781,0.7188854213285942,2.681909687793481,0.9926726567904862,0.38864449641095317,0.37393930784552326,0.03152525055202185
19.89997,1.3682788425485375,0.6247273252684061,-0.5362355849296742,-2.190656281227513,0.718886833792916,2.6728914857255592,0.9980430625961991,0.39209755317320727,0.37726782655859503,0.03200623091549737
19.999969,1.3683129726032266,0.6336714144724355,-0.5390689458601757,-2.175841353487843,0.7188847713331605,2.663809334466356,1.0009798029562216,0.3948408789075136,0.3803774116624571,0.03195025996918327
20.099969,1.3683185759122365,0.6426210992579832,-0.5419799140153833,-2.160161432898566,0.7188886281920166,2.6539105287173874,1.0021388039666743,0.3976536802000319,0.38368986928220866,0.03200128686463255
20.199968,1.3683736928673926,0.6520741912675356,-0.5455852025810695,-2.143591974547749,0.718888343214829,2.646114993221384,1.0027183370913284,0.4013076685737389,0.38715016871926444,0.03247156082083426
20.299972,1.3683771643994034,0.6614495761710156,-0.5492299924964592,-2.128459384964342,0.7188850620615093,2.635457535704117,1.0034658838377157,0.4040260082847656,0.3897881778060549,0.03230601463786152
20.399963,1.3683982321768278,0.670936512135164,-0.5525932795525723,-2.1124588213037967,0.7188833422631339,2.6254112167052823,1.0041870427251787,0.40701467117506734,0.3929965821142177,0.03240227147216229
20.499979,1.3683929227724438,0.6800537410831956,-0.5562303524876779,-2.096177231081852,0.718881881634234,2.6153892686044404,1.0047780814011122,0.41002338359398116,0.39628359224725385,0.03273201040437776
20.599994,1.368389382875016,0.6890259053941983,-0.5593566353141048,-2.0816907403150537,0.7188835779192502,2.6073762191165564,1.0051426411763351,0.412796808157943,0.39899289262793425,0.03273525587535278
20.700014,1.368395139116291,0.6975235910241989,-0.5627001145213034,-2.067547008795447,0.7188816180640271,2.5986566374433435,1.0053224751818015,0.41552045100647056,0.4016532614657225,0.032909202700340284
20.799999,1.3683707266443215,0.7043980239915777,-0.5656174723254684,-2.0554188425446185,0.718877830645609,2.591597284833942,1.0053633037119092,0.41774876324253707,0.4038718468060393,0.03315595982467556
20.899985,1.368218475035772,0.709329937498783,-0.5677335326398112,-2.0471448189892962,0.7188851484179924,2.584468042608965,1.005367314467434,0.41896734166132554,0.4050728927174693,0.033072132029764015
20.999989,1.3675003264972243,0.7132823340459147,-0.5695678451194242,-2.0399527542114373,0.7189293319379484,2.578466062626759,1.0053713413415655,0.4203742208597803,0.40604681254008296,0.03319303319446029
21.099992,1.365418841623042,0.7154517877219763,-0.5699146487219835,-2.0353516205727264,0.7192183296929809,2.5747165567563672,1.0053746619998654,0.4215190395691534,0.4063125434564766,0.03328413976201297
21.199993,1.361720243016481,0.7171134766274471,-0.5698599479217324,-2.032164226565602,0.7194302783745141,2.5732549729047642,1.0053807165284772,0.4234660617683363,0.4056205854787332,0.03328739032363996
21.299995,1.3556193416477678,0.7191050226058889,-0.5698671163980554,-2.02899484163776,0.7195038384512175,2.5731111433295446,1.0053774012890553,0.42659614061682505,0.4038036483434059,0.033280113930816535
21.399991,1.347340331476987,0.7199126375333774,-0.56987160995043,-2.027724911947421,0.7195172288513411,2.5731196557725076,1.0053807889785253,0.43022111567483556,0.40044989787498814,0.03327380266113207
21.499992,1.3370467590345527,0.7200902948998265,-0.5697722651491021,-2.027490932483843,0.719518552670856,2.573121281220672,1.005379802496673,0.43436615393682587,0.39603453257415816,0.033235990574633625
21.599985,1.3256639948993876,0.7201980367327746,-0.5696868452307701,-2.0273659359092493,0.7195252177387053,2.5731222697472007,1.0053817796315752,0.4388626244653401,0.39108917727788994,0.03321170470405202
21.699993,1.3144501315868662,0.7202891810424258,-0.5695898236590644,-2.0272763761390777,0.7195313989195995,2.573128435400054,1.0053772602220863,0.44311857297303425,0.3862955964438836,0.033167537354987287
21.799993,1.3042369633450925,0.7203840378897773,-0.5685812975174565,-2.0264693499771593,0.7195281328222706,2.573127677781966,1.0053390562215634,0.44671633283990964,0.3825730624608676,0.03315719285844149
21.899985,1.2948501092011957,0.7206008941117633,-0.5675104764144441,-2.0254515227459486,0.7195177131153748,2.57312616254579,1.0048792925315504,0.4499651999431557,0.37925581515696477,0.03312008791878329
22.000013,1.2855509669535365,0.7206415258487862,-0.5652540342859781,-2.02394979004295,0.7193693458954296,2.573123781460371,1.0035768510048328,0.4527605262390944,0.37671575798933316,0.033082143867594185
22.099975,1.276438168849784,0.7206765065141287,-0.5627520821481861,-2.0220878940033216,0.7192498642094751,2.573123779288907,1.0013197958409343,0.45550250348156324,0.37438093561582675,0.033102753332497015
22.199973,1.2678680714725887,0.7208367644612272,-0.5615080724450267,-2.0208269101859733,0.7186959339600086,2.5731253852138547,0.9992591936848727,0.4584652078765685,0.37139130561112865,0.03312966673648478
22.299999,1.2586098062179645,0.7213802300095734,-0.5600505816289315,-2.019131039411049,0.7179205529281993,2.5731182009865754,0.9969035669288417,0.46165050253779266,0.36837172483801495,0.03307922628134376
22.399999,1.247967814295503,0.7219456469053568,-0.5576516924472519,-2.0162466947495385,0.7156573952270041,2.5731236086471942,0.9944562416955512,0.46520500448676644,0.36544510780579026,0.03317447637155019
22.499978,1.2372524343811664,0.7222027335432666,-0.5556682961526557,-2.0144639081757645,0.7138817037215295,2.5731217473869177,0.991740553577069,0.468623108812545,0.3619145775996993,0.03315612895503382
22.599993,1.2262459523275435,0.7222098453401307,-0.5522557497928481,-2.0122407570748986,0.7122259057851872,2.5731221517863143,0.9881940990982258,0.47165054003061624,0.3591842830289712,0.03314081414906955
22.699995,1.2166788040676524,0.7222333894079503,-0.5501112209886511,-2.0102361598701877,0.7105803344219497,2.573121394180186,0.9852524592193048,0.47465544453623815,0.35633754437804255,0.033282735034799504
22.799989,1.20693824420077,0.7222906925081742,-0.5476825674779281,-2.008445461810988,0.7084163289676155,2.5731158686750364,0.9816982078607096,0.47753282891062826,0.3534708258865429,0.03329488762508859
22.899991,1.1969074658405172,0.7226554971969879,-0.5454591017249169,-2.0061361655728613,0.7065586659569821,2.573108149422372,0.9768164710717994,0.48076289962777446,0.35038890964554215,0.033364888134538875
23.000002,1.1868683136595204,0.7237241101531456,-0.5443366626325722,-2.0034054536598593,0.703711280494345,2.5730742301693676,0.9719303318260787,0.4844861465772527,0.34679873324103966,0.03343170311941723
23.099984,1.1764363396632203,0.7244778786605323,-0.542324186013006,-2.00069610950029,0.7011985925004932,2.5730492773583387,0.9633705926228572,0.4878588058980733,0.3435144220986553,0.03348043551805331
23.19998,1.1669815501306535,0.7248013174350193,-0.5412050536567937,-1.9991978095010814,0.7002697905383385,2.5730021870442137,0.9553060328119464,0.49098550493471155,0.3398299499830708,0.03353802000493132
23.299989,1.1576820259696732,0.7249329713673563,-0.5404449307713447,-1.998612772725144,0.6993229707348516,2.5729848016786643,0.9499847756473855,0.4939371334005853,0.33578159223510295,0.0334791976117616
23.399993,1.147582225241294,0.7249252767028356,-0.53892854641961,-1.9978418938853708,0.6981970392117401,2.572992574545713,0.9440094670548392,0.4969412449530511,0.33168748039414137,0.033414445152077976
23.499975,1.1372455090051659,0.724921386357479,-0.5384349992040154,-1.997619605882202,0.6974330690506256,2.5730036280492876,0.9341703713272598,0.5002309938058954,0.3267494386975461,0.03338357683773299
23.599978,1.1269957821042003,0.7249232708030319,-0.5382408864139224,-1.9976106627035843,0.6972087019287654,2.5730083969073836,0.9202288208046324,0.5034627489169222,0.3217228730032696,0.033350275880058705
23.69999,1.1172304821097385,0.7249197189929553,-0.5382230635048832,-1.9975915058016134,0.6971743468459326,2.5730100198902233,0.909634502645128,0.5065734904842559,0.31682172732296604,0.0333564739586482
23.799991,1.1075419319394733,0.7249536654451102,-0.5381669361183633,-1.997001609746852,0.6971353067138938,2.572959738601348,0.9019092425930542,0.509819779124935,0.3122151721826938,0.03354614615468375
23.899989,1.0972045634865724,0.7260500645262362,-0.5376062284992471,-1.9937063720424275,0.6965516347266448,2.5707546946751996,0.8951463659108876,0.5133106524986703,0.3082604953990132,0.03366526271106915
23.999991,1.0867782893577638,0.7288610488770346,-0.5374206896719883,-1.987368754330343,0.6957246560199817,2.567336636307788,0.8879912327797131,0.5174294666576583,0.30476912464181666,0.03391381765684806
24.099993,1.0782625550845704,0.7303227724366611,-0.5374127286183943,-1.9840447141994735,0.695248319765462,2.5658653282924044,0.880906122980587,0.5203947947949614,0.301291628049573,0.034038166749008114
24.199985,1.0724172481647132,0.7304128732624873,-0.5374261091866667,-1.9840313508217722,0.6950395057050488,2.5658276372339115,0.8770285228208134,0.5220307389114168,0.29831324994245945,0.033986797983830586
24.300062,1.069603362891525,0.7302666926163479,-0.5374613342603833,-1.9858561633420708,0.69503094226803,2.567096914152021,0.8740346746255212,0.5224150824823979,0.29626979445586815,0.03357441698070068
24.399992,1.0696665222723651,0.7287534728145721,-0.5373312263865512,-1.9906911506708422,0.6950314788524188,2.5730826469087136,0.8704601324167653,0.522102909006634,0.2948019471307452,0.03338050745445921
24.499989,1.0696701371692592,0.7237160927082241,-0.5372859232807269,-2.002341256387316,0.6950323438754354,2.581203367272045,0.8663002080199675,0.5203476662881517,0.29130479157809497,0.032977214076734596
24.599991,1.0696307205007973,0.7146214573318309,-0.5372948315249784,-2.019682871540202,0.6950418826516643,2.5889531954450056,0.8599006568960341,0.5172776119726562,0.28679438828035186,0.0329295537999838
24.699986,1.0696219740670996,0.7049627060977476,-0.5372220159215412,-2.0375980997765333,0.6950512018424412,2.5968521098385713,0.8548162910036181,0.5141079602422313,0.282305611055069,0.032889117539701085
24.799984,1.0696128275188892,0.6973188762394019,-0.5367803024469696,-2.0531382370474853,0.6950888453632837,2.605044464406173,0.8480326009106369,0.5113950702794138,0.2784742136740615,0.032466973183870027
24.899989,1.0696039786369664,0.689479476652782,-0.5355502467435892,-2.0681717467492513,0.6952122950770782,2.6155346778401727,0.8397627345903933,0.5087774542944212,0.2752714756850571,0.03249763693686025
24.999994,1.0696078954038446,0.6805887827137783,-0.5343207138418824,-2.0841327977872477,0.6953130916089375,2.622403389504687,0.8348397617339974,0.5053807560600898,0.27195969845748896,0.03241161649942627
25.099992,1.06951768185015,0.6723867691467895,-0.5328523344939207,-2.099444806933552,0.6954140416447463,2.630389310970521,0.8308251072031039,0.5021987818917764,0.2688000389686291,0.03207969431304024
25.199976,1.0694404432032947,0.6656045188828312,-0.5309270983495065,-2.1122974536742922,0.6954686138665678,2.6395878324913524,0.8280085740062917,0.4996752133821609,0.266571443472213,0.032041070176979686
25.299968,1.068450303071265,0.6568423851521031,-0.5275523939787354,-2.1266142955639786,0.6954885062906128,2.6473091350110938,0.8250694201559856,0.496297817699716,0.2643927815433506,0.03194099559483292
25.399988,1.0674652332604293,0.6475147345126038,-0.5238203206332748,-2.142256059492561,0.6954996178745675,2.6574107982125024,0.8204967819792157,0.49273183562307354,0.26192875803370175,0.031864349289052726
25.499991,1.0663271132495589,0.6382613249708732,-0.5206023470600245,-2.159285296178852,0.6956088997608123,2.66743018554633,0.8160599115955728,0.4888915452913825,0.25870627048552897,0.031636166089899026
25.599972,1.063411413191998,0.6252081646654761,-0.5159795121321498,-2.1802630076793945,0.695912345207535,2.6780846037150745,0.8077684897686898,0.4841352156430068,0.25466191304111435,0.0316611265593469
25.699989,1.0593650412755915,0.6155204508663079,-0.5124634881070939,-2.1983039153932804,0.696202457026556,2.6885070367727093,0.7962501013987118,0.4808748554776967,0.24995052863456557,0.03122094041806972
25.799998,1.0532989316239305,0.609255007447765,-0.5095189171481775,-2.2083343178457446,0.6962586352115957,2.6938224619837894,0.7882982605291846,0.4796498463824733,0.24632094740731905,0.0311667152921227
25.899989,1.0442527033538271,0.6070947489693271,-0.5067640206775855,-2.2104356907295077,0.6962565449471046,2.694227472971145,0.7797432580841201,0.48074427822811466,0.24305733239950952,0.031121937150639878
25.999984,1.033383677068996,0.6067398974409975,-0.5048333129760886,-2.2097221247100554,0.6962487911335664,2.6941282334785153,0.7701324526194172,0.48313495628990416,0.2389975138838446,0.03118352177769984
26.099993,1.0202012100165252,0.6068061304800311,-0.5031274424785576,-2.2078967058922503,0.6962291628209544,2.692913570985884,0.7594601849550295,0.4862021499748076,0.23402827326785075,0.03127995027366756
26.19999,1.005387034075339,0.607077971437583,-0.5022813004839215,-2.20598955762674,0.6962177511566451,2.6922381042118566,0.7514294123620878,0.4899811545241897,0.22766972238316055,0.031491985738926545
26.299996,0.9902178664641346,0.6076907253262392,-0.5016770266430771,-2.204392186164829,0.6960921014035292,2.6918446349315652,0.7449297792775639,0.4936454595061491,0.22097641704114773,0.03154133356471667
26.399989,0.9762636848577942,0.6082522728173586,-0.5014915280416756,-2.2029368166443537,0.6952239105981298,2.6914978680470845,0.7366542288437515,0.49700017163672444,0.2146364086804267,0.03163051886348556
26.499991,0.9640015398727979,0.6091555149334772,-0.500543275697451,-2.2003735053283795,0.6948090917637938,2.6905748791668613,0.7262788277794094,0.500041723794468,0.20988592640153897,0.0317506703590289
26.599992,0.9538504987621466,0.6106485107788111,-0.5003894016102048,-2.196809321502009,0.6944441882856474,2.688892661531225,0.7164673584811153,0.5029419125682163,0.20580638084534408,0.03188690691194715
26.699991,0.9440695946169719,0.6122803572461962,-0.4998475567238635,-2.1930098225204406,0.6940252587450463,2.6862824635655795,0.7091682761988972,0.5055392520215211,0.20215014375766982,0.03189380926000353
26.799992,0.9337085268615466,0.6146952355791759,-0.4994427507697745,-2.1882369208903065,0.6934022979304069,2.6837847843231613,0.6995613809485485,0.5086684141749349,0.19811146437070107,0.03187451895436835
26.89999,0.9228227753027572,0.6180007444378232,-0.49943921353642556,-2.182878241366812,0.6929780688944063,2.682115587811161,0.6888878955721417,0.5121484543179593,0.19359683041846024,0.031767898305875245
26.99999,0.9123135486044734,0.6200592790890617,-0.4994427799951688,-2.17796934993151,0.6925690851900271,2.6793256155703062,0.6786077506842784,0.5152670934368849,0.18941086251313635,0.031998207326508626
27.099992,0.9019172494532083,0.6224911140739238,-0.49949248547429315,-2.172670010540744,0.6919967052307407,2.676443383544132,0.6723748333119721,0.5185094003749787,0.18529256068874728,0.03217242743329286
27.199993,0.8924290479585553,0.6243135694829187,-0.4994517683720169,-2.167863088387412,0.6901018719412731,2.6735288648531235,0.6687616735009951,0.5212869099513144,0.18159450854764697,0.03245721818862857
27.29999,0.8839245426514645,0.6252911863460111,-0.49944846602180326,-2.165605477678547,0.6870058310810246,2.672472272488264,0.6639060644712704,0.5232662282235228,0.17759233557781068,0.032530660795623084
27.399983,0.8774285292317059,0.6252916689420615,-0.4994683062768601,-2.1659148797566665,0.6855431408404536,2.6725438365524576,0.65987204122702,0.5241722297524012,0.17418874794230044,0.03241607270013479
27.499989,0.8752436645298197,0.6239886007969552,-0.4994824873897731,-2.170189060870891,0.6854810534687933,2.6765015971188215,0.6544970297422966,0.5235308692975311,0.17196310234881318,0.032155721724134834
27.600002,0.8752752595950914,0.6188258116070722,-0.49909447139063834,-2.1825463357032264,0.6854999469874775,2.6867516244349954,0.6445182819283483,0.5207740179115229,0.16890161678602816,0.031786687999231275
27.699997,0.8752461319301774,0.6072112843800228,-0.4984271581281781,-2.2051336984103536,0.6856233799722813,2.699186258727841,0.6365969724166335,0.5150148383945006,0.1644151647391401,0.03168983816942804
27.799992,0.8744692473509337,0.5937655981800404,-0.4965179007125632,-2.229992148897164,0.6860358948921715,2.7106166040396316,0.6317544048374387,0.5085473321907539,0.16010652265756936,0.031374456142516036
27.900027,0.8719636077352657,0.5831082359930723,-0.49284788064317475,-2.248889530584699,0.6863028214192978,2.722849886378722,0.6243351480466248,0.5040783445049523,0.1570795098729085,0.031363763239409675
27.999989,0.8683700739962031,0.5736608075462051,-0.48841128500985687,-2.2652048414154264,0.686475366158568,2.7337498474145647,0.6181204270212461,0.5001571126353624,0.15444851623487277,0.03131969439019147
28.09999,0.8648158799927392,0.5659402357399715,-0.4848054497249071,-2.2792101901311703,0.6865092396213279,2.7415564113134483,0.6138626074507801,0.496569444333092,0.15182241664706494,0.030936693408560118
28.199991,0.862620594793786,0.560402844200365,-0.4823715160069802,-2.2894272844193635,0.6865146251462201,2.7491041512404704,0.6105162714569642,0.4941562164364211,0.1499539521682926,0.030938562033467454
28.299999,0.8602320111015443,0.553316728338709,-0.4790081941518693,-2.3011649764242152,0.6865365573819996,2.7558481756816398,0.6086792929220778,0.4909743348839013,0.14839413480309657,0.03089609089809356
28.400004,0.8568607434868772,0.5467752181122252,-0.4744994896866961,-2.311439759515902,0.6865382256612044,2.7637094101007875,0.607058865183493,0.48841722175838426,0.14721767492545304,0.03099869855791887
28.500005,0.8530768043154892,0.5400567007371562,-0.4695677686287588,-2.3236794205537263,0.6865377102216088,2.7728922630277895,0.604471845204668,0.4852536829228385,0.14538296275679466,0.030715775399625583
28.599994,0.8479582517848755,0.5331177691882698,-0.4648883606298681,-2.3348024496147133,0.6865365979321932,2.7793260210437785,0.6009963369559518,0.4822782334583157,0.14330726698583973,0.03068956886450544
28.699993,0.8410484878255357,0.5242261834538444,-0.45967507832803206,-2.3488693534564535,0.6865407958062617,2.7868698575756246,0.5965219277617255,0.4786516836327394,0.14017297859086847,0.03072318294734827
28.799998,0.8328805136673937,0.5158616638639129,-0.45429452562821826,-2.3625782880676187,0.6865399792976308,2.7939739982963605,0.5910212509313165,0.47517864011984223,0.13658883329192745,0.030501228872896594
28.899991,0.8254634145774568,0.5091943282902017,-0.4496740581945507,-2.3744592975161813,0.6865400151427734,2.8032319660542053,0.583230085125416,0.4726490338865007,0.13318192888961092,0.030462937729202902
28.999991,0.8186129715995865,0.5020594184302297,-0.44505865450912757,-2.3867780000766623,0.6865362486748594,2.8117219858405464,0.5760420082932657,0.46976224727730714,0.13009399164399155,0.030453038883982986
29.1,0.8120965877799603,0.4948244026347778,-0.44058218591166887,-2.3983002204209036,0.6865365979312705,2.8189434390735784,0.567876275817294,0.46688261918638024,0.12730959941034645,0.030564644261349375
29.199988,0.8053522349709641,0.4883940049954535,-0.4365709328220197,-2.410163678017013,0.6865478272466576,2.8261494935237708,0.5617058340139418,0.4639387547115719,0.12397054988126086,0.030308374643380848
29.299975,0.7990578551681103,0.4826772929601836,-0.43257057128074267,-2.42083701322271,0.6865611983883299,2.83428510532005,0.5584127478773191,0.46135741226931015,0.12102434900962634,0.030231988089905446
29.399991,0.7908894324139728,0.47467090018178987,-0.4268754970016034,-2.4341322343308325,0.6865649707565666,2.8427183978559047,0.5549601131592864,0.45794993935234907,0.11785348596552662,0.03024308520660035
29.499996,0.7800213109460175,0.4668098293601011,-0.41882452121754643,-2.4463211236834748,0.6865612000103084,2.8515239053664407,0.5504274071602153,0.454937637701728,0.11487012158093551,0.030285843595598896
29.599995,0.7707503170544188,0.46007988178413467,-0.41319458293602357,-2.4584176258153803,0.686560270051494,2.8591036766477007,0.5440925465860642,0.4518922554752377,0.11133752881313902,0.030073499835416656
29.701318,0.7622943232302501,0.4542680265728595,-0.4078987083741067,-2.4685537637715202,0.6865563737228156,2.8662806205654734,0.5377661906733148,0.4493612443933698,0.10843767134509708,0.03003675998333541
29.799991,0.7539469855574625,0.4471740982433384,-0.40263156963462904,-2.4801450217787124,0.6865592442312177,2.873313492994769,0.5294420069959686,0.4463730780326974,0.1054159497123258,0.030136306279495553
29.899996,0.7455080092699943,0.44086406327975075,-0.3972743264886377,-2.490824810363231,0.6865641528145474,2.880302540089226,0.5226993220873217,0.44365102250099653,0.10254738020478994,0.030130917025395554
29.999988,0.7358994655657003,0.4349532524382784,-0.39023162531057554,-2.502303481586951,0.6865638153505091,2.891003957380114,0.5182222071428964,0.4408835206052999,0.09949395735046718,0.029990833549977766
30.099958,0.7234555574883317,0.42679955980076295,-0.38150634293728586,-2.516065512254156,0.6865692366666911,2.899929097682594,0.5124335639614497,0.4369372274333613,0.09591791816905589,0.029930902644796295
30.199991,0.7082106921285692,0.41658118326705174,-0.37256151165950824,-2.5325609052282747,0.6865701581763286,2.9096432326588695,0.5028960278744862,0.4326133176087378,0.09110257832286484,0.030096524192197438
30.299997,0.6914177752056007,0.4098079527838955,-0.3642246139355403,-2.5437157961917882,0.6865633564463712,2.915094553931751,0.48931142603310096,0.42996867632932934,0.08628693605437537,0.029876085385387705
30.399992,0.6785564098392776,0.4080144712653535,-0.3598337566316219,-2.545924722841632,0.6865353711480982,2.9166060988679536,0.47801488825770266,0.43014314104361895,0.08276698935311994,0.029848024666161016
30.499971,0.6685410290337138,0.40796886932220083,-0.35901760378357617,-2.545322322693491,0.6864358515468085,2.9164358575670137,0.4706871060539138,0.43118826487266115,0.07892935233396174,0.029932775870748773
30.599991,0.6567670025618477,0.40867389932875886,-0.359004100486767,-2.5425287406588373,0.6845687764033055,2.9130240232446254,0.46411833505243455,0.4329180704508949,0.07461805504632517,0.0300174253867784
30.699994,0.6422726196833161,0.41121337421181664,-0.3591253622814102,-2.5355863249634187,0.6769584120558971,2.90829652427988,0.45632811855319894,0.4363751723534952,0.06974112438339891,0.03025453559881751
30.8,0.6269404750147053,0.4143179033407069,-0.3593164521015912,-2.528800732495645,0.6685586711296564,2.905199786864779,0.4475995793295428,0.4397223058833107,0.06429812092649781,0.030382861384257068
30.899993,0.6115595318950204,0.41669108355669765,-0.3593511753663743,-2.5228963555050163,0.6625655635968251,2.9009252204408105,0.4434773989698012,0.4424441426060173,0.05867091326707466,0.03045879705779471
30.999992,0.5963345704315672,0.4192130276990046,-0.3593154495641191,-2.517400564084223,0.6553702541303478,2.8969590750199603,0.4405191421567997,0.44499164542735076,0.05313506914522365,0.03041996732996674
31.099989,0.5813615746404361,0.42252850706335027,-0.3592518490645407,-2.51000349164687,0.6468896670023129,2.8932057528299566,0.43646594511363696,0.448345639704597,0.04787487782862706,0.030564713727869883
31.199987,0.5663989350969297,0.42581962723016437,-0.35844264662282965,-2.5028456494676528,0.6360541581837807,2.8895794258582184,0.4326122379406273,0.4514240267380095,0.042842021504984944,0.030603325217493482
31.300001,0.550398024201326,0.42951701204505466,-0.3573854871648942,-2.4953045215586953,0.628295465903575,2.88667671733108,0.4275191107512383,0.45466289472357385,0.03723703113502917,0.030604064419086197
31.399992,0.5349118303027474,0.4337744224738596,-0.35652548225206443,-2.486439781608335,0.6199961770782414,2.883661759117407,0.4237473451106243,0.45848564736751324,0.031871982252323704,0.030766856273489823
31.499989,0.5204305250125711,0.4376833361243514,-0.355091678262326,-2.4772182142431074,0.6131165668214561,2.879862438083068,0.41981149684362723,0.46202384040117683,0.02734289028995939,0.03097262565106064
31.59995,0.5061652891353503,0.4407778994176752,-0.35362135235108605,-2.4694840738644466,0.6047115632817394,2.875401630021183,0.41447288283603917,0.46485539088578587,0.022725216360232885,0.03109328947607115
31.699971,0.4910275606396207,0.44355648138969406,-0.35116535813359817,-2.4623725502372396,0.5949310209960207,2.8714526172903976,0.40869830705879107,0.46753525667895307,0.018169769952065123,0.031177401508012154
31.79997,0.47595218366389885,0.4472052082469619,-0.3492181019955257,-2.4541843918321304,0.5883805270514401,2.8674586356248906,0.4042123091623338,0.47046553608892117,0.01320503080967243,0.03118237393654953
31.899971,0.46097617058122203,0.4511546479066247,-0.34685286031055146,-2.4450323554109477,0.580164582355731,2.862231346133817,0.40277220575846484,0.47354085083084557,0.008645541079585591,0.031186401656091947
31.999965,0.44640099852259435,0.45554492884721093,-0.3452461307088905,-2.4349565607035535,0.5713161213947084,2.856980619768817,0.4023208638554732,0.4770764024795308,0.003911748796271685,0.03132744321890933
32.099971,0.4333020576646633,0.4614144631334699,-0.34418469025160675,-2.4228012206625498,0.5603159792972714,2.852347233063379,0.40225161888735544,0.4813951009067614,-0.0004908331311860417,0.03147271935015357
32.199951,0.4222343699114311,0.46585611521465364,-0.34251542368829896,-2.412627434350409,0.5532216616141505,2.8484978366818563,0.40223245402902524,0.48479356022775394,-0.0037456221386139572,0.03172083636122096
32.299953,0.4116573431629682,0.4674085743347986,-0.3384293146290418,-2.407324406191096,0.549086231009584,2.8467501279632064,0.402204675347287,0.4865300944727146,-0.005946526398801973,0.03192502272229229
32.399993,0.4026141533231964,0.46730913324329115,-0.33433684453762263,-2.4063642229716935,0.5445547972942322,2.8467847801817365,0.4021692658283417,0.48680306242297816,-0.007803688850989653,0.03184735088342028
32.499992,0.39388252726461137,0.4666051386239959,-0.3291769738381626,-2.406339596172803,0.5412981920549106,2.8481679254728487,0.40040487966895455,0.48698230202561016,-0.009102715712394429,0.03184404854064386
32.600004,0.38471696997217136,0.46537947659589124,-0.3241181272329725,-2.4079853694028843,0.539600426748505,2.851191623013067,0.39412889070394264,0.4865775204800239,-0.011112538330737462,0.031772586358092464
32.699995,0.37613475656445056,0.4630421084878963,-0.320971198697497,-2.413402383502811,0.5393770174063864,2.856888348153332,0.383130657219035,0.4849275056754747,-0.014358998480070656,0.03162780312630534
32.799956,0.3673973571381134,0.45867878004525114,-0.31846464619950404,-2.422807132650102,0.5393715021968882,2.8637560503954984,0.3709162019268402,0.4819413761553278,-0.01811694324816297,0.03150564952772804
32.899989,0.35816396522841215,0.4527165080100509,-0.31657220254860274,-2.433836290935761,0.5393715473153013,2.869134343025472,0.36160043164800515,0.47818409163686565,-0.022291437433063013,0.031516874473010006
32.99995,0.34867710639068245,0.4477115976501643,-0.314820500941649,-2.4433332017622167,0.5393742075563108,2.8741876802990793,0.35500744051715416,0.4751320102812967,-0.02643650655388359,0.03156256485877586
33.099994,0.338913513211791,0.44274733697396335,-0.3110956267961785,-2.452176548071506,0.5393739558385576,2.8805671677860523,0.3470484853704403,0.4724631148459589,-0.029625936531554476,0.031723292311812715
33.199989,0.32972920912429704,0.43840656963112146,-0.3076528647418777,-2.461035846206074,0.5393755279841165,2.8868594119916637,0.339374592324562,0.4696267589908723,-0.03281749070527215,0.031583707668736874
33.300001,0.321622689907834,0.4352857808255914,-0.3048722176954984,-2.4680141152381836,0.5393747390350015,2.8924769451622767,0.33036114682009526,0.46732463389709833,-0.03571736305624008,0.03144195761660701
33.399989,0.31291099766745334,0.43109070012105255,-0.3014454485878064,-2.4762836832781474,0.5393724767620746,2.897965012525566,0.3221996727826092,0.4644694556200251,-0.038533787217454984,0.03139368923761518
33.499972,0.30238215150714404,0.4254210477071256,-0.2981294536295921,-2.4863715439192036,0.5393734918087295,2.902289165579423,0.31576052374261565,0.4607464339252837,-0.042137931549349375,0.03137074694112707
33.59997,0.2905694409566767,0.4207771571034494,-0.2939528403224145,-2.4949821269641204,0.5393779519595272,2.907858360842291,0.3080940453147155,0.4578564633504135,-0.045790250570771907,0.031415403229054645
33.699987,0.2790769341995096,0.41561636515259287,-0.28933122168883646,-2.503625999952427,0.5393746988250071,2.9130043605309393,0.3003204323040213,0.45485111847991716,-0.049008152362998415,0.03156806571408527
33.799996,0.26853311555667814,0.41149881881748024,-0.2857718953973439,-2.5122122716224053,0.5393739412080268,2.9189024389987517,0.29083529838420363,0.4518691391932918,-0.05243578607990661,0.03142981191462883
33.899994,0.2589160377761717,0.40879746826181074,-0.281432255066121,-2.5182015588992805,0.5393715601206138,2.9247211236183195,0.28270246221340084,0.44990014119581695,-0.055004130219885254,0.03133351132258559
33.999947,0.24999827987045503,0.4053471941457421,-0.2780107281162277,-2.525524026604564,0.5393771768268256,2.9306396440368867,0.2753238275603267,0.44728105536597285,-0.057791912840247525,0.03130297444451713
34.09998,0.24002919420190838,0.4005069630993075,-0.2751920920718647,-2.5342294934757605,0.539374342090399,2.9345037356928194,0.2669209509292692,0.4438503294425042,-0.061012248142627686,0.03134474681911634
34.199991,0.22763778676423982,0.39600890094232244,-0.2705825891519129,-2.5423514998819474,0.5393755708561624,2.938479031259885,0.25838681692790827,0.44071227909058586,-0.0643688440997688,0.03129942178656904
34.299994,0.21368917654461214,0.3911018696882087,-0.2650052751450008,-2.551539569173033,0.5393718462957297,2.945340233937954,0.24551849178215765,0.4372924566045069,-0.06816853562406393,0.03139410429725836
34.399991,0.19763934397715419,0.3855128251356131,-0.259089420961629,-2.561942836546645,0.5393763285101406,2.9512849146025952,0.23347887487252356,0.43316545845626425,-0.0726222726670965,0.031335653449556036
34.499991,0.18165031962982764,0.38252420885260613,-0.2549145734253353,-2.5679611974685335,0.5393730095543509,2.954672987482345,0.22203002928365997,0.43044985552061815,-0.07754688050041349,0.03120892891326188
34.599995,0.16969202258639524,0.3818984637889316,-0.2540803419638997,-2.568996813508235,0.5393511399864513,2.9550197864506074,0.21065249568987665,0.4293372411167943,-0.08216183032259121,0.031212726578018393
34.699981,0.16294199154584083,0.381947225900092,-0.2544087931439009,-2.5683092686007396,0.5378542249630328,2.9541198154393995,0.20659700550499907,0.42914040976216383,-0.08480128027214624,0.03130252423606733
34.8,0.1588221673216345,0.3830888930869947,-0.2550305759901972,-2.563625895559031,0.5306379291760385,2.947858760699736,0.2061426073460481,0.43040898792717625,-0.08603174356481295,0.03142709843793538
34.899992,0.15298376253469806,0.3870812409366496,-0.25662565966197415,-2.553501823778748,0.5198198298947749,2.940003731933216,0.20599461924579873,0.43350991970392166,-0.08862977730293238,0.03162909240629967
34.999997,0.14618179022542294,0.39237466869680343,-0.2580975522188958,-2.541279878471141,0.5142581782087992,2.9320820704443817,0.20590156133345414,0.4368825920521713,-0.09177611347689989,0.031743054840365006
35.099995,0.14211012499845396,0.3974837317198117,-0.2602517045074521,-2.530959427392795,0.5114515344000896,2.9266226829574373,0.2059012090651019,0.43966998111584005,-0.09434755207395973,0.031754056003593586
35.199944,0.14162464005919678,0.4012785401242441,-0.26271123996454687,-2.5238362835483374,0.5101679790251175,2.92284996100526,0.20589748836239388,0.441674068551011,-0.0955849654383301,0.03174065732854868
35.29999,0.14166698840685585,0.4045448327050086,-0.2645115782362329,-2.5172682063453946,0.5095012434069861,2.9182951439534945,0.20589810724545857,0.4436297881886555,-0.09630039720550251,0.031700677150791376
35.399988,0.1423691825662292,0.4091741841319766,-0.2667484341958049,-2.507707929733892,0.5089281236324122,2.913963072455384,0.20589431938369152,0.44693278785929746,-0.09712253276391099,0.031921824954064065
35.500005,0.1463873212501263,0.4140244905556243,-0.27126038741548486,-2.4982681380682044,0.5081225005257572,2.9091557499083978,0.20589539757106537,0.45002393999566487,-0.09755447253885895,0.032062218160527095
35.600023,0.14983486278119243,0.41851756507759347,-0.27500235263849904,-2.4894516871559262,0.50780601905446,2.902897621424392,0.20590691361294544,0.45269083402331756,-0.09771048736735956,0.03203219829860263
35.699996,0.15012047593692157,0.4238378105957131,-0.2773382512780891,-2.4778656926334706,0.5076158553148269,2.894347996796334,0.20591160647094578,0.4560309376122552,-0.09852036661383173,0.03207011442360817
35.800005,0.15002862205031967,0.4295704362600298,-0.28048636545563643,-2.466368664185184,0.5073114956438658,2.886213490071319,0.2059102123241854,0.45917061385503655,-0.09992617462850191,0.032020214955769344
35.899992,0.14955320297753122,0.43595171509237607,-0.2838895901481026,-2.4533185213357,0.5063820119558959,2.8792257907462027,0.20591887308148268,0.46321505295191534,-0.10188017114690315,0.03226947074830194
35.999992,0.14806846724376868,0.4422922887072362,-0.2869503507524015,-2.4404590773581925,0.5052825443138493,2.8726042711993847,0.2059163477799076,0.46689142890883545,-0.10408287754032333,0.032430468011757904
36.099995,0.1464125608330963,0.448124603619041,-0.2897207809789859,-2.4290247983404734,0.5036068538294778,2.8655029085272195,0.20591232210725732,0.4699516852760893,-0.10609293532630173,0.0324397692251632
36.199976,0.14356175837827775,0.4534056946394843,-0.2918731255828589,-2.4177447505092053,0.5010079197711389,2.856360299728514,0.2059143975848235,0.47265175167821033,-0.10807828268475879,0.032425045603095254
36.299971,0.13931027104327984,0.4590607849227097,-0.2930757677943707,-2.4058339693997874,0.49777340769138384,2.8494077988671043,0.205901081190221,0.4760586048385653,-0.11060291862499981,0.03256909963859195
36.399938,0.1340524687958793,0.465551454473469,-0.293855182580724,-2.392567105733125,0.49291251624432825,2.84444568644654,0.20589453021591692,0.4799965033515164,-0.11359031542399367,0.032848173131536554
36.499944,0.1274150005483848,0.47096067534372765,-0.29392097139749634,-2.380498593461918,0.48606845798643467,2.8374668537014327,0.20589531190996072,0.4831014549604571,-0.11656332387730696,0.03301946302516512
36.599979,0.12063710225578649,0.47667194189466733,-0.2939466831684947,-2.369034539259231,0.4805295230466017,2.8312404074613964,0.20588897442385043,0.48592611981090583,-0.11969417490558379,0.03298997746283448
36.699995,0.11404762050017388,0.4823906576333186,-0.29396907111508375,-2.3574272298505687,0.4765191546984426,2.825343267464807,0.2058813188822552,0.48887539057643253,-0.12282557583313039,0.0330320694483915
36.800009,0.10747987554181306,0.4885885761876004,-0.29397771798091366,-2.3440555523105115,0.47309808875328146,2.8179967717161305,0.20588341863185805,0.49237967892925866,-0.12592396902306885,0.033250340510892776
36.899962,0.1001827245338514,0.49462586419265675,-0.29395718666339565,-2.3303586352495773,0.46961225719572397,2.8110835949152158,0.2058698367464863,0.4959777464094481,-0.12956008954318374,0.03365093488110932
37.000003,0.09171294826305346,0.5013126193230061,-0.29394730235456923,-2.317163024472586,0.4643069432848034,2.80473944059117,0.20585597031361727,0.4989718377685083,-0.13387740165687828,0.03359678958668699
37.099997,0.08165592758579057,0.5081122222487626,-0.2939041010239783,-2.3029910655674732,0.45852041282076766,2.7973319259735723,0.20581143554059209,0.5021048633392292,-0.13894447708304444,0.033759644117011225
37.199972,0.07012015256820094,0.516010094008218,-0.29392560623491104,-2.2871348802732117,0.4533218708221554,2.7906092686138058,0.20275550395552747,0.5056309450102505,-0.14505380804342677,0.033960559365067325
37.299991,0.058534162170917364,0.5231225170182786,-0.29394687028763516,-2.271639616994865,0.44892454329684606,2.782684389236767,0.19896022373520977,0.5086997133942114,-0.15095578525190223,0.034259809190744686
37.399989,0.047902627421508796,0.5299303683185029,-0.2939220685352645,-2.25778743552329,0.44261282684317826,2.774718025477449,0.1952954673287505,0.5111771638410191,-0.15637431864869936,0.03426955598114227
37.49999,0.03770015978776463,0.5370597622299745,-0.2939633838061794,-2.2437281891542997,0.438479698882006,2.769143857540162,0.19299742568834435,0.5140505737856261,-0.1619727853253831,0.03438980748280268
37.599997,0.029240342213188112,0.5438742065673757,-0.29394431764639517,-2.229916907273558,0.4358226266522358,2.764057261860857,0.19234578523542906,0.5170866285199681,-0.1665155471732214,0.03470524278848937
37.699986,0.023211155783490454,0.5476042302437888,-0.2937964614992615,-2.2206337279691586,0.43322195150021287,2.7578400774267284,0.19184976206543866,0.5187016926357934,-0.16937850319506692,0.035017643302375945
37.800014,0.018218674372157163,0.5493381563526317,-0.29322799497557367,-2.216632952052318,0.43171207839346,2.7552159488412467,0.19100893393822158,0.518996161696793,-0.17155997243585808,0.03505551124178248
37.899993,0.013179936273062577,0.5494264391457774,-0.29187108634164044,-2.2162265629405637,0.4308394550668957,2.755095895076873,0.18847878064956006,0.518441678055507,-0.17336726474826333,0.034985432052248064
37.999962,0.00820785916388532,0.549252050733069,-0.29080424933450366,-2.216410723034482,0.4305701930222138,2.7554699648985883,0.18050090380182238,0.5177253600083023,-0.17537709468950854,0.034967132861984954
38.100002,0.003319129586413963,0.5481213353789394,-0.2903426919699069,-2.218678193235971,0.43056529883343553,2.7579154623035538,0.16525753201184787,0.5163614045770694,-0.17779274389178445,0.03504524812164851
38.199986,-0.0026155916695152466,0.5458677523375735,-0.2902849367569431,-2.2235712159545375,0.4305664894478883,2.761412838856009,0.1527262486836201,0.5138702407331744,-0.18093455124991542,0.03499845508669866
38.299944,-0.009744007017971285,0.5439162673707573,-0.2903260694534237,-2.2283615627024753,0.43056236496703143,2.764735287318656,0.143349640283231,0.5111599899552701,-0.1846465072968583,0.03484098441321923
38.399971,-0.01693509086205742,0.5418163698325507,-0.29032957960477246,-2.23367660526219,0.43056492029268456,2.7696819211675847,0.13337017615739097,0.508412498845157,-0.18843278989491458,0.03476201737581147
38.49997,-0.02382911568196824,0.5392799863336372,-0.29030370234009556,-2.2391990507095465,0.43056712089410415,2.7727346391300194,0.12610030812237596,0.5054618275817546,-0.19176628909515206,0.03465883661485293
38.599975,-0.031897645459201755,0.5365583322809574,-0.29002348405476586,-2.244532338216887,0.4305680108289001,2.7756928143583397,0.11952549422564962,0.5023410443814021,-0.19557321685971257,0.03468457695100581
38.699971,-0.0415465081724157,0.5327417917366091,-0.2893666065089183,-2.2514767278503065,0.4305700430307987,2.7778836302713312,0.111742831861542,0.4983290468317215,-0.1996380149841258,0.03463622768767054
38.799997,-0.05140742701689777,0.5295937485640688,-0.28838578058361075,-2.257345735790353,0.43057061534422403,2.780580161900833,0.10449254279026393,0.49487750771882094,-0.20364463558344126,0.03462986760194714
38.899944,-0.06033986241824132,0.5262367341822299,-0.2872807597082131,-2.2636632890262702,0.4305718113009605,2.784436046219478,0.09541891118964319,0.4915391224185434,-0.20718812989338822,0.0346746567716876
39.000072,-0.0678777587591145,0.5233125500651175,-0.2865177139773446,-2.268891855427021,0.43057344392736224,2.7877987660454693,0.08767388749350313,0.48880135733116464,-0.21026541448443184,0.0348378505566284
39.100052,-0.07604158605201507,0.5201457753936651,-0.28491044851111685,-2.274398014731188,0.43057216276702737,2.7907681785843277,0.08031614147390037,0.48589335953151613,-0.21307414359863394,0.03489040947015519
39.199932,-0.08493755572580078,0.518016602108237,-0.2832023762665926,-2.278299600612089,0.43057577219845383,2.792833449837904,0.07165897872587368,0.48328584379276235,-0.21631668778125077,0.03483158576394821
39.299946,-0.09288536238854075,0.5166588138785269,-0.2825070721191483,-2.2813890854885126,0.4305718561690745,2.7960503303968425,0.06353857315143617,0.4809419638778178,-0.21980641012957944,0.03482792889529476
39.400002,-0.10033593427614548,0.5144570024147328,-0.28214116306891807,-2.286340582860737,0.4305703595716425,2.8000810044318105,0.05320218565809516,0.4779644529313367,-0.2230777878043958,0.034783055944233934
39.499994,-0.10867285737494786,0.511942208821878,-0.28152470526642764,-2.2919318950815595,0.4305728716308849,2.80374968448165,0.04483216116969687,0.47459518304590437,-0.2265397208827233,0.03467969501645178
39.599997,-0.11780065309427293,0.5090893526800764,-0.28100763718913024,-2.2973785571698593,0.43057205344408883,2.8067252054723935,0.03663210120222822,0.47100780374374857,-0.23028140193306249,0.03472415829081055
39.699985,-0.1272909440843394,0.506005630208171,-0.28038276371870247,-2.3031213854759507,0.4305710647343694,2.8091257688630917,0.028814365849469607,0.4672967471633082,-0.23389547361084273,0.03471037059743107
39.800359,-0.13686439698242883,0.5040370353754681,-0.2791322651499304,-2.3065061857456346,0.4305737289607808,2.8102935514833485,0.021069457360665397,0.4643576942483724,-0.23741049265348801,0.03469026551893624
39.900005,-0.1451305976820838,0.5023184662592044,-0.27851379655870107,-2.3097028085036504,0.4305711171847831,2.8122729795065697,0.011627772145292216,0.4617025861620944,-0.24064385034650262,0.03474635237123809
39.999993,-0.15256948674138116,0.5000699728620578,-0.27787817916770924,-2.314091646338801,0.43057268360355716,2.8155002159860976,0.004854634861803579,0.4588829106068338,-0.24351512277426893,0.03480527668592327
40.099995,-0.16139309168299112,0.4972105480020148,-0.2762939074204898,-2.3187815622221852,0.43057178046352723,2.817791188747309,-0.003281975076422894,0.45577494269053215,-0.2463709279119538,0.034925702512476814
40.199992,-0.1714153399684439,0.49322384979454315,-0.2748719600008485,-2.3262250457634903,0.43057420343609026,2.82180880331005,-0.012081720798432886,0.4513855988227787,-0.249664151629474,0.03492634702053732
40.299994,-0.1824006561043148,0.4898730034328061,-0.27343886695830755,-2.3336886040448817,0.4305719296662015,2.8264332068526854,-0.023414964593128536,0.4468701973354809,-0.25336714550531275,0.03471939994703738
40.4,-0.19400355436947858,0.4861473341300569,-0.271670045767253,-2.3414816995602625,0.4305719318467512,2.831893698962902,-0.035344984621910415,0.44212106650994487,-0.25710559956662415,0.0346581883254683
40.499996,-0.20646010970619738,0.4817689683337506,-0.2696482898316799,-2.349290918172095,0.43057268776880625,2.835710955843041,-0.04682214215058719,0.43724334268640236,-0.2608131948984621,0.03473856282574522
40.599947,-0.2201415812113468,0.477651273321284,-0.2672620846807867,-2.356296548776676,0.43057292840256073,2.83870648367998,-0.05882944165466934,0.4323482514084113,-0.26492540291868966,0.03479490205498813
40.699991,-0.23240495580508838,0.4744928643247162,-0.26634077067979484,-2.3627968277341593,0.4305764665690638,2.8438962350690313,-0.07059903578706622,0.4275994116042071,-0.2692485538994257,0.034880915831237716
40.799957,-0.24178531860317745,0.4684937346002156,-0.2654142831572901,-2.3747859920718413,0.43057526948126496,2.85240911492019,-0.07698700287958352,0.42198604814891505,-0.27163405459287265,0.03505825400438334
40.899966,-0.24670515145904529,0.4611695899905112,-0.26459340950191906,-2.391364288182705,0.4305800731095563,2.862139457542219,-0.08042886667540784,0.4160108380422014,-0.2713883498891107,0.03465727759048737
41.0,-0.24813366490807737,0.4520239365143648,-0.26180112097819,-2.4104358515227613,0.43060101385807137,2.8740811467769904,-0.08107303510228592,0.4109678337241269,-0.26847510649622847,0.0345540464221043
41.099995,-0.24854221742233626,0.441054853343239,-0.25647011180477625,-2.431913038537272,0.4306141653065273,2.8866874903493174,-0.08113816373770552,0.40624215706368866,-0.2638294270849575,0.03449857728534754
41.199994,-0.24902407774117485,0.43262276209479245,-0.25114868032868104,-2.450631007619471,0.4306221579041721,2.89809987361658,-0.08117020372899707,0.40216977280393124,-0.259736336463083,0.03409560471923939
41.299995,-0.25092960487435756,0.4239862896948048,-0.24540664757659783,-2.467427764523608,0.43064925428336687,2.907384530569903,-0.08119265920024835,0.3983228243075689,-0.25599469630436855,0.034015664184614616
41.399989,-0.25543070631365034,0.414828396131527,-0.2383588912149024,-2.4845591955353274,0.4306605125360288,2.917566800484232,-0.08121294258339207,0.39409617970700567,-0.2527704331611475,0.034045968907957885
41.499985,-0.261230468407897,0.40759999583146467,-0.2313870809759801,-2.501034005512911,0.43066265908818285,2.929325149499721,-0.0812279615489196,0.3897478188115178,-0.2504242508907277,0.033675118533085344
41.599999,-0.2669087947993031,0.3991616958683437,-0.2252719801503144,-2.5177698882405983,0.43066649991362804,2.938397253033695,-0.08123461871697586,0.38488771663860794,-0.24787535571947267,0.03363071240261464
41.699988,-0.2721646634032752,0.3895519553734906,-0.21893591373954446,-2.5365473080452947,0.4306646769007802,2.9493247263127786,-0.08123731183854124,0.37973440412748294,-0.24490050351650142,0.03364953664265444
41.799906,-0.2778661416584074,0.38162022804645146,-0.2113612868600449,-2.5544836960993282,0.430666528297493,2.9613866728628158,-0.08124117810295589,0.3750686436857805,-0.24194378771387873,0.033331124040680046
41.899988,-0.28376525403947717,0.3734489041782992,-0.2030984281534456,-2.571833605183076,0.43066635790506186,2.9730823792673164,-0.08124328075623413,0.37064753105359505,-0.23870037616218798,0.03325419737538228
41.999993,-0.2901304631367173,0.364452835682921,-0.19498501433784332,-2.589409602550317,0.4306722757731167,2.9829918541635436,-0.08125069029266675,0.3659896071960064,-0.2355581992891528,0.03329836059242672
42.099994,-0.2965530834645346,0.3578686895496415,-0.1872934061938371,-2.6041390023137825,0.43067095377681514,2.99276349784824,-0.08125627015466999,0.3621221280908192,-0.23316869366389423,0.03308930967225969
42.200005,-0.30123689133051645,0.35355607323725985,-0.18116193986863516,-2.6150906103918894,0.4306740873370227,3.0030703414034567,-0.08124917505047538,0.3595807171385262,-0.23158319404826003,0.033003870374699665
42.300013,-0.30567545915014216,0.3496848385770029,-0.17568391833502806,-2.6238554019655416,0.43067203552847116,3.009485384127323,-0.08125245797014284,0.3572875235895183,-0.23000971953103838,0.032929139917695374
42.399994,-0.3125178483211842,0.3451083354702604,-0.16963997711598042,-2.6324239374715472,0.43067129795088,3.0132743260256905,-0.08126545404491019,0.35461319215312254,-0.2288552720491782,0.0329258539565815
42.499996,-0.32329561819046443,0.34184194608520646,-0.1626282808655952,-2.6374171712522934,0.4306460751911395,3.0148009141178496,-0.0828939925334888,0.352456320044794,-0.22913374763710984,0.032968815830310555
42.599984,-0.335298043350631,0.33987235270411453,-0.15756914233903233,-2.6400297826158097,0.43017619059687057,3.0151880051466864,-0.09007483279883859,0.35020841144445186,-0.2309199484052925,0.033016739972323794
42.699997,-0.34880958497943765,0.33867447289468494,-0.15426722169757565,-2.6415091940980107,0.42947842752946747,3.0151860503498518,-0.10476024469042598,0.3474215907723224,-0.23416342418231598,0.03304167558442786
42.799993,-0.36313002203126327,0.33828819752038647,-0.15396711147815184,-2.64193521348417,0.429232841043112,3.015186050369717,-0.12044050598362989,0.3439872497997826,-0.23902004620963188,0.03309371307416155
42.899923,-0.37849720266962145,0.33812751509469846,-0.15398181707127,-2.6419418328545636,0.42909398540314264,3.0151938425284155,-0.13485692841072008,0.340299655790948,-0.24433630505403175,0.03316449533489263
42.999997,-0.3929729615359558,0.33786633184822185,-0.1539575088752248,-2.64192251060821,0.42885453665897283,3.015193011389146,-0.14962491581026854,0.33688824587202976,-0.24916267807585432,0.033267081606454335
43.099994,-0.4058588784935655,0.33772465177232736,-0.15397533725115187,-2.6418660755091885,0.42826890858209354,3.015184914961283,-0.16079907654830614,0.333778136586901,-0.25346090247381214,0.03334072840204047
43.199924,-0.41711160283607024,0.33770356645232613,-0.15395113501654786,-2.641357538429061,0.4261945260962207,3.0148001573113854,-0.16974310707434495,0.3313279870898741,-0.25714247242313804,0.033441207926703326
43.299999,-0.42802065882937124,0.337775601237242,-0.15399675819655168,-2.63942246986117,0.41936391538047885,3.012064074780848,-0.1798218384222065,0.32953531131610186,-0.26061024891378565,0.033614211266912
43.400008,-0.43604746745070266,0.3386872209501932,-0.1561393774219833,-2.635004440336285,0.41028851545344697,3.0055621956077823,-0.18429513925737764,0.32857275878430126,-0.2639224348972933,0.03372094115485452
43.499993,-0.4429209952025967,0.3422840741310589,-0.15817256233594074,-2.6260091632898837,0.4015728667807452,2.9974756249832075,-0.18448347792266756,0.3291894717050531,-0.26773036704854514,0.0336932546076044
43.599956,-0.4503506621353271,0.3476563751640593,-0.1604828955443721,-2.613237796029153,0.3941563474196851,2.9889654073472083,-0.18450148586198936,0.33058976013644903,-0.27273221055414504,0.033810325280926215
43.699993,-0.4585879905347029,0.35304126921206985,-0.1616278119290052,-2.601787265922612,0.38867465209105423,2.9828899776537856,-0.1845399127908607,0.33148621045784726,-0.2775729767648835,0.033816636207920484
43.799984,-0.46904548891314946,0.3564681905434619,-0.16127161811774174,-2.5937659418941874,0.38304179506637254,2.9798592942190516,-0.18629301270720736,0.3313311732601636,-0.2823032010483424,0.03406172846944795
43.900025,-0.48254466021036324,0.3585814423353775,-0.16048303279597173,-2.588040234365291,0.37682943473041813,2.9779168345093914,-0.19153326642454746,0.32972260281932964,-0.2875539588663152,0.03436842905357204
44.000014,-0.49690898531233574,0.3605316866355013,-0.16051491522689781,-2.5827136480021844,0.3705569525679307,2.9748915951615142,-0.19764495543032884,0.3275240497547964,-0.2930486755114258,0.03456978508569904
44.099997,-0.5091252203161779,0.36415379271896625,-0.1615044540035792,-2.57360675655471,0.3603117347139302,2.968740860532415,-0.20097075436194578,0.32681564695321874,-0.29855867378759976,0.03473354913792015
44.199935,-0.5171090043756984,0.3699745686270328,-0.16235311964989405,-2.56052739267959,0.3525062378690183,2.961296957774053,-0.20102432874610462,0.32830774353977293,-0.30348560271072045,0.03485645989886549
44.300014,-0.5233556914918699,0.37636462829608774,-0.16248979250858434,-2.546651493007294,0.34682129667766837,2.9534660896419744,-0.20103405442695696,0.33032218484852355,-0.3078391191724119,0.03486528565213365
44.399908,-0.5306285071120359,0.3816884787846993,-0.16234747815185027,-2.5349403576169824,0.3417335620086829,2.9487999608896325,-0.2011002271017674,0.3315601186026958,-0.3124609653318524,0.03511688501865169
44.500021,-0.540753049522671,0.38499771591085363,-0.16167947188429316,-2.527448259121724,0.3376798564022592,2.9462752792553872,-0.20340334902979382,0.3307694935528071,-0.31710595663093827,0.03532627210195077
44.60007,-0.5543929753088582,0.3870202913819369,-0.1604127021328044,-2.5221269354881866,0.3307153818846387,2.9437870005016697,-0.20884271918546016,0.3285070271651308,-0.32214020910783586,0.03553736634943429
44.699997,-0.5688953250269012,0.38918430547424715,-0.1604122214579031,-2.515723315475142,0.3238045188952812,2.938485557786008,-0.21798248300505646,0.3259209231603885,-0.32774826953506725,0.0357458963014453
44.799918,-0.5800569952245465,0.3942450625994861,-0.1611834444161475,-2.5039863093117773,0.31955116758189495,2.931103210268282,-0.22416369717524365,0.32535815417085484,-0.33362380571901046,0.0358360711746844
44.899992,-0.5866196820508344,0.40174162539162794,-0.16245065035401612,-2.4888748003530963,0.31669465590245854,2.924328367156841,-0.22506137102224064,0.32695508489223357,-0.3391757066792282,0.03592200218464921
44.999989,-0.5891884645943626,0.40953815853762404,-0.16369592700961053,-2.472495852664304,0.31416027331723734,2.9168932704361157,-0.22511574586241268,0.3300570948860776,-0.3436558450081341,0.03613519931163721
45.099998,-0.5894013095004571,0.41609989269205505,-0.16518938586130005,-2.457303169054065,0.3123758175649801,2.908495728595461,-0.22512010969211024,0.3333224848831721,-0.34702150323848024,0.03645294279342361
45.199972,-0.5894027948269337,0.42158927319079753,-0.1663513015321634,-2.4450848257802247,0.31108777364485074,2.898849347892412,-0.22512853709206257,0.3356976456924012,-0.3492216009454211,0.03636760988011749
45.299987,-0.5893969025914737,0.4273839277843671,-0.16771236740949214,-2.432186428805668,0.3099105438840493,2.890365838245407,-0.22512357450951703,0.3383486652398593,-0.35196980825396385,0.03646738561804817
45.400018,-0.5893861330640029,0.4338566498953118,-0.16925986672789908,-2.4190716007019337,0.30924288181783083,2.8835072016984307,-0.22512135805551456,0.34102775118865525,-0.3551088777846402,0.03651134497879431
45.499978,-0.589269853152305,0.4393649994725734,-0.1710021555840183,-2.4065503092860383,0.30891770926757306,2.8770900357624063,-0.22512623541560947,0.3435262189251786,-0.3580853001192994,0.03689154469950395
45.599949,-0.5885591369152979,0.44308004728597455,-0.1729522635989954,-2.398184539617855,0.3088358269503839,2.8712940421151742,-0.2251267745334118,0.3448842691806749,-0.359834566113506,0.03696991010809918
45.699991,-0.5854837710536055,0.4455554025945613,-0.17573408896644246,-2.3934794085015665,0.30882899475471254,2.8680436064707533,-0.2251352574956007,0.34586190329668304,-0.36048515697071787,0.03691929595866403
45.799988,-0.5794342402966818,0.44693364478561065,-0.17993074653674734,-2.3918086366109055,0.3088203952734663,2.8676104078059197,-0.22513258794175586,0.34673848868891416,-0.3604084618767926,0.03689238366964706
45.899973,-0.5720439838795546,0.44873686396330603,-0.18434657149493325,-2.3892904009025573,0.3088230167829636,2.866566505393817,-0.22513382961062592,0.3482669462269867,-0.36007790859668093,0.03686301370425335
45.999962,-0.5646782090193432,0.4521116902299845,-0.18717015292525271,-2.3824454754999116,0.308817395784124,2.8616842061760015,-0.22512977415566088,0.3516204460828159,-0.35975624917006815,0.036901442414579946
46.099943,-0.5586308618558803,0.45774842864375154,-0.18794650317736278,-2.3709399750555855,0.30881160473248864,2.854923227287244,-0.22513035126903103,0.35631615310265213,-0.3599562549606869,0.03684246177693026
46.199992,-0.5529967966498385,0.4646324376244991,-0.18879849536229745,-2.3566285095567037,0.30881364301571296,2.849230282641694,-0.2251288723013392,0.3617810675318006,-0.3611966907005632,0.03718165450898629
46.299997,-0.5479920247332427,0.4697019050802478,-0.19006610035221055,-2.3460769747370698,0.3088174375501343,2.844587232559289,-0.22511725470519192,0.3654487168092833,-0.36177516771221374,0.0373186091312598
46.39995,-0.5411568441816337,0.47242845934203287,-0.19385301413599398,-2.341394567013212,0.3088427762679127,2.841347344669949,-0.22504256932585,0.36729574179422675,-0.3614483303958444,0.03722676786332557
46.499996,-0.5323302365590697,0.4739402241818962,-0.19862522841543007,-2.339675383529111,0.3091263340389586,2.8408080017660984,-0.22483107449496983,0.3689594183214432,-0.36050283814296996,0.03720214639840767
46.599999,-0.5226949193807174,0.4759798144065133,-0.20232486157313123,-2.336400485495002,0.3095479403748128,2.838212748068964,-0.22420773600829083,0.37173844751142276,-0.35887679750545326,0.03710161061913009
46.700009,-0.5150254455715519,0.48021433139101943,-0.20398257636463762,-2.32738527849248,0.31014652165132867,2.8314235136766244,-0.22371792008578117,0.37604422339179133,-0.35807704529323053,0.03711204053178628
46.800099,-0.5096145816759395,0.4868893635990207,-0.20484616086126883,-2.314141749758627,0.31164553610000595,2.8239193283263933,-0.2236330780202596,0.38089442344706786,-0.3586747350634741,0.03709907369246629
46.899938,-0.5046101043660031,0.4931555111188966,-0.2073805000565673,-2.300191955792808,0.3135982039340605,2.8165332885406027,-0.22360116322331544,0.38505110442848156,-0.36021862416749145,0.03756731997245304
46.999943,-0.4984988919910633,0.4970835997852225,-0.21152967951210525,-2.2929333749800898,0.31553379044529345,2.811970546277409,-0.22355643440649017,0.38705340185892645,-0.3606094345099812,0.03752769776520838
47.09999,-0.4919748912109804,0.4992625607527517,-0.21551748837149093,-2.28964107108296,0.3173418859782813,2.809817930334353,-0.22151411011579233,0.38850739053804867,-0.36024109409704513,0.03746863344789296
47.199911,-0.48382534385750614,0.5010098090668889,-0.21929332010535607,-2.287354424994742,0.31945068012137984,2.808869918429583,-0.21972327015043674,0.3905017316677124,-0.35907960939360356,0.03741548965937026
47.300004,-0.4750815867843244,0.5041800274371088,-0.2224397856272929,-2.2818653140423986,0.3214399910552404,2.8050937033906584,-0.21866004788195514,0.39376618388512347,-0.35781227051725406,0.03732369477962569
47.400068,-0.46809136581356453,0.5100238425414025,-0.22410887296709836,-2.269875861302667,0.32305323239591366,2.797189513464125,-0.21832821735714347,0.3985683126250437,-0.35755604996012075,0.03734251922998387
47.499977,-0.46280440808819134,0.5171348463078173,-0.2265200977739729,-2.2555131792175214,0.32489802543744595,2.789808697382876,-0.21826023423781746,0.4030427233179719,-0.35886453103115523,0.03759053834757711
47.599989,-0.4580529371642691,0.5223535236530845,-0.22992798154531824,-2.244350978775258,0.32774120959747405,2.7823886263336135,-0.21823023262125413,0.4058708998610828,-0.35987795743700685,0.03780845747991676
47.700001,-0.4515522211481253,0.5257456624450235,-0.23502383408835598,-2.238670745188388,0.33132386441694683,2.7775983456562474,-0.21812545329620373,0.40729665765083933,-0.3600933929219897,0.0377266451183106
47.799988,-0.44290849727400416,0.5281920294617694,-0.24057880303535312,-2.2355731311500966,0.3368250210282251,2.776093963307779,-0.21559959247865843,0.40888820173280677,-0.3595222496288242,0.037681155299503735
47.89996,-0.43380659234209185,0.5307830680860769,-0.24464034720812472,-2.2318597058160425,0.3423344572303972,2.7740657644107096,-0.2142568327742312,0.4115012438790865,-0.3581424653809031,0.037599198064465086
47.999991,-0.4238987406754356,0.5354898915324297,-0.24834214829889664,-2.2231630786219645,0.34788537735979086,2.76869558541249,-0.2137918819318866,0.4158656370613421,-0.3569970068466858,0.03763405291522659
48.099993,-0.4147820223347341,0.5428414794363815,-0.2521426236856935,-2.2093376293621723,0.3535175109537849,2.762234268880715,-0.2137430220268088,0.42124468032514456,-0.35717305041188946,0.03783172977126138
48.199951,-0.40826736931991575,0.550028511411828,-0.2560621935494685,-2.1950044027986473,0.3582557803895873,2.7533866202832114,-0.2137355117247826,0.42531015903075003,-0.35804224157902864,0.0379904540529238
