SnyprDragun/scots_vcz_franka/recorded motion/example_1_joint_ee_log_disturbance.csv
elapsed_time,joint_1,joint_2,joint_3,joint_4,joint_5,joint_6,joint_7,ee_x,ee_y,ee_z
0.0,0.0,0.0,0.0,-1.59695,0.0,2.5307,0.0,0.30815060186713744,0.0030716971663771013,0.4864175256144761
0.099977,0.0,0.0,0.0,-1.59695,0.0,2.5307,0.0,0.3039175832597874,0.002692903969341296,0.47606048731374
0.19999,0.0,0.0,0.0,-1.59695,0.0,2.5307,0.0,0.30249102625333096,0.004085713214997037,0.46552584352123105
0.299982,-0.0020699870165582683,-0.7939947816613173,0.02031075823452264,-2.4281555496364446,0.006314777905372825,1.6172770368571348,0.7662074030721028,0.3054546750674507,0.006922047072386903,0.4594708316181686
0.39997,-0.002803467201413543,-0.7875823208652113,0.03002743706285276,-2.4367424071521127,0.009149138732195071,1.637954468254239,0.7662146183344923,0.3092269274122054,0.010233498644818664,0.4551407288341816
0.499985,-0.0041089457827630065,-0.7816933190552658,0.038076059099508286,-2.4453749572907064,0.014341866461156247,1.6569941783820157,0.7662242146822983,0.31246482730366204,0.013271747637866668,0.45072140470861666
0.59998,-0.006913275343069459,-0.7760755323033244,0.04397942482545008,-2.4577625662723093,0.016437325479627708,1.6766648793500918,0.7662258381496324,0.31514690502573617,0.014462304567100629,0.44465718408618177
0.699986,-0.010299546731255495,-0.7668977869492105,0.04716200035257492,-2.467895899577899,0.017146443688979267,1.6945023444884246,0.7662242146822916,0.31817267570453495,0.014370070957845562,0.43842913890834123
0.799989,-0.013681294855674493,-0.7556059105376409,0.04764100522226019,-2.4788418964798247,0.017243818219498618,1.7144422247358901,0.7662310270443498,0.32156131620889195,0.013318928747024086,0.43126783627507037
0.899965,-0.01704340805128663,-0.7441543267369094,0.04761497152228975,-2.4897557094426146,0.017236177892672053,1.7322248356244139,0.7662300953897182,0.3243341814936561,0.012085665580194296,0.4239107991173261
0.999971,-0.020014502656723505,-0.7345747939917524,0.0475770329703483,-2.499481384137374,0.017240597397163313,1.7525872443291857,0.7662282094962356,0.327565846087847,0.011000089111683903,0.41788085377056405
1.099965,-0.021278798876815563,-0.7260019967056048,0.04762042861634219,-2.5098727718723213,0.017282701915001024,1.7708856301298592,0.7662301130503536,0.3299747271612005,0.01048510255230006,0.41165523893252487
1.199985,-0.021398455908909157,-0.7193246152122845,0.04915338999371587,-2.520522100242674,0.018102453283964225,1.790216043110146,0.7662233426262579,0.33226801725464744,0.01094354794220928,0.4060121320201655
1.299981,-0.021391399703725996,-0.7157667162100861,0.05271566994050294,-2.5338065304506756,0.020439050702052302,1.8076711295680377,0.7662298542006095,0.3331741012365343,0.012244008381920874,0.3998894831392105
1.399984,-0.021383943212231006,-0.7156528733403277,0.0555490600311398,-2.5508622186866443,0.02151397335581078,1.8216937788675727,0.7662291541799977,0.3321935962840619,0.012934226801884637,0.39284390648176726
1.499983,-0.021875913023698325,-0.7158765877367129,0.05567326055383709,-2.5706093333941045,0.021541535321243026,1.8358739631562941,0.7662285801535422,0.3304874609089437,0.012418096882519047,0.3846886748694219
1.599981,-0.023581996964042118,-0.7173186704675583,0.05528004481538354,-2.591214115447033,0.021526201765915298,1.848966881037756,0.7662322538120835,0.3281879402860808,0.011338804962465972,0.37648480769261033
1.699985,-0.02483994657246452,-0.7174325300016933,0.055015131567466485,-2.6074052062148234,0.02153915270214742,1.8642109659642148,0.7662322538120834,0.327443337580204,0.010581013495975171,0.37019811376317746
1.799992,-0.024877030865884983,-0.7161477751537446,0.05539684941368699,-2.617544295979449,0.021623464996490878,1.8822896387094101,0.7662269566862109,0.32875540677883414,0.010542960912571722,0.3665329398842835
1.899982,-0.0248799217615625,-0.7115401478508612,0.057337336001759394,-2.6223895823373846,0.022905565818972903,1.902596861055976,0.766222081569942,0.3319515376370638,0.011269378074384566,0.3644025583080735
1.999968,-0.02486712630705975,-0.7061957279760224,0.059858932226512826,-2.6321587011083687,0.02641325377070665,1.9225550659218318,0.7662208279079338,0.3336226301690748,0.012382096884458672,0.3595750203664129
2.099968,-0.024876447944614268,-0.704387988083085,0.0607381840074392,-2.650693538167388,0.02708069897933359,1.9370269255607884,0.7662261989963426,0.33163031182726155,0.01229832965535713,0.3513837415347275
2.199966,-0.025071353435369027,-0.7044262426250818,0.06067557637305888,-2.6719489414313147,0.02708288129961381,1.951583157613296,0.7662352842817436,0.32874684181998753,0.011745354084220876,0.34260427582587794
2.299967,-0.025792520044796784,-0.7044093517369917,0.060386551895802186,-2.690225665331224,0.027077490415264374,1.9660788700435627,0.7662297178288573,0.3266149853026905,0.01103782371661973,0.3352999423342597
2.399967,-0.026169534706623865,-0.7026427959086238,0.06041382216478352,-2.7018620317733495,0.02709750133678314,1.9831052319813622,0.7662307385759074,0.3269110703410842,0.010709109349348506,0.33078930551169805
2.499964,-0.02616299983842019,-0.693759080771564,0.06104440923914892,-2.7060562693288492,0.027466659411664877,2.0047511247674348,0.7662316106252295,0.33021791270729683,0.010904823411908592,0.3277303441808059
2.599979,-0.026149770839804708,-0.6786259255789995,0.06335181169908749,-2.7111650095369693,0.02908175677529795,2.0278560576911717,0.7662308484669413,0.33334235543995167,0.01169449309350279,0.3222100847401411
2.699986,-0.02614393984954043,-0.6677592459615823,0.06551305772583803,-2.724930207107385,0.030166295675114287,2.0457410338261397,0.7662293377716303,0.33252635340146497,0.012082718959557488,0.31367334326549584
2.799988,-0.026168404102032392,-0.6664637034026716,0.0656440854773445,-2.7446281814457656,0.030196527273299162,2.0614413269168805,0.7662314961939956,0.3294754096423936,0.011626565842737607,0.30551128601695643
2.899987,-0.026294839435661767,-0.6664674125247942,0.06547656503435839,-2.762661836822548,0.03019328463713898,2.0765609392343474,0.766234352629804,0.326756030212207,0.011110524435384694,0.29855847272632047
2.999989,-0.026407268530236554,-0.6649158596927474,0.06536725232310309,-2.775607481513395,0.030193247898524282,2.0934537691983044,0.7662336079037089,0.32600240374845424,0.010763075906627303,0.29361933233370163
3.099963,-0.026402008749133937,-0.6551608316632219,0.065437240847076,-2.77957471400044,0.0302524872085404,2.1155507557933637,0.7662310822603824,0.32898837852789004,0.010774850151341525,0.29050094622674605
3.199986,-0.026347693345381763,-0.636621319944694,0.06658669239413424,-2.781668880682487,0.03141276935692305,2.1397195048665596,0.7662231685957959,0.3325032398264327,0.01127567506527587,0.28544225476487617
3.299978,-0.026302154698330308,-0.6184219329823417,0.06889720036002703,-2.79001877989101,0.03387292360413397,2.161384694979952,0.7662280719321675,0.3330487056054152,0.012008485326318144,0.2773999658595867
3.399974,-0.026324254027126247,-0.609937743465578,0.07013023292418466,-2.806066645201773,0.0342984758954476,2.179524793820213,0.7662253289651498,0.33048642263931727,0.011935149894599094,0.2689954054550681
3.499981,-0.02639963231014819,-0.6092971030878391,0.07010209600868222,-2.8238579637911334,0.03430073406489041,2.1966561550846038,0.7662260298092707,0.327431701993937,0.011442635130858827,0.2623911865975297
3.599987,-0.026487590104035973,-0.6081736484074476,0.06999386187114778,-2.837346497775413,0.03430299532004518,2.214536205413193,0.7662332326064565,0.3260988846064312,0.011056252320991932,0.2576603235018594
3.699986,-0.026486674228447114,-0.5987189921032111,0.07001116130700646,-2.8435236852047523,0.03431153899577989,2.2357826025225314,0.7662337690459152,0.3275512367832342,0.010976449510058765,0.25367264906875897
3.799989,-0.02644758627441565,-0.5767132536815344,0.07062375265580859,-2.844327798802921,0.034578624112971725,2.2607704929678762,0.7662316106255975,0.3307055326739784,0.011270329103607993,0.2481722733918042
3.899983,-0.026338141779587893,-0.5510853759365808,0.07267283467298344,-2.8469375405837702,0.035480621903084444,2.284251401986371,0.7662312879631293,0.33227281011874626,0.011946203922720498,0.2405287904960344
3.999981,-0.026302036324726857,-0.5329435526798098,0.07495507188815827,-2.8562729758408887,0.03662632687427206,2.3075487154473318,0.7662316106258942,0.33155868959608426,0.012427822140539434,0.23254114718797203
4.099976,-0.026358907459318223,-0.5258514888917976,0.07507034029751442,-2.871177748021945,0.03684804416736519,2.329108914169413,0.7662240659560643,0.3291452656884291,0.01206855651044274,0.22580826254182956
4.199978,-0.026493665973119654,-0.5224526135216856,0.0747755746402423,-2.886304148193964,0.0368525788484465,2.349040684502802,0.7662289410720327,0.3266143607448292,0.011556365833591372,0.22014677068723737
4.299976,-0.026588411044132756,-0.5148064448163635,0.07450818033499491,-2.8939216262167258,0.03685071781609312,2.364419470944381,0.7662274655722877,0.3257614036735222,0.011312479042099836,0.21585405446618616
4.399979,-0.026569983101906985,-0.5007281632755822,0.07454318961050665,-2.894029255339636,0.0368912058107131,2.37980619115705,0.7662261020788271,0.3273198586959298,0.011427483820737222,0.21251407345361348
4.499985,-0.026443805326454777,-0.48282066284383945,0.0755350586849995,-2.8930463300073113,0.03743237669635657,2.3911343321588725,0.7662239262138589,0.3279422490790223,0.011880223802768135,0.20800752111065193
4.599977,-0.026411370482362164,-0.4674360335709325,0.07751886661860755,-2.89304766131757,0.03824326776869076,2.4047229837654727,0.7662320647135985,0.3288455413662304,0.012521849674861224,0.20408806771740873
4.699989,-0.026428030706572896,-0.4578872149629716,0.07814536331434241,-2.8957740078554544,0.03870775037535259,2.423721364296539,0.7662265969409056,0.33040515561755807,0.012692491423896234,0.2014831204269002
4.799985,-0.02658407705346488,-0.4517324433811179,0.07804875290931691,-2.904350290859659,0.03874831015418214,2.445847328911908,0.7662293581389944,0.33032029550176994,0.012434750685085441,0.1978998624307706
4.899967,-0.02677925792962618,-0.4395051905125292,0.07757488671174106,-2.91549194582483,0.038745774731492724,2.4714331667759666,0.7662324931395771,0.32892683826688757,0.01202682632043804,0.1916819630330865
4.999973,-0.026843002308246478,-0.41499599658982766,0.07755667620485357,-2.922095266648923,0.038751202592895356,2.4986179430966313,0.766228357490488,0.32806168913647726,0.011988461911962232,0.1834182924726543
5.099967,-0.02682247757958524,-0.3810347447838183,0.07827723890852786,-2.9224093365003276,0.03882115569052819,2.524486149018315,0.7662273143140795,0.3281583414784574,0.012400623807862426,0.174372119810009
5.199969,-0.02681212296312416,-0.35036705560211806,0.08002676740139514,-2.9221520200312616,0.03907111276755679,2.547911638140698,0.7662241002504024,0.3282512022677777,0.013082857464786535,0.16642359617363922
5.299977,-0.02680245071019203,-0.3326617866375285,0.08130902331150931,-2.9231054950368653,0.03923859414016813,2.5656320538253206,0.7662310270443498,0.3285520218949688,0.013523858602019956,0.1618240544285287
5.399985,-0.02684156079838781,-0.3306060389750612,0.08133130641324555,-2.928101117432452,0.03924328481792067,2.581403541438334,0.7662333950812938,0.3290430807805306,0.013410290943161257,0.16073557051286191
5.499972,-0.027257940953270107,-0.3305936776921403,0.08079889774761621,-2.9337055306405517,0.03924217387043185,2.591738118802542,0.7662322538120835,0.32844802720643823,0.012978281668252798,0.1596329566159186
5.599998,-0.02800496518598967,-0.32913403804622837,0.08010830831615175,-2.9374006792377183,0.03924307918112418,2.600109193461128,0.7662322538120834,0.3281565079701659,0.012484609639642352,0.15857151338883416
5.699989,-0.02804753353588537,-0.3187440554694847,0.08020120688686116,-2.9371738544939046,0.039250498396233326,2.611973732294009,0.7662293377716303,0.32895376922776265,0.012597978825706959,0.15620419942890068
5.799988,-0.028039816829330703,-0.29757428210560727,0.08166620660374724,-2.935084915266153,0.039258971924491674,2.623178544401405,0.7662218273961385,0.3285483561940434,0.013214752567911261,0.15089625425498926
5.899984,-0.028025775245581006,-0.2740334697030015,0.08401797361869769,-2.9331692962916085,0.03926525291305719,2.639878536800471,0.7662300291114675,0.3286897190962004,0.014085295903427532,0.14521155770158872
5.999989,-0.02809698956199887,-0.25357983896449565,0.08447595758448054,-2.9335907057325055,0.03927446842409544,2.6638490050242476,0.7662287541900857,0.32967159612679614,0.014363040630658965,0.14038202598882815
6.099985,-0.029194790404902908,-0.23633569041586724,0.08438916973894918,-2.937285414663691,0.03926513145152673,2.691451913053889,0.7662227006910906,0.3302115740837624,0.014040561970113587,0.1358310635902009
6.199985,-0.032037139651913085,-0.2191056982662525,0.08400731811734537,-2.9443810078403083,0.03924383306526623,2.715286131462831,0.7662303755964076,0.3280725951678724,0.012955946837823775,0.12993626253632137
6.29999,-0.033463427424638384,-0.19960794356055836,0.08403029566210202,-2.946710724408013,0.0392444287067964,2.7316889257609978,0.7662285801535422,0.32635662014727135,0.01262229686152286,0.12426057644822004
6.399988,-0.0335249358557234,-0.18213485973248833,0.08505976485901882,-2.9447588451652633,0.0392400901368741,2.742014677088902,0.7662281110038717,0.32591323620544815,0.013122935210465904,0.12005408822205468
6.499997,-0.0335038841140575,-0.16664458113397843,0.08808084128083697,-2.940607869460074,0.03922417478746874,2.7533806660172706,0.766226884235461,0.32725147016062245,0.014285642785552184,0.11722849770038567
6.599984,-0.03361248844890164,-0.1496944473051017,0.09068691025340489,-2.937546983187686,0.03888833561482835,2.773223457591724,0.7662339850666533,0.3293599107036181,0.015291926089368411,0.11419780204399185
6.699983,-0.0356127703670205,-0.12919793956839493,0.09098626579966511,-2.9378842267742065,0.03783680392396905,2.7986848512517337,0.7662307805577593,0.33003497988581826,0.014941175398271214,0.10948340019826457
6.799985,-0.040782031312556206,-0.10461038715003212,0.09091212256891211,-2.940266136976988,0.03605389795092596,2.826838405781654,0.766239222587873,0.3291359508264392,0.013464661586225593,0.10311007064188936
6.89999,-0.04529055054461683,-0.0805572906552998,0.0908739784942092,-2.94267081828849,0.03379228474523054,2.847806453288805,0.7662354757802954,0.32669385252755867,0.012280612055121473,0.09639863346558253
6.999949,-0.046385301584919686,-0.061602250256459004,0.0909758540796301,-2.9421007071835255,0.030688809383971973,2.8588836902370414,0.7662673828618204,0.3248768411630166,0.012309299948902636,0.09138766933131465
7.099986,-0.04637364942398538,-0.04727120542097012,0.09238162194884653,-2.9382159098703418,0.025517138992915724,2.8678554923891872,0.7667829023405376,0.3255248818541433,0.013197558199259286,0.08852667199700416
7.19999,-0.04636031843674881,-0.03313028332452653,0.09335290881851134,-2.9306393969446027,0.020975007247770548,2.8810899898059783,0.7682787827492301,0.3291822664907223,0.01406482366528414,0.0869819110513132
7.299938,-0.04637625900229955,-0.012953140586660465,0.09301813130393861,-2.926431578048064,0.01399309999612744,2.9054368869514775,0.7692240054451455,0.3316310736330592,0.014671769289697007,0.08342741294224525
7.39995,-0.0463457816288817,0.0133518435118361,0.0891524915352552,-2.927122181060207,0.00396602302174347,2.9331214839431143,0.7695622254677534,0.33041503405223865,0.014253419766578358,0.07690319513729237
7.499984,-0.045990843203183675,0.042300382095374865,0.0790310342679915,-2.92788892167885,-0.0027680249310473794,2.956768875299613,0.7699344778307504,0.3275525503846434,0.011746379740378444,0.06925732101877913
7.600004,-0.0423003721485254,0.06552046779792296,0.0659844388772385,-2.9277538976162703,-0.006523999635847573,2.972973802531391,0.7722858212459859,0.32497202987221174,0.009117780052060865,0.06312987925754608
7.699979,-0.029325328027438015,0.0802216308615609,0.053759870673922384,-2.9245992910685787,-0.007731791226433894,2.980075187530562,0.781029532074441,0.3243762610889073,0.009503501877660064,0.059682755904157295
7.799986,-0.00939342224940285,0.0915059342731311,0.04345016611485127,-2.9162868246536737,-0.007922563823956199,2.988648587675638,0.7896973025627401,0.32791357178216873,0.012710078098417201,0.05854863177427927
7.899948,0.011911709827300089,0.10739731426882342,0.03012700974358494,-2.9073023267694285,-0.007919166327186396,3.0070385854073876,0.7939375204350454,0.3324909396826015,0.015321191340877324,0.056734205991757755
7.99998,0.02547826613258038,0.13109129956270574,0.015505923413079579,-2.904606088648263,-0.0067470289816876135,3.032097115290239,0.7939476652161054,0.3326303112104933,0.014546380095225887,0.05148949220070685
8.099946,0.026527828683109496,0.16243413960315098,0.00805339760870649,-2.90468230285221,-0.0010882234052686528,3.0577524808386665,0.7939561799454036,0.3291163877788785,0.011737785619022492,0.04328033764424255
8.199987,0.02658479741378124,0.19223843612634933,0.0034206438914609304,-2.904545065199497,0.002623656832867809,3.0771916005491686,0.7939575628504881,0.32464085188505826,0.009695406199043027,0.03525118737746115
8.300068,0.03008027351109349,0.21326702127232175,0.001770544844102566,-2.9013832794544934,0.005755430127936419,3.0890336780963334,0.7939563393884256,0.3228565482526948,0.009991718387221711,0.030061489059674956
8.39992,0.04157738597645247,0.21847297173934543,1.701399139763999e-05,-2.8918805790238555,0.010554598619829129,3.095917081793033,0.7939495833253241,0.32838928377454235,0.012933743073537353,0.0307430829016396
8.499925,0.059297825014157195,0.2281266471183458,-4.713474306114239e-05,-2.879131577084971,0.024247362446896858,3.1040999488987726,0.7939527220295224,0.3344567620453878,0.01800306994087493,0.030495804595107853
8.599945,0.07630449700726782,0.2372891858473502,-4.371281182986831e-05,-2.873279674072285,0.043719065270949514,3.121097262831631,0.7939525494650321,0.33836595376652107,0.02225329103061311,0.030013010893417763
8.700003,0.08866702811767672,0.2430096661638887,5.68883054355667e-05,-2.8731449297013807,0.061541536485145064,3.13852043162636,0.7939515684372799,0.3401130623013794,0.02492698888077357,0.029691918694485606
8.799974,0.09813226195167274,0.2471926489067816,0.0001261702235033828,-2.8729813515162004,0.0776041512421479,3.152564984777401,0.7939569792689436,0.34164783754323,0.02670634110655504,0.029611416887880285
8.899987,0.10760972683784809,0.25116779216011254,0.00013538815359420296,-2.869895424214298,0.09137761219536238,3.1607706917156406,0.7939564622047823,0.34376376714471535,0.028820932545267436,0.02960066330142254
9.000038,0.11873312606255972,0.2549568818785583,8.966496553863509e-05,-2.8624943716141114,0.10198909702989414,3.1611414319615845,0.7939539487965916,0.3467090341086787,0.03206587249270992,0.029713928830439024
9.099987,0.13189198860608864,0.2574715971045522,-0.0001234773389874992,-2.8564783155041193,0.11199924091381333,3.159242472393082,0.7939554640327676,0.3485968387246206,0.03598528412793451,0.029782656209669675
9.199955,0.14548450569344165,0.2584950344619757,-0.00016146127287196716,-2.853799403886266,0.1230450428134874,3.1579650259948484,0.7939554645172843,0.34903865011555624,0.039849750322048634,0.029801015254469904
9.300027,0.15810520582323953,0.2585369075394104,-0.00015902260411560296,-2.8538633467986645,0.13321240474808488,3.157996820054974,0.7939531221932131,0.34848874803844876,0.04331437055581583,0.029775064315903127
9.399945,0.16998065999946574,0.25853139234984146,-0.00016117916942122996,-2.8545005795722562,0.1456472834614993,3.1588443850116827,0.7939523260553597,0.34779284723731335,0.0462273585661164,0.0297352611256661
9.50001,0.1811651558408918,0.25853097789556934,-0.00015685394323273585,-2.8547109698598607,0.15737196669031348,3.159106042275644,0.7939570920831155,0.3472201066377853,0.04902999466440817,0.02971612928484739
9.599979,0.19330598461380713,0.2586225726749256,-0.00025716078410544023,-2.8543704331671016,0.1667937079429676,3.1586563519328847,0.7939533041561628,0.3467223051990587,0.05240323212507195,0.029700423705958212
9.699929,0.20721093206849975,0.2595943900385936,-0.00198980209840938,-2.8511246570289384,0.17276732747245513,3.155827119782692,0.7939478940526309,0.3471408636745726,0.05627030641528756,0.0297079571046287
9.799951,0.2208183978105943,0.2613071124596119,-0.003684637102589081,-2.8462690376637547,0.1816987313456099,3.152280817383711,0.7939486914152574,0.3480420767174491,0.05994371103467318,0.029688432805979575
9.900039,0.23309605733346458,0.26221794745029214,-0.004426786076476039,-2.8444259548954025,0.193768437702542,3.1515287633393294,0.7939519644107669,0.34797133793074203,0.0629749546112178,0.029643456400135257
10.000003,0.24471234470815903,0.26223641532334824,-0.004426442968294582,-2.8445248160230507,0.20742379346835307,3.151599972395033,0.7939549943925472,0.34721391328414875,0.06577265539191655,0.02961722733547352
10.100006,0.25675641879415306,0.26223776185392383,-0.004471675723753932,-2.844815880006445,0.22101597405263645,3.1519833812913927,0.793949224225438,0.3463623330115133,0.06867282623190382,0.029592997272499533
10.199897,0.2704038927795631,0.2622731930359092,-0.004825027084127753,-2.844789006244094,0.23253076024116112,3.151939586883136,0.793954237101177,0.34546210693945006,0.07223909165751935,0.029574126539096704
10.299964,0.2860124616666495,0.2633061537958783,-0.008213419354589703,-2.8421098411581047,0.24172217977387148,3.149572019176613,0.7939542371014843,0.34544047415221807,0.0757240703704847,0.029509364724947196
10.399922,0.3002872366267958,0.2654668581048253,-0.012626659099847823,-2.8357113457010192,0.2480209946343632,3.1440482028823555,0.7939510985615262,0.34663327888880824,0.07910406193504736,0.029458335068754532
10.499993,0.31370994590372925,0.26736088797015467,-0.016336107182963022,-2.831606552451205,0.2591457107994022,3.1421576476304565,0.793944189371689,0.3472993488796708,0.08174630713801839,0.029416305450542843
10.600088,0.3259506240420085,0.26768315763470496,-0.017378565210983927,-2.831144270105784,0.2740038857837489,3.142187412700927,0.7939461484483096,0.34658564532976255,0.08432046089186045,0.029393774614902737
10.69991,0.3390113845283414,0.26771618508173245,-0.017518954457496936,-2.83117642890791,0.2889250155434415,3.1421915637103237,0.7939495833253504,0.3454956406006167,0.0874849211714557,0.02936815430025208
10.799982,0.35325675059488887,0.26777805745101046,-0.017866812403550127,-2.831161785601774,0.30131263806638825,3.1421829356101894,0.7939465528529985,0.3442853226255255,0.09115686736082314,0.029338255608788874
10.899989,0.369218544274525,0.26850258748834405,-0.022666806388369664,-2.8296193961079,0.3079338176136384,3.1408689707205246,0.7939512730593443,0.3438240813028309,0.09431906505255833,0.029295268112640133
10.999989,0.3843040690603476,0.2701918383346575,-0.02875980820125396,-2.8225717895430495,0.315431248889092,3.1328163267552243,0.7939535935943238,0.3449269873167176,0.09756090872948223,0.02933189222869706
11.099925,0.398427239126392,0.27304015542144006,-0.034481258570940844,-2.814829045691162,0.3255890815009336,3.126773693078171,0.7939481650724627,0.3464763445855971,0.10048700449564402,0.02928475584488227
11.199929,0.41159553318770553,0.2749686657104962,-0.0376523954398494,-2.8112413214804475,0.3378820273578917,3.126239325929785,0.7939489386855864,0.34683957471083776,0.10321502239216693,0.029273377559602604
11.299984,0.42505217880082724,0.2752955324041981,-0.03909755171082159,-2.8109984125757803,0.35277793097403487,3.126765654762265,0.7939463140661799,0.34579289373050515,0.10607726178526841,0.02926031015691853
11.400054,0.4395604684618697,0.2753940988089068,-0.03997840778731925,-2.811004443525869,0.36641834940706175,3.1268593186625147,0.7939504457968457,0.3443825605896857,0.1095536088617691,0.029231600692341667
11.499982,0.4568847208488345,0.27612736854663483,-0.04523240946954772,-2.809947876357763,0.37485375830161316,3.1263858120434604,0.7939528364607565,0.3435434804769876,0.11279786804339731,0.029190137265179897
11.599993,0.4737313986208233,0.2783125154742009,-0.05311351749887917,-2.804443505744958,0.3813458798688717,3.1225573082459475,0.7939513212245807,0.34442068967904266,0.11586750049900348,0.029220931580508966
11.699992,0.4885675709834598,0.2815088172780803,-0.05966151998866411,-2.79530180782691,0.38691617502584946,3.1165203035587172,0.7939513767886544,0.34644762856191047,0.11959940684914373,0.029381825622899066
11.799977,0.5023131665047498,0.2836727540823723,-0.0650002887994206,-2.789429165733072,0.3997748767894645,3.1119675308660275,0.7939487108845855,0.34719746749135655,0.12222535006131387,0.029393976244177694
11.89999,0.5158589844037085,0.2844647409825618,-0.06870648870463342,-2.788003079139183,0.4126446512841289,3.1113676179245773,0.7939490449928556,0.3465310902430461,0.12460853130006336,0.029383186163162156
11.999987,0.5304360967720707,0.2845952045308488,-0.07084276643103547,-2.7880217368488736,0.4254293463579208,3.1113714607050103,0.7939491628022154,0.34502412502669,0.1277635984391596,0.029359894484779533
12.099991,0.5485062236293804,0.2849876047413929,-0.0757848168411203,-2.7877715851239167,0.4364057471300013,3.111102746926689,0.793947539334884,0.34354437477094196,0.1310756385251274,0.029319982238499437
12.199985,0.5666391118182803,0.28648507345033414,-0.08362738433922653,-2.784241158360598,0.44175286271615893,3.1072590181647777,0.7939491632927166,0.34320511810206444,0.13442502417256283,0.029254794621341604
12.299979,0.582275800308134,0.2894834902312553,-0.09212104948019027,-2.7762154139706143,0.44529800403773995,3.0994401881802554,0.7939571754191225,0.3443996202663116,0.13779736694841432,0.029192508986075075
12.400042,0.5962171079743593,0.29292353772521557,-0.09894823738070825,-2.7669051128806683,0.4532419927743505,3.091918315118364,0.7939604484227435,0.3460233856685832,0.14117991492160212,0.029214690076336813
12.499965,0.6105310719576474,0.2951875229747106,-0.10472752757275076,-2.7625786132241674,0.4678032595528676,3.0897876211056277,0.7939604489856908,0.346246767421917,0.14351248876390768,0.02917353959135323
12.599967,0.6255202032275865,0.29572923968057374,-0.1091489087776773,-2.7620733865165703,0.48256866137495674,3.089794026771483,0.7939640646988514,0.34505839716830405,0.14585004128608595,0.029172693604373856
12.699986,0.6428297736202412,0.2960657105304545,-0.11310493773932521,-2.762036369773772,0.49249443194374165,3.0897650685279774,0.7939687507106614,0.34322716654172036,0.149437730518591,0.029143442512238216
12.800007,0.6625620782613177,0.29734619932715006,-0.12040201656370701,-2.759758573101162,0.49874058092069834,3.0872326880567873,0.7939717253323099,0.34206167983262664,0.15327423002730195,0.029076212849167324
12.899988,0.6802815159321354,0.30065755141535794,-0.12957140940218792,-2.752394840346244,0.5029481025771544,3.0810792657094703,0.793974987178678,0.3428534727655826,0.15695662817992373,0.029003142984704244
12.99999,0.6957038769773971,0.30533438766942783,-0.13875995019402868,-2.74128008306444,0.5095799286116505,3.0740881273812146,0.7939837482121626,0.34526086562612807,0.16063887290762907,0.029139111004551063
13.099991,0.7104493074429076,0.30872642867330014,-0.14726956307327235,-2.733770977299251,0.5213505827139733,3.0693308600905747,0.7939841195889088,0.3465684356709579,0.1631347022814267,0.029221921748398966
13.199986,0.7246857623558798,0.30989344473774366,-0.15325714796830023,-2.7322798617949644,0.5339811321585243,3.0688970641458,0.7939946990738073,0.3459032653357014,0.16497731536172638,0.029230754145098944
13.299992,0.7414176603478028,0.3104829879806592,-0.15951524522834976,-2.7322115862639715,0.5463717769425159,3.0688875282915844,0.7939999285266929,0.34440766401648637,0.1673372379277792,0.02922395136425522
13.399993,0.760958350304601,0.3115192874352091,-0.16672915387105172,-2.7311706915721454,0.5564571244070824,3.067662226425107,0.7940143109070461,0.34279636254443374,0.17060973174236696,0.029170878172594117
13.499986,0.7796093347226398,0.31420209462716636,-0.17560715831352178,-2.725384684461221,0.5591900231551097,3.061293523468019,0.7940558038923776,0.34251363624148967,0.1746346279694286,0.029074712723916762
13.600008,0.7950205560042028,0.3184248251069149,-0.18466615627884742,-2.7146396565784925,0.5622076696200959,3.0510228352067217,0.7941588572331787,0.34395364339699264,0.17884769099168848,0.02909025217649694
13.699977,0.8085738306202057,0.32282684116108673,-0.19301674860849938,-2.7053299271180893,0.5674921476351527,3.043811889061119,0.7943889859286978,0.3454348789439987,0.1820398018695703,0.029032622634410865
13.79997,0.82334613620186,0.32565564462824487,-0.20099971128493632,-2.7014557440140736,0.5787859017199766,3.0426954037975307,0.794725364909456,0.345661659525163,0.18395553852389585,0.02900700242274548
13.89999,0.8402166151337309,0.3272945505907111,-0.2093378552212344,-2.7002409776653074,0.593756472353739,3.042709696495918,0.7951311690127004,0.3448700444022168,0.18558472477586174,0.0289917938691948
13.999969,0.8586274282506104,0.32916040230564453,-0.21692069877923104,-2.698275207428835,0.6030288475934666,3.0425595503384484,0.7955883307655065,0.34385644303305946,0.18865719731512742,0.029027253034397113
14.099988,0.8769262845117666,0.3318441312726305,-0.22423057880729783,-2.693318318271418,0.6082386765059803,3.039089780260536,0.7960634776087083,0.3432577708009543,0.19294241251539887,0.02906814379505096
14.199987,0.8940223386499255,0.3353460056383658,-0.23366747379180175,-2.684935175755033,0.6126796946976097,3.029972495318905,0.796469417061528,0.3436141825772596,0.19704534717621822,0.02909842308130195
14.300018,0.9081764560086808,0.33958564519754353,-0.24290418649635515,-2.675342576514369,0.6161115269396806,3.0196496655781147,0.7970166007797982,0.34460008456234603,0.200562017691341,0.029025761209253195
14.399987,0.9218949968144053,0.3434666350286124,-0.2522655062070784,-2.6676311676572397,0.6220080358382696,3.01300338646908,0.7977649804348406,0.3456667440996259,0.20320276416669353,0.029068647942294218
14.499988,0.9372024258311695,0.3458940728029486,-0.26059006107305493,-2.665001570268185,0.6358972780489421,3.0115994605694434,0.7987578730071284,0.3452740876785675,0.2048002191355841,0.029022952003695313
14.59999,0.9535442639053431,0.3474532220495727,-0.268215988535789,-2.6643436878695033,0.6452279560569838,3.0114703326589516,0.8000735846622042,0.34400862416258465,0.20686564478182734,0.028979898358253056
14.699967,0.9706754450505582,0.3490132017712999,-0.2746575503353898,-2.6622310552158606,0.6508851014257132,3.0086763262812433,0.801561782169575,0.34233739343614894,0.21037569388873223,0.028941508348189718
14.799982,0.9871947758416931,0.3529046232706088,-0.28193922172198554,-2.6551492029522583,0.6528449603833011,3.0026075682792555,0.8035241518145841,0.3420688127372083,0.2148883613629455,0.028861890436904042
14.899987,1.0024358710779815,0.3588301891162245,-0.29172662348553846,-2.6436515762899595,0.6539882390182574,2.9944456807300157,0.8063516597838798,0.3438102461127686,0.21931945861320556,0.028963875141328477
14.99999,1.0145371953606555,0.36364384418051876,-0.30034888504424667,-2.6335550949956814,0.6557978643867203,2.985994826069002,0.8081176052837877,0.34534965581137506,0.2227383273583468,0.02908904267459536
15.099964,1.0271315110421646,0.3669386613695674,-0.3083813109083019,-2.6293268936720584,0.6633642993343397,2.983009257832194,0.8089113646857647,0.3455650320790358,0.22442381433683747,0.029014931634553737
15.199967,1.042292018953792,0.3693114246047721,-0.31772097647040765,-2.6282777180935106,0.6774161666181335,2.98261526204341,0.8097162284684958,0.3450305795320577,0.2251666472975949,0.028930327931698835
15.299975,1.0581813521251315,0.37140481146787485,-0.32548194032071615,-2.626751182374371,0.6840758239012639,2.9811507562380184,0.8122751624252134,0.34381813080561535,0.22749179529625851,0.028873925228416045
15.399972,1.074766084146889,0.3742636535124366,-0.3327526197081253,-2.621942961617592,0.6885049933924371,2.975455130596753,0.816977565608676,0.3426493285066319,0.23140895513673884,0.028831114640895328
15.499974,1.0889099409643783,0.3790389840020498,-0.3400854362436856,-2.611846701869881,0.6891338981078211,2.965695882172582,0.8220448019455483,0.34302626540258835,0.23628754301573962,0.028881018595614774
15.599988,1.1012931529518635,0.3855857321310753,-0.34834520285334447,-2.600210508651741,0.6894575015030141,2.9582531095243754,0.8249258064393101,0.34487201018563035,0.2404785307968119,0.02894350512149875
15.699992,1.111449153944451,0.3899662560705055,-0.35484490628087756,-2.591720528940728,0.6905045907887266,2.9517579843896926,0.8281023905418905,0.3458755552714874,0.24378043218725318,0.029086305085564576
15.799991,1.123078713176785,0.39243028617328657,-0.3615367286165336,-2.589284989708628,0.6956188545012872,2.9501993125720127,0.8343071536284302,0.3455279453897335,0.24539947992599867,0.029084525750167317
15.899991,1.1345153446456553,0.39419536761315316,-0.36636993969202764,-2.5882611315594657,0.7018684340736333,2.950175148161872,0.8444919811952738,0.3445046881040378,0.24725230798183814,0.029038800251057748
15.999976,1.1455884735020705,0.3960921506357581,-0.3704283280219621,-2.586135981305877,0.7036761784578762,2.9486215646073606,0.8519697912947264,0.3433740430447108,0.2498802936203555,0.028990244845973748
16.099971,1.1556471063509937,0.39950446469502954,-0.3741427370181051,-2.5796637940627622,0.7037329049650674,2.9423559457504633,0.8575637043769649,0.3428523813997022,0.2537418008834502,0.028890236850944495
16.199986,1.164466997940769,0.40425450061303947,-0.37915284809748406,-2.5689821688764245,0.7037312220718185,2.9311977009218104,0.8622456662055873,0.3434497831102194,0.25804001963771744,0.02890048669873818
16.29999,1.1743385793421754,0.41055739302970545,-0.38644651989111317,-2.5578728564055164,0.703736303773206,2.924599253197529,0.863678642767168,0.34543503250368396,0.26174371908113114,0.02908577730453188
16.400005,1.1849272343710322,0.4148332236031401,-0.39279024242571875,-2.55162019731249,0.7041972007027183,2.9214579189827927,0.8652661317271443,0.3459883369959367,0.264554661956561,0.02917883012595404
16.499974,1.1954432759133309,0.41662587699710296,-0.3975988506447194,-2.5503983757075237,0.7071166801495373,2.921003491447248,0.8694456535459946,0.34505905257716135,0.26634091085655986,0.029173421738132574
16.599993,1.2068434042715317,0.4184434893247992,-0.40190434933107577,-2.5492324520107097,0.7117292243828325,2.9205810661206177,0.8785228837563557,0.343711976893271,0.2685635830562302,0.029114423938202683
16.69997,1.216614512256372,0.4212871977088304,-0.40498169334648454,-2.5445900749944506,0.7120509513099911,2.9167455626595977,0.8874402504638373,0.3427664899231493,0.27200965558541895,0.02903959654878223
16.799992,1.2245470501004176,0.4259969972507311,-0.409028516969186,-2.5343068779492177,0.7120509608295887,2.9070123189229795,0.8919383377945996,0.34323774629182274,0.2763267336896398,0.029114432209998417
16.899976,1.2326275520536596,0.4321911550258208,-0.4144750321208076,-2.5229941328951107,0.7120540898452876,2.8972422843313606,0.8947761447348823,0.34432551599086475,0.28023122766897895,0.029022883497815108
16.999988,1.2407738821919694,0.43763797206222305,-0.4203089292138602,-2.5136114513483485,0.7120711953995416,2.891383364291708,0.8969451308951851,0.345695922993619,0.2834901648918865,0.029194085846027534
17.099975,1.2501788225064854,0.44047399663152204,-0.42566554309424376,-2.51009342645065,0.712527280349383,2.8896863914907,0.9009504860433215,0.3455968754436505,0.2855404651391007,0.029324483344319252
17.199992,1.2600882060124277,0.4422031734985734,-0.4300565615146285,-2.509017600414441,0.7134151249948044,2.889601801735135,0.9060202752053086,0.3446098418522445,0.2874017516838878,0.02936429321313147
17.29999,1.2688895693288245,0.44409041975608,-0.43210797651118005,-2.50643000715548,0.7137566430343762,2.8882565871218002,0.9169976995788155,0.34328427486407714,0.2903242886550189,0.029344402435724296
17.399987,1.275629554633028,0.447868752611561,-0.43406840881238,-2.4994805394315804,0.7137633719953116,2.8828981228068944,0.9278240860781298,0.34297892995808466,0.29392323472844156,0.0292619194548403
17.499989,1.281111626319186,0.4533668041070394,-0.43669598711817814,-2.4879657213650344,0.7137623656971519,2.8730683031164603,0.9327062446304383,0.3436938787854418,0.29831946929617403,0.029271597813521538
17.599991,1.28667087827877,0.4598741659747491,-0.4403347081885116,-2.4761491715053157,0.7137646222666965,2.8649676593195497,0.9348705757102894,0.345099003193626,0.3022603890731797,0.029246745954815564
17.699989,1.2943684698181617,0.46457638075884605,-0.4455226140052176,-2.468730609199618,0.7137617383700727,2.8605718957839676,0.9382477600079249,0.3458979686759607,0.30502547770335553,0.029394321907488752
17.799981,1.3033184314279749,0.4666456323999773,-0.45064714354832086,-2.4673670766286735,0.7137629685917143,2.8599125451696503,0.9426176887361155,0.34534462287115786,0.3063464056087947,0.029435560516321818
17.899923,1.3117989041070228,0.4682448237436523,-0.45343470304767375,-2.4657767236287826,0.7137821144809455,2.859253016090457,0.9490298711889666,0.3440958454889511,0.3086092608042161,0.029463056568221832
17.99999,1.3191989884200581,0.4701433355662349,-0.4539507354835411,-2.4610776146019266,0.713785240442734,2.8550314625294066,0.9599811478424126,0.3424777517142318,0.31251092090064164,0.029541357765923773
18.099987,1.3257358274628606,0.4743916397173224,-0.45507172567489085,-2.452692313516518,0.7137850115788378,2.8492239213003216,0.966398437314379,0.3420035010766668,0.3168446578936585,0.029529039299189375
18.199976,1.3315350972444684,0.48058070183216917,-0.45842099220600974,-2.4418028739079607,0.7137850423449059,2.841489255836772,0.968307631723582,0.34286034949911737,0.32074040086938754,0.029464959917682026
18.299989,1.3356935551818583,0.4880535102501144,-0.4628296285289108,-2.4277847066211873,0.7137841265607098,2.8312894272626434,0.9701303121086163,0.3450337579337078,0.32473165743923244,0.029598489716444645
18.399992,1.339116945070322,0.49596991588026335,-0.4681175389894635,-2.4133974742757553,0.7137863619858879,2.820809161436394,0.9711800030378012,0.3477595356346915,0.32818392277162894,0.029741761984733855
18.499985,1.3417902317216321,0.5036987546530612,-0.4735362454917858,-2.3997367935157565,0.7137863465778254,2.8095129730250967,0.9718109180769638,0.3504339688736454,0.3310182284953125,0.02975093518544923
18.599973,1.3443769843652382,0.5124920955916402,-0.4782752292639833,-2.3854450088977566,0.7137870937022962,2.8009644019480877,0.9723854606132283,0.35350112580909077,0.33420457557159483,0.029701381570022722
18.699984,1.3478341995759133,0.521433326550991,-0.48452546610133723,-2.369671170271417,0.7137887963863027,2.791255083087341,0.9728322939535535,0.35705966542934153,0.3377438418285892,0.030071768530014656
18.799968,1.3514831376391911,0.5298961217305421,-0.4905235221603003,-2.3562009588142736,0.7137863762310884,2.7812300356460886,0.9732811357588798,0.3597535288777661,0.34048969217924707,0.030023905624252167
18.899987,1.355369193589497,0.5386526762041308,-0.49702024929217387,-2.3420733276918226,0.713781872820921,2.7702795526954787,0.9739666336094972,0.36257920411400374,0.3433363177189515,0.03004014066988135
18.999987,1.3585417708846208,0.548191306761407,-0.5022344094208799,-2.3260898234595717,0.7137780363337957,2.762831751532269,0.9749393520409251,0.3661876920402384,0.34719480954566184,0.030391151095480337
19.099993,1.3603850058417029,0.5564288756196691,-0.5066337989270231,-2.3125958775974538,0.7137819873073279,2.7526675996068217,0.9764372032300104,0.36871438739384216,0.34987965933197407,0.030265917998994946
19.199973,1.3614835793285025,0.564793768649353,-0.5108365446414397,-2.2982518870851623,0.7137794753783612,2.7429888511123086,0.9782864317822549,0.3717561864368929,0.35279502528740303,0.030363186099580705
19.299988,1.3624602325730544,0.5738563596945991,-0.5153127219376339,-2.2821588343474692,0.7137788033815899,2.733273688224646,0.979643665982405,0.3753293006749317,0.356171747948187,0.03068839108864839
19.399984,1.3637013575551171,0.5827809722114952,-0.5196187084322447,-2.267833236086377,0.7137773333676446,2.724540568161281,0.9807591451746981,0.3784338356636007,0.35893666727920437,0.030674297634877126
19.499981,1.3647183186657483,0.5913683486640281,-0.5239593302545834,-2.2537906859823935,0.7137757100618187,2.7144140423332646,0.9817118434155971,0.3813025062216027,0.36152749052683697,0.030632001242734297
19.599986,1.3653798053578623,0.6004105590114323,-0.5280907016128232,-2.237925872920196,0.7137740296162455,2.704902958822026,0.9829353788560073,0.38472713348335263,0.36479173151270067,0.030924883197484848
19.699966,1.3657900714867452,0.6090490003415958,-0.5320130503593918,-2.223043527476945,0.7137732722162803,2.6941568927797426,0.9852582663072941,0.38765477284500754,0.3676127436469785,0.030996451648206372
19.799966,1.3660778338241844,0.6182457847662263,-0.5356632034375547,-2.208212157947229,0.713774252885911,2.6862442730342075,0.9893460156107998,0.3909946313000206,0.370446717055307,0.03103636038580103
19.899964,1.3663262880558913,0.627080898276004,-0.5393439277539113,-2.1922666003901035,0.7137757040619638,2.677276149333239,0.9951892246130422,0.3943966860375248,0.373821956559214,0.031460261690692284
19.999982,1.3663348633356618,0.6359868232174983,-0.5421741293123059,-2.1779207767229614,0.7137747191256522,2.66891087199208,1.0002492168248593,0.3971796877803805,0.37665969041084296,0.031320628441982704
20.099978,1.3663598905818608,0.6451145465807293,-0.545508208061229,-2.161947926827771,0.7137772184451723,2.6587361429796856,1.00235788051151,0.4002216413831173,0.37992826616610015,0.031489963625436185
20.199992,1.3663467791332167,0.6544881219427207,-0.549023369258883,-2.145532422071292,0.7137733226141532,2.649945621672544,1.0030452822567293,0.4036527862191093,0.38331657281612097,0.03181954498233437
20.29998,1.366337904320202,0.663560067420526,-0.5520955714580295,-2.1305242888458764,0.7137709415289527,2.6404516437137886,1.0036428912899458,0.4063694478273043,0.3862301432324847,0.031754295856561046
20.399977,1.3663544003540395,0.6732343791212346,-0.5553720037857628,-2.113811084637629,0.7137678770435832,2.631124360387671,1.0042750205201163,0.40957952978241047,0.38975953254126505,0.03198222907756368
20.49999,1.3663449628655662,0.6826943437696238,-0.558870011781711,-2.0977869138899194,0.7137686117357338,2.6207138639433447,1.0047295672124443,0.41244970454941327,0.39281136068536904,0.03203966889399171
20.599989,1.3663300031783028,0.6913937735882573,-0.5625122106083909,-2.083179190380097,0.7137697956306288,2.611674027653028,1.0049788666367654,0.41536098932922544,0.39545504434855705,0.032199825780151056
20.7,1.3663336541614581,0.7001379906454452,-0.5654145121683993,-2.068615873522522,0.7137644894373161,2.60516825270622,1.0050551233352043,0.4183577725491954,0.39849066771227565,0.03244184566260293
20.799991,1.3662898487199187,0.706994600312684,-0.5681115485810403,-2.056683044249729,0.7137624101202211,2.597299240359562,1.0050772861437194,0.4204225383314541,0.4007273429205568,0.032582619713820746
20.899981,1.366160429632563,0.7123409139624058,-0.5703515395599774,-2.0481725691355686,0.713764206919477,2.591046444605089,1.0050780990308432,0.4219500915371189,0.4020203088850448,0.03249254413580896
20.999996,1.3651986680221502,0.7158770708258876,-0.5716815590459883,-2.041420814417027,0.7137659569305843,2.5852602566297365,1.0050834553195789,0.42314920762873914,0.40299766265013093,0.032590041751809365
21.099992,1.3627836843699719,0.7176913753181228,-0.5717377301123895,-2.0367389658018182,0.7137787444668907,2.5803145169641346,1.0050815982110592,0.42411343002344876,0.40336301495318705,0.03268379548785387
21.199988,1.359668242681684,0.7196988642630242,-0.5716697175431233,-2.032868017727185,0.7137971608850553,2.5783780271805847,1.0050814036764006,0.4257173643727694,0.40320848966235934,0.03269339191222591
21.3,1.3553663038648454,0.721702821916327,-0.5714364215447797,-2.0292515898417407,0.7138041137307278,2.577785945079903,1.0050935932670817,0.42791836141349565,0.4025556457327506,0.032719730941482575
21.399935,1.3496395901067384,0.722592845551604,-0.5708467259872076,-2.0272301581953087,0.7138130972865676,2.5777858630374633,1.0050908248627188,0.43033383887475596,0.4009964212847172,0.03277566485883644
21.499996,1.3422551893272983,0.7227613230861147,-0.5699340960822816,-2.0262769863069034,0.713815691969595,2.5777874763384307,1.0050959385714922,0.43305741483909244,0.3985328808707234,0.03278526043158268
21.599978,1.332841673873206,0.7228069958587379,-0.5687102946056422,-2.0253181508459766,0.7138179377895514,2.577790473917175,1.0050955904983068,0.4364325393139467,0.39531344202508667,0.03278488258815665
21.7,1.3221523818953196,0.7228530769963776,-0.5680225242804801,-2.024830622617316,0.7138221768615098,2.57779134975735,1.00508105176929,0.44042926070345917,0.3910820954285058,0.03276194714497048
21.799945,1.310378409976011,0.7228524573753864,-0.566615639211691,-2.0240057165905467,0.7138297492580996,2.577797830196907,1.0050486189304715,0.4445253979789614,0.38681706817790484,0.032709731177283125
21.899947,1.2989608343317376,0.7228777167858521,-0.564923739329318,-2.022730463066556,0.7138277247572651,2.577796875723094,1.0047952902023545,0.44841844508429,0.38296300630653113,0.03272222916123213
22.000012,1.2881799228200073,0.7228844049399845,-0.5635698639121933,-2.0219640428339685,0.7137922180394208,2.577808868469781,1.0039444397996982,0.4521071062689013,0.3789617037704249,0.032656975685092196
22.099987,1.2777470521422623,0.7229041083923256,-0.5614105338165755,-2.0205499887315805,0.713382766287316,2.577805893290673,1.0014042972409383,0.45534106138549424,0.37576512711616916,0.03261385636006589
22.199924,1.268379396339231,0.7231534001332881,-0.560377125113906,-2.019518057064181,0.7129175128393723,2.577806650908665,0.9989601214681877,0.45861269582147257,0.37228225014462735,0.03258817129131236
22.300021,1.2588770031629077,0.723460008860395,-0.5585762356013186,-2.0177869475937342,0.7119837952259531,2.5777964709794103,0.996446450651957,0.4617596673874821,0.3693013456969826,0.03257602908863229
22.399932,1.2487084949332743,0.7235501514596053,-0.555409988110572,-2.015350132764106,0.710390575034033,2.577800234126415,0.9936707478525059,0.4646482766178461,0.36694003894371163,0.03260274808257889
22.499921,1.2389735038111935,0.7235550297877424,-0.5526959495272344,-2.0133094373726665,0.7085189330023893,2.5777996096829177,0.9910142695793374,0.4675186530238491,0.3643781796598856,0.0326488375921192
22.599936,1.2292268137599647,0.7235614273530976,-0.5496985947261405,-2.0111305080319473,0.7069520461890235,2.5778026401552605,0.9875590516610002,0.4703320501751635,0.3619410497259161,0.03268405525851141
22.699997,1.2194502520771813,0.7236320014795647,-0.5473694980223823,-2.0092516262756117,0.7044527933344401,2.5777969744129514,0.9847250439898954,0.4733312461784993,0.3590033857819535,0.032734305385697354
22.800003,1.2092413485758726,0.7238577603947739,-0.5454881919936505,-2.0076780756291743,0.7017513466951122,2.5777882459752726,0.9807492710472954,0.4765576788218572,0.3554996609046829,0.032707282377682334
22.899936,1.1983580444698931,0.7240858812740941,-0.5427481190871809,-2.005388735982613,0.6994418200420038,2.5777621159895214,0.9761417332702933,0.479832570181134,0.35232080714531916,0.032729128814852
22.999978,1.1878949172841826,0.7250035628509947,-0.5410430035521728,-2.0027543318690686,0.6967320075398543,2.5777235117968242,0.9713907168005473,0.4834047831224606,0.34882256105379345,0.03272121336398513
23.10006,1.1776185727475237,0.725507379219796,-0.5388182704333103,-2.0003423860873792,0.6949430392145843,2.5776637572853223,0.9632596282274261,0.4866197446171199,0.3456617893142105,0.03274852735736121
23.200084,1.1684398149741593,0.7261252565182161,-0.5378994050872083,-1.998662098094504,0.6940692176072609,2.5774519104117997,0.9552959203128619,0.48975668836809333,0.34208268039216905,0.03275036420849961
23.300007,1.1592929394046685,0.7263850962444003,-0.5374637482605736,-1.9979451882998367,0.6935279675840578,2.5773709880386697,0.9493808112890603,0.49284486934748617,0.33798955807181663,0.03274257882057585
23.399971,1.149310073369145,0.7263774950353122,-0.5362382783277714,-1.997283922834828,0.6927084782911483,2.577370988580378,0.9427479760319264,0.49587906339000243,0.33384834916572254,0.0326961765507673
23.499918,1.138892735830385,0.7263774821897835,-0.5357339995689944,-1.9970525054694204,0.6920010885712693,2.5773836504575898,0.9327592148541938,0.4992070444108644,0.3289360597356714,0.0326655735464865
23.599941,1.1283179640845349,0.726378495955892,-0.5355739140857332,-1.9970524221082495,0.6917282573055893,2.577382816783898,0.9193239187768649,0.5025842916331352,0.3237146589734357,0.03263105959637906
23.69998,1.1182627688698659,0.726385856847209,-0.5355399581053597,-1.9970531685665145,0.6916652920154324,2.577375791388105,0.9091810146224916,0.5057951084046367,0.31865974086650756,0.0326217847248101
23.799945,1.108535510551664,0.7264846306275109,-0.5354837162190733,-1.9967162308924657,0.6915479759150607,2.577274116857376,0.9015683907233422,0.5089278028380211,0.3138646516326571,0.032654340298170395
23.899895,1.0982437141973294,0.7278675100791063,-0.5349344361088962,-1.9932291640689017,0.6900189844179333,2.574665779796262,0.8950058771595947,0.5123390098097443,0.3098750721563534,0.03269429343289153
23.999939,1.0877720682964518,0.7304984212552978,-0.5344882703744771,-1.9874342342703863,0.6877766742599776,2.572407090325256,0.8882678822587375,0.5164575326387681,0.306234609842504,0.032871023676394176
24.099987,1.0788192207199985,0.7321484223304052,-0.5343719189341488,-1.9843970345668027,0.6863235172120037,2.5717067461708103,0.8816999867084823,0.5197096935638896,0.3023926105856694,0.03289335133676262
24.200029,1.0724449642647915,0.7321956474709346,-0.5342054391487523,-1.9843460846370675,0.685359347536124,2.5717521338521365,0.8777987431148656,0.5215424910806807,0.29916068759813763,0.03285134824885677
24.299999,1.0693367331577788,0.7318790745672807,-0.5342395228426823,-1.9860439324668728,0.6852011008876434,2.574297706294821,0.8746970561987666,0.5224579068562242,0.29699458176195415,0.03272788082435574
24.399984,1.0691934806846615,0.7297952218359192,-0.5340417943562502,-1.9915357574084143,0.6851949378317841,2.5806854703850135,0.8709078313239381,0.5221618715266708,0.29540529539472044,0.03261535989012472
24.499988,1.0691792365817905,0.724528403729051,-0.5339394794052471,-2.003603891887839,0.6851980516739146,2.5902086405922904,0.8666191482379259,0.5207513519408424,0.2920411920439392,0.03238234773095679
24.599996,1.069115308705633,0.7164121515162268,-0.5339435983729179,-2.019987246671758,0.6852055323149976,2.599250455960131,0.8604652304235787,0.5181727054170692,0.2876586216621705,0.032211022484975496
24.70002,1.0690821424482855,0.7068589032738071,-0.5337961984480152,-2.037746716821518,0.6852135533101249,2.608156441794195,0.8559302429260393,0.5152251765914487,0.28322740327277485,0.03228928293790398
24.79998,1.0688908506554724,0.6987485343037203,-0.5329173693168094,-2.0541534845258558,0.685227113396155,2.617847786642147,0.8501146525118798,0.5123997136477135,0.2792771186457408,0.03196544188149021
24.899993,1.0687702724324424,0.6912386812178924,-0.5316393336112616,-2.068517059172628,0.6852722918204363,2.6263025727831857,0.8422444107463092,0.5096698889913345,0.2761871919665222,0.03178411031924455
24.999986,1.068508880541858,0.682493092448739,-0.5298134744670367,-2.0840627773267237,0.6853611663786351,2.6348730117007815,0.8367980541715961,0.5065483488594001,0.2731556394203373,0.03177508985692201
25.099988,1.0674247268830512,0.6736612176538808,-0.5271127132464049,-2.099345822715594,0.6853930411438874,2.642917628066465,0.8334682864296057,0.5032894901671925,0.27026738109419746,0.03163067676535969
25.199988,1.066586241538841,0.666829352056621,-0.5245082790342493,-2.112322462010587,0.6854003646395378,2.653533962249584,0.8299554440889708,0.5009952909331428,0.26786527890853623,0.031514272389687056
25.299985,1.065050291875145,0.6583787579562316,-0.5215139801215337,-2.1264035194066446,0.6854018798976467,2.660590543421304,0.8274555745804527,0.49781404480205316,0.2652537667050333,0.03143280337519096
25.399974,1.06319757841006,0.6488180831095424,-0.5185005817243528,-2.142239625254966,0.685416070556667,2.6686928882827377,0.8237047391520799,0.4943881137869123,0.26209579114098924,0.03142558435897766
25.499987,1.061401772108087,0.6394532239535864,-0.5157484011557224,-2.1597454548804595,0.6855361458107343,2.679345941398328,0.8185844501638756,0.4908607682160971,0.2582161710877081,0.031165840206468037
25.599988,1.0580092070400908,0.6268340559207525,-0.511063687138437,-2.18090972590972,0.6857107288695943,2.69187800872983,0.8119462933823418,0.4864538161899284,0.2539094929833681,0.031177788583872906
25.69999,1.0528990269368874,0.616564536502122,-0.506387745703037,-2.1987560261522163,0.6857163974758383,2.700754475049943,0.8013309885558173,0.4826622825377253,0.2495088949812704,0.030733480210615657
25.799991,1.0453855494687434,0.6100902364240102,-0.5015986264942334,-2.2076632418692705,0.6857184813040232,2.7047417207078976,0.7925713532468468,0.48124488275621263,0.24651104749952882,0.030692869775584927
25.899987,1.0367196702340267,0.607396121007503,-0.49775498782958594,-2.2097324590358323,0.6857071544671878,2.7050690601656004,0.7857168228902516,0.48175685088168635,0.24412074797532726,0.0307137380653925
25.999988,1.027749887361347,0.6068675279100479,-0.495492098442914,-2.209231197405521,0.6856903272432465,2.7048305613372885,0.7763565074510206,0.4834100138932934,0.2411759938032676,0.030704187644552558
26.099991,1.0164329327332098,0.6069237356303062,-0.4936576644938268,-2.2071838124974312,0.6856749936980765,2.7030830566343886,0.7652074537332829,0.485955583577168,0.23729832769916703,0.030800533276871864
26.199986,1.002922375013431,0.607197040809771,-0.49333406138266656,-2.2055953926030805,0.6856635103186403,2.7007657632143474,0.7556337926387855,0.4891496176865831,0.23133682356268234,0.03086407430998571
26.299986,0.988319740111489,0.6076874814657346,-0.4933260070878552,-2.2041079137159514,0.68555433522515,2.6988868724389863,0.7480610085966276,0.4926207999773991,0.22459416003018157,0.030885578422270243
26.399983,0.9734452175725768,0.6084923869466865,-0.49332071449552445,-2.20258531299705,0.6843793697769885,2.698169878027268,0.7403362994096843,0.49620231421066174,0.21769758780862075,0.030894915126807795
26.499983,0.960438545251308,0.6095535448990393,-0.49321485321056313,-2.2002805235334617,0.6817780665594283,2.6971117950567685,0.7322744446770664,0.4995597985820881,0.21176106261117708,0.03096107406410903
26.599973,0.9481965100087612,0.6108314197652845,-0.4927641226782675,-2.197272572687554,0.6779419731919558,2.695543858990145,0.7219206992732544,0.5026693692639311,0.20660745499007632,0.031015031257886183
26.69997,0.936345781938462,0.6117910608448298,-0.4907698833132968,-2.1937790656220555,0.6751030332724245,2.6934452448412665,0.7142912445848901,0.5053476798043477,0.20264080595591533,0.03106015854354638
26.799981,0.9246577221669736,0.6134261958639908,-0.48927498973005307,-2.1899146489751424,0.6727817124358564,2.69210895395059,0.7076914129571784,0.5083314754198437,0.19839536921621367,0.0310586472416957
26.899963,0.9122333437505652,0.615625782555333,-0.4874243579264086,-2.1849252447177223,0.6705034771032858,2.691188897778361,0.6986883340193168,0.5117192489627106,0.19421020202156733,0.031097760982525383
26.999971,0.9006969426073466,0.6183990622399971,-0.4872337838749424,-2.17992254220667,0.6683319969823172,2.690679897331729,0.6893544429600423,0.515460669010791,0.1892715810495189,0.031192984893957387
27.099986,0.8891041363032159,0.621038242435337,-0.48706445692893746,-2.174378663894149,0.6669345137745549,2.6884366865059346,0.681024108963655,0.5189710201044371,0.18467478958444383,0.03135027786311713
27.19999,0.8786412797583819,0.6233551220062712,-0.48706044267065385,-2.16889552072585,0.6650669869976054,2.685312592909438,0.6770225375453278,0.5221586713915799,0.18050821360236932,0.03158201896852314
27.29999,0.8700089157976626,0.624009077436528,-0.4868557991228531,-2.1672976646197397,0.6628993034214353,2.684364464170534,0.6741160300643976,0.5240052239388122,0.17642423925019107,0.031619248528901425
27.399988,0.8638314477226636,0.623857438512791,-0.4862903393981674,-2.1673806557521407,0.661933930260277,2.6846173391261985,0.6716722566484065,0.5249428881455459,0.17355211366865214,0.031593830308933424
27.499972,0.8613751205713029,0.6222344308933467,-0.485763085787725,-2.171819159670764,0.6619069357818245,2.6905334299802783,0.6679505743380474,0.5247560263289748,0.17135261524683829,0.031514163441967113
27.599976,0.8611242251326736,0.6166056247634436,-0.48462321686299104,-2.185017179269143,0.661919615947132,2.7021886984681727,0.6606313769304824,0.5220545746083131,0.16863854193346386,0.03119189381894126
27.699989,0.8600677052676039,0.6037654408548964,-0.4823554603160233,-2.2087070821944117,0.6620665007494962,2.7151902761110707,0.6504740374467171,0.5161616465757285,0.1645041739469562,0.031121014350795007
27.79999,0.857732593384822,0.5908561771644372,-0.47985173206304144,-2.232964912225048,0.6624255491340875,2.7276053540145946,0.63991171163208,0.5100408585213794,0.159776240722085,0.030820022473004652
27.899981,0.854155422040379,0.580102618563629,-0.4760281546383417,-2.25214851144402,0.6625541407557703,2.7394071797509456,0.6354233488968613,0.5054026894780949,0.15626421908088953,0.030762502993523635
27.999986,0.8496328292653278,0.5703529817509335,-0.47126290387910313,-2.2682969893364096,0.6625777340168245,2.749487042837898,0.6327601147002176,0.5014753690251458,0.15353007198219748,0.03080768931685547
28.099982,0.845797312309192,0.5635029434337019,-0.4674177924423706,-2.2812276465349854,0.662582628853361,2.758224961796529,0.629788702132525,0.4982943935724239,0.15105463012962247,0.030508470628692178
28.199988,0.8427489679536495,0.5567404626633765,-0.463960674355969,-2.292750015079748,0.6625761179083247,2.7660984502799577,0.6269610450873562,0.4954731433799809,0.14917620298865497,0.03054553081992474
28.29999,0.8398990124686666,0.5500213040311793,-0.4605087214415022,-2.304182897594902,0.6625761179083247,2.773753229344118,0.6255597660368257,0.4926248563725448,0.14745713918894368,0.030578790956033414
28.399969,0.8361127846557609,0.5436954004068439,-0.45637305908526654,-2.3145250012083327,0.6625736355350653,2.779537111821881,0.6243140233854947,0.4897590114891778,0.1459254636961077,0.030471683082106862
28.50001,0.8316125139741933,0.5374251154977581,-0.45168794603267565,-2.3259572131497195,0.6625791421799333,2.788166841457697,0.6221206928682668,0.4869306377220055,0.14391808778630227,0.030265976996744784
28.599972,0.8254384096140219,0.5295028840606762,-0.446156028301619,-2.3385384049561515,0.6625685211690824,2.795360393589473,0.6170253989477843,0.48359340609426454,0.14164098391237914,0.030239449703634194
28.699979,0.8190488133436138,0.5204707398711133,-0.44138499212614424,-2.35292355635812,0.6625719329567814,2.8035142340345254,0.6084959414756826,0.4800113314129563,0.1385834339412137,0.03039395009403925
28.799985,0.8123485160166187,0.5137919220964788,-0.4368272538000981,-2.3654360978353184,0.662573399930806,2.8119781794969576,0.6003633929097992,0.47701049525949607,0.13532883138581542,0.03013928687652044
28.89997,0.8060726929514156,0.5073061236228826,-0.43288920509550255,-2.3766311013165167,0.6625749722725585,2.818893643815855,0.5957574734122351,0.4742861731600085,0.13236801805941134,0.03009743424756868
28.99997,0.7995415697263581,0.4999032784710494,-0.4287969626981268,-2.3892854571107756,0.6625791857874367,2.825703317401742,0.5921124569014413,0.47103028080807824,0.1291871871140144,0.030041481953163696
29.099974,0.7920571592423656,0.4922680246811745,-0.42356495409202655,-2.4017167741189525,0.6625799128799735,2.8338756065879958,0.5867299191569587,0.46803474275508083,0.12624902826978757,0.030148384685596802
29.199994,0.7836983918773612,0.48639429363191033,-0.4174059318280276,-2.412438396181379,0.6625779714985338,2.842386393076711,0.5805855726103264,0.46549033542065593,0.12347444281224104,0.02992310820448553
29.299978,0.7764760817852001,0.4798762003427065,-0.41221770263862645,-2.4239462517938675,0.6625810065199037,2.851278953363491,0.5741317046212501,0.46276469952140575,0.12062995066729464,0.029935709469892116
29.399986,0.7695669436083472,0.4720803002373153,-0.4084423044759164,-2.437383778411163,0.66258425496199,2.8578457788915848,0.566309481661188,0.45915627528774083,0.11713638529269627,0.029928393494209227
29.499985,0.7611626480379671,0.4648210505146178,-0.4033216644420137,-2.449932181363106,0.662590724643241,2.8650632465822854,0.5603781596973573,0.45586545535596723,0.11377331441630585,0.029857051191730877
29.59999,0.7517145911674253,0.4588166829555019,-0.3970608717413457,-2.4609492547671463,0.6625990266881004,2.8733665706994795,0.5568796068717095,0.453177856346213,0.11064299759238397,0.02968054800004072
29.699966,0.7426577111008197,0.45248671955598235,-0.39103767300124503,-2.4715127980885603,0.6625851788761192,2.880913947340121,0.5533937244717833,0.4505792957508235,0.10778934046252016,0.029724195371848866
29.799995,0.7333585384198602,0.4453892647760155,-0.38486988524097193,-2.4837490451598017,0.662583253011395,2.889753226865807,0.5482171325190786,0.4475748351807583,0.1046153903638119,0.029800900009170503
29.899989,0.7237594912275696,0.43905740648436736,-0.3789063881496084,-2.4944931966863084,0.6625841707128025,2.895877841658729,0.542747440750977,0.4446466922361924,0.1015970487862294,0.02970841388393264
29.999984,0.7138900891710602,0.4331546788443209,-0.372444766524494,-2.5059814162509335,0.6625919310655424,2.905184953121688,0.5351347029768789,0.44180159760359206,0.09829773050400475,0.029558081198078817
30.099983,0.7010939070974297,0.4247554993579563,-0.3634690786078571,-2.5199530964770434,0.6626014074872727,2.9143464688371115,0.5235924947471879,0.4380188619905516,0.09487652687646077,0.029601276956370492
30.19997,0.6876440296317556,0.4151406976446145,-0.35611127541442145,-2.5364299147465608,0.6626082327137536,2.9240623556584686,0.5143529995444219,0.4336538210232152,0.09002631255375505,0.029736694016693987
30.299981,0.672172238111062,0.40917141260506834,-0.34799873675657605,-2.5471281127072847,0.6625948013747198,2.9303137972924107,0.5056270710092654,0.43084924495172333,0.08565445659200353,0.029473750521805883
30.399977,0.6583068282309162,0.4071359515597718,-0.34277763183642684,-2.5491227326714343,0.6625226837525418,2.931070335397974,0.49621955178131366,0.43085195835848356,0.0821329758588744,0.02945879198379446
30.499971,0.6477537393410707,0.40700996013121077,-0.3411263299573665,-2.5483580007503113,0.6616625707357774,2.9302255758563183,0.4845466802540217,0.43174839289968425,0.07866832944443017,0.02948157889020614
30.599979,0.6367641799853722,0.4077181911065321,-0.34114304450336536,-2.5452252464314205,0.6586908596719979,2.9259513833786466,0.4774177868099028,0.4333106261873274,0.07483718569616143,0.02954287998068242
30.699973,0.6235370616704997,0.41005510463431416,-0.34116579706425576,-2.5384604341202066,0.6507526865205555,2.9204561194378176,0.4723137865386179,0.4363711411468555,0.07072118041451693,0.02972781144937199
30.799986,0.6069542630354657,0.41328982956438576,-0.3411987582976487,-2.530880432172347,0.6398412757810021,2.917033762153018,0.467137851940251,0.4402161694575726,0.06500030327873836,0.029948215202070416
30.899984,0.5893648300369991,0.41570962157625674,-0.3411873769926742,-2.5250203896619574,0.6302705073113715,2.913415165688522,0.4639073428171231,0.4432406498323515,0.05851672832570319,0.030054444850831058
30.999963,0.5716151249986537,0.41791039565328647,-0.3408873727036723,-2.520082045721581,0.6217427118170906,2.910730547871956,0.45908870513536154,0.44587853123773175,0.05182825336896219,0.030101626642185034
31.099987,0.5550950522990501,0.4209496805399896,-0.34042507328951443,-2.5137080260508795,0.6144572584353678,2.907474720177061,0.45233099755302536,0.4487926190390077,0.04580705017590841,0.03009434937927248
31.199979,0.5409594372616473,0.42423504698922293,-0.3395256328572226,-2.505904716911543,0.6073589839900143,2.9027241593707043,0.4465942770735333,0.4518633261467563,0.041291456538167653,0.030159159052608783
31.299985,0.5278902114475055,0.427321321197256,-0.33871743550171296,-2.4980891290108675,0.5973865514821687,2.8964472305794238,0.44352475788577805,0.4546583802031556,0.03737717311772764,0.03018127072232203
31.399977,0.5135547953427775,0.4302347799338932,-0.33571498467948796,-2.4905240620509463,0.5887967624466891,2.8921564563427284,0.4414218223621676,0.4575412465270244,0.0337111777481047,0.0302324677249603
31.499984,0.498935532477885,0.4344297002456117,-0.3336131909376979,-2.481035685725289,0.5801360275174143,2.8889771057090723,0.438310079628461,0.4613865800856379,0.02937839669844938,0.030405942282129755
31.599985,0.4837607360715796,0.43869819188172726,-0.33168725654801,-2.471859989841803,0.5728269223125196,2.8868978908795295,0.43483558409137824,0.4651967913564787,0.024404709427945613,0.030597425614340576
31.699976,0.4677966620607348,0.4418426519193986,-0.3296918926535017,-2.464232386931224,0.5635227502233627,2.883753283452867,0.430368078754418,0.4682106248378293,0.019131791628799605,0.03076186060240646
31.799985,0.45122954742980287,0.4449774179017034,-0.32767178258917184,-2.456238075205349,0.5547766515557643,2.8793184980870294,0.4255417001538543,0.47111507052812523,0.013618890136330582,0.03089468171609487
31.899986,0.43564758979959056,0.4489987787810803,-0.32600489921652925,-2.447430779768891,0.5478992608122191,2.8745049079129057,0.4220653745778301,0.4740931045577374,0.0082514089988618,0.03086831645594529
31.999985,0.421688078796226,0.4541995944866289,-0.32591707493195227,-2.437172647932841,0.5398154560068132,2.8697183748425656,0.4198462032581501,0.4775634883696315,0.002769588322899149,0.030844793970842818
32.099989,0.41014734378383894,0.45995011577645745,-0.3259284538902971,-2.425229356422616,0.5323401613256793,2.86386971015099,0.4192027870303402,0.48151649617087405,-0.0015292152609999554,0.03093476501529567
32.199989,0.4010728941799977,0.4644323700246601,-0.32562665723503575,-2.415036305077669,0.5262625481927509,2.858656183191387,0.4188060236608765,0.48487035498728304,-0.004658554056273342,0.0311573785136455
32.299985,0.39136349921224467,0.46575925754517106,-0.32152484938535386,-2.4099300431750508,0.520773965776798,2.855444738603486,0.4176414107668192,0.48647385122519204,-0.0063224332523439545,0.031289202490296805
32.399983,0.38242894442277786,0.46559189912155174,-0.3162440119841795,-2.4086125998108807,0.5168043346242414,2.8555438253207344,0.4142530723278106,0.48698395007934103,-0.007478377069405223,0.031275131284354926
32.499968,0.37590859903516427,0.46510130803984717,-0.3121689855457141,-2.4086126807063097,0.5154500953781324,2.8568986154558575,0.40964935128668784,0.48716339821813076,-0.008388611383764247,0.031281082409927996
32.599969,0.3689060830855225,0.4642318082480097,-0.3079821821626764,-2.4103634894881605,0.5152119391216785,2.860998527200937,0.40274343408240076,0.4869739494217949,-0.009868400567080108,0.031241755800783075
32.700011,0.3609515217278788,0.4618713526128905,-0.3050342898453751,-2.416144100643005,0.5151903837604389,2.867997799082646,0.3958306218248324,0.4855428461190477,-0.012950588839121879,0.03116340101658477
32.799982,0.3518105337145965,0.4575664003906596,-0.30369119171170517,-2.425555516100893,0.5151879758549672,2.874865005577437,0.3864026352427776,0.48264734675520504,-0.017544183862265746,0.031110532562605236
32.899983,0.34113950818980077,0.4520117294395961,-0.3020655856823655,-2.4364179654358664,0.5151863524058086,2.8802120594916465,0.37738667538402243,0.47895798320729477,-0.02247300670921265,0.0310632207746835
32.999966,0.3307696665954158,0.44716796695714806,-0.29967120847931394,-2.445986871761958,0.515190061131063,2.886848601624843,0.3679656684026058,0.475966860840675,-0.02686136553071127,0.031122514503209395
33.099986,0.32171913485415266,0.4424385689560667,-0.29692217669925985,-2.4548022822595317,0.5151895486725331,2.8928831064627656,0.3613825142082846,0.4732315092904938,-0.030268119812066827,0.031242359142344106
33.199973,0.3118775441146667,0.43849252392760246,-0.2921215715938133,-2.462493382100352,0.515186898574375,2.8978759832129835,0.355360501629043,0.47065013161625385,-0.03280411066519187,0.031071454678227348
33.299992,0.3028779868676771,0.43512744206133847,-0.287688741752584,-2.4695678321748793,0.5151867217313726,2.903947859415644,0.347485555960407,0.46843359562191994,-0.035262598920441444,0.03095422357600955
33.399985,0.29419559987345906,0.4308859881203349,-0.28432623564734566,-2.4781182469068725,0.5151871652183383,2.910263837226011,0.3391484431509522,0.4656824560335898,-0.03815213196936089,0.030949045126406755
33.499991,0.28390816516668105,0.4254897518130278,-0.28087333231606204,-2.487727253273447,0.515185594949226,2.9141148924898883,0.3291276724226893,0.46214328409348426,-0.04142097858536171,0.030930103828830643
33.599988,0.27385087708464495,0.4208644253548433,-0.2781084541510843,-2.496517775896046,0.5151880883660845,2.919009121226133,0.3214202724178428,0.45902274190158454,-0.04502543082874568,0.03095170371714452
33.700047,0.2636511718430586,0.4161076048135132,-0.27442506054444393,-2.505653207228264,0.5151824712919909,2.925874218924561,0.31473209025948473,0.45606756091875084,-0.04832603252497755,0.031072137303890815
33.799964,0.2522982146878489,0.4119792928156248,-0.26959104236984155,-2.5138506125783744,0.5151863126693771,2.9307524961364466,0.3070429050861363,0.45305097053771654,-0.051339718296014004,0.030907852959817544
33.899987,0.24190775527042274,0.40895965065595824,-0.2648516450435447,-2.5199288445451336,0.5151842252044635,2.9354266937430995,0.29897338605738866,0.45088320526020065,-0.05391627769227097,0.03080388240444508
33.999993,0.23248022938560442,0.40558788666570805,-0.2606926830739115,-2.5271175072545855,0.5151862972171036,2.941296981298386,0.289769863058356,0.4484219170123762,-0.05648183723021439,0.030741214970732234
34.09998,0.2227116377477887,0.4010140392266658,-0.2575646504316004,-2.5354930998461063,0.51518587108014,2.9458057067807455,0.28274587066063434,0.4453255018727616,-0.05952878870448547,0.030827895692380272
34.199995,0.21120589761604525,0.396471028746255,-0.25382814318073604,-2.5437626968563656,0.5151855769633326,2.9500542386494266,0.27401486687204024,0.44215197326877764,-0.06293450811407804,0.030869968740740328
34.299965,0.1972830529382393,0.3913484533972696,-0.24875373492899414,-2.5533706743542375,0.5151829664421094,2.956321452274213,0.26235197131681925,0.43856390176246973,-0.06688258658172555,0.030951330939833613
34.399985,0.18085946144648382,0.38601096978761035,-0.2439918743239085,-2.564443169268681,0.5151865028583897,2.962778616963128,0.2472350544056803,0.4340456543413833,-0.07200115635813467,0.03081136481854846
34.499988,0.1649981168803303,0.3830515684033234,-0.24050602359321163,-2.5708009259533084,0.5151783795254058,2.9667774313990023,0.2356017170685283,0.43103541144244656,-0.07730989471182893,0.030691685202174065
34.599979,0.15323166039009106,0.3822596027731722,-0.23900275561800033,-2.571926063720471,0.5148027318847023,2.967012399849091,0.2276662783405011,0.42986345362084094,-0.08153983513698371,0.03068519933142186
34.700007,0.14592913905037555,0.3823252317981575,-0.23934665850205658,-2.5710766524553765,0.5106184492984539,2.9654912777725926,0.22385327590803952,0.4295806774998975,-0.08447784099653756,0.0307449591972513
34.799963,0.1410472519162775,0.38324125333798614,-0.23966372490248902,-2.566371673864919,0.501166651676776,2.957738219640476,0.22346189292009405,0.43049775160068177,-0.08559982782305109,0.03078968012744117
34.899964,0.13568657098026143,0.3861535931393516,-0.2406187997568513,-2.557198911042305,0.49475125766789846,2.9476740444148812,0.22343967809175708,0.4327636571158225,-0.08741193427352448,0.03091744284953246
34.999982,0.12901279386716494,0.39114523763219267,-0.24189453672999786,-2.545337865463429,0.48900636738913444,2.939406712835197,0.22342992882435875,0.43604162903947596,-0.09036961619042075,0.0310356445101021
35.099981,0.12385536197011365,0.39647108299596023,-0.24401101910271347,-2.5340248829159626,0.48405533820410324,2.9332008374725045,0.223434977999126,0.43926878880345094,-0.09340353762173852,0.031136575608959965
35.199991,0.1219239125803919,0.4006352046204282,-0.24639700718926275,-2.52619087603764,0.48204066031792864,2.9293184160083157,0.22342651354448664,0.44144934837932187,-0.0953813226025643,0.031097326018551294
35.299952,0.12197597423936395,0.40372944952711715,-0.2485416528328765,-2.5203617081940184,0.48058424039908265,2.925868780187765,0.2234253553542166,0.44310655303677743,-0.09635364372333624,0.03104869990759654
35.399971,0.12306762317607653,0.40760829484623173,-0.25114949682330595,-2.512752006527364,0.47978335685298373,2.922281266403765,0.2234233560670108,0.4455787876019105,-0.09722602912071751,0.031129558000770635
35.499977,0.1274930756689242,0.4125569192502379,-0.2565730068854393,-2.502933946295426,0.4792903184172281,2.916921552097899,0.22342719952618803,0.4487545225245591,-0.09801698425366569,0.03131854562182597
35.600011,0.12930657156303024,0.41732598480585587,-0.25951807352853934,-2.4930518221016142,0.4792466411507351,2.9105582569165467,0.2234257582545576,0.4517436478161956,-0.09856994074219923,0.03136436837692361
35.699994,0.12934740595379188,0.42294074779590873,-0.2618867466386098,-2.481486805653918,0.47913368471585455,2.903358345241419,0.22343028286118105,0.4551494772986275,-0.09962440475201813,0.03137575320648113
35.800018,0.1291423761317359,0.4289216254853181,-0.2651190982381269,-2.46902527376711,0.4785734423128587,2.8940767157342084,0.22342950570371917,0.45851168361032524,-0.10106174033124998,0.03133000855394465
35.899964,0.128132682504249,0.43555024560236155,-0.2678689971111895,-2.4555023687424926,0.4776306130192198,2.8875591710351975,0.22343127647140557,0.4626918181509945,-0.10299095441548063,0.0315371586533124
35.999974,0.1263800308360667,0.44180036444102105,-0.2704673613440601,-2.4425629563519675,0.4758583198274273,2.88142199643997,0.22343551138012555,0.466603824729297,-0.10516336448350468,0.03177648130221461
36.099941,0.12390171727244609,0.4471566042495597,-0.2724733268634021,-2.431190122792045,0.47331216730467457,2.8736545402770624,0.22343188539422648,0.46961730778660954,-0.10709829933499414,0.031819722040522955
36.199909,0.1209000670551881,0.4528889399909522,-0.27426414849575875,-2.419905316660656,0.4703165133790769,2.8670265319880714,0.22343638025286744,0.47261979980057217,-0.10930573505076145,0.03177825914023932
36.299922,0.11692459524702786,0.45860039850185985,-0.2756121215658152,-2.4079684346395656,0.46637039444094186,2.859651005921862,0.223426943040441,0.47578858667804075,-0.1116889507968372,0.031832166421304584
36.399918,0.11226149384903635,0.46511915634420603,-0.277111336534375,-2.3941904681334822,0.4623156144231625,2.8533153019975233,0.22342031389716255,0.4797681119241162,-0.11474018756198438,0.03213134358997194
36.499965,0.10623770613578802,0.47086993375001096,-0.2776740804882108,-2.38184037601092,0.459251134637368,2.8472902635307453,0.22340612280980993,0.4831231054128053,-0.11793137179304011,0.03236443578991541
36.599914,0.09979363227378832,0.47673187178486937,-0.27805037841605157,-2.3701703357167974,0.4560321613177155,2.841339196626747,0.2234032866601567,0.4859777539409109,-0.1212106327225633,0.03233969573532189
36.699907,0.09372989255827428,0.48234261902084324,-0.2784647581087225,-2.3587359821855283,0.4515050202117939,2.8345816725406343,0.22338933505236647,0.4886858331518046,-0.124236516252971,0.032308167340238225
36.799918,0.08751485791825271,0.4885101529010534,-0.2787158753928407,-2.3457249673036835,0.445035331731941,2.828477271188612,0.2233843034247435,0.4921998042547663,-0.12744849977694017,0.032528833029650636
36.899984,0.08014877874627888,0.49462294011122465,-0.2786591833302323,-2.3320159183373397,0.43815235790351814,2.8212153828581767,0.22336880064829395,0.49573685355934394,-0.13099560560099832,0.03284280477558897
36.999933,0.07106739389802999,0.5012500651418421,-0.2786400005208414,-2.3181282191803443,0.4342476789289519,2.8132949208305726,0.22334189231061183,0.49875695021692396,-0.13545318739707715,0.03289226865713059
37.099965,0.06063490619272397,0.5083058718206303,-0.27860993613051427,-2.303948737523801,0.43065354910313214,2.806723021195552,0.22167523174358253,0.5018105303990931,-0.1408566966215296,0.03296392218493614
37.200026,0.05013713375360501,0.5156837982003613,-0.27863682038018256,-2.2884263084685807,0.4263647655747977,2.79942034634603,0.21590450724508617,0.505263642178603,-0.14634505302507753,0.033216707946769605
37.299967,0.04007108806109967,0.5225715850727888,-0.278632575892364,-2.272959450927361,0.42305754275495405,2.790820765953826,0.21096763638276997,0.508560112405866,-0.15149814035215908,0.03357152120566485
37.399972,0.031065626878255308,0.5292643732939735,-0.2786301121836091,-2.2593266712485955,0.42028707348926786,2.782245345277817,0.20853248719383785,0.5110371539576734,-0.15604923499094406,0.033486843858577295
37.499941,0.02303591828705237,0.5356645124444503,-0.27862830356372364,-2.24554594311327,0.41722597893376406,2.773894571822771,0.20701867195964307,0.5138054953927591,-0.16020833627043415,0.0336228118658916
37.600005,0.015687920054205075,0.5423180728864303,-0.27864638548140325,-2.232222971673961,0.41264707400354095,2.7690829491797837,0.205956820091115,0.5169229541545033,-0.16444525270594804,0.03385495948764737
37.700009,0.009671729159972988,0.5467877812799367,-0.27861059200202687,-2.222327853407932,0.40920159391027655,2.765100597391555,0.20460402758431404,0.5191262756352097,-0.16778575196082424,0.034209975004557455
37.799943,0.0049268862250614245,0.548461286941268,-0.278061877253049,-2.2183803659355203,0.40720728267177836,2.7627545450245505,0.20208577517505494,0.5195709429946755,-0.16992527397134996,0.034290367249282666
37.899988,7.059585757239668e-05,0.5485325567104987,-0.27654621745433716,-2.2179598651127033,0.40652089906899613,2.7627988205793637,0.1980250514050003,0.5191588992534183,-0.17157761530376933,0.03425058644598858
37.999913,-0.005288314197104637,0.5483285947588409,-0.2749759909501382,-2.218130295638008,0.406396472497438,2.7636990261631498,0.1896503671744184,0.5185818036299581,-0.17352739035907705,0.034252130210023254
38.09999,-0.010842249497830652,0.5473004173559355,-0.27390491729139804,-2.2205676241384054,0.406400460335909,2.7673790330408545,0.17816888890681415,0.5173838212213222,-0.1760171250732142,0.034284860359266964
38.200021,-0.016436119518217395,0.5455358111615429,-0.2738113487893992,-2.225106394371559,0.40639451528966536,2.771778563590917,0.16523104055774743,0.5152539900419854,-0.17899700512438516,0.03420576749156788
38.29992,-0.022618413430719898,0.5438151490905301,-0.27377796022756423,-2.2293367566254587,0.4063939379171324,2.774859530150787,0.1560702839850948,0.512932318234785,-0.1821665084434237,0.034081827332399575
38.399987,-0.030126568432564723,0.5413788571812079,-0.2733509749937602,-2.234659760956673,0.40639020533052134,2.7785045675213493,0.14819214475328665,0.5101267738904586,-0.1857256918561417,0.03401538263157923
38.49998,-0.03870217790701481,0.5387272512496278,-0.2731263693358483,-2.240434916762961,0.40638997067244514,2.78192428073281,0.13908393170532105,0.5068653774801299,-0.18983963388682054,0.033914778111994975
38.599984,-0.04683903235728047,0.5358411108499217,-0.2731178810124205,-2.246164882351598,0.40639188321507647,2.784958675340804,0.13012649379240965,0.5036334499642371,-0.193744557141197,0.03393217523069092
38.699993,-0.05578117886326402,0.5325493903058431,-0.27255480433364476,-2.2525645680953894,0.406395134437996,2.7878704808027748,0.12266007812548724,0.5000616473387182,-0.19762698523420819,0.03388860482425371
38.799921,-0.06548486396169989,0.5293885042916339,-0.27195487523917633,-2.258746308357847,0.4063942623966832,2.791294094529021,0.11576775487109944,0.49647465687876974,-0.20189838663121004,0.033900220374000284
38.899985,-0.07505804912933535,0.5259841421682098,-0.27120592684584616,-2.2651880196263674,0.40639783018107256,2.7950328175009456,0.10926044367447567,0.49290656747002976,-0.2059599346446198,0.03397242577308321
38.999973,-0.08484207276598006,0.5227718103664258,-0.2690607921320613,-2.2703825571354392,0.40639921339398155,2.7979633807282025,0.1023998813183761,0.4899820187759211,-0.20932389344003063,0.034126804192089424
39.099932,-0.09341301885475706,0.5199371274721741,-0.26779900145873387,-2.2758511182552987,0.40640191694374755,2.801079885960801,0.09297002631908496,0.48690023213735084,-0.21255419587133065,0.034106038129723446
39.200013,-0.10124895074809179,0.5181340386090921,-0.2658822553620757,-2.279584436408592,0.40640029057310356,2.8038935599110277,0.08576839108472167,0.484662759392933,-0.2151634389726341,0.034006488446388664
39.30002,-0.10846556298588132,0.5165274509882629,-0.26347931490408916,-2.283055533761505,0.40640410799451404,2.807690272872205,0.07833498768588096,0.4828282949641937,-0.21737650743167464,0.03394104812498634
39.399967,-0.11559352674543445,0.5142799008117371,-0.2619209672287884,-2.287880346010218,0.4063986789861105,2.811762255633934,0.06994555684359369,0.4803492388989196,-0.21988141239018094,0.033896578853088014
39.499966,-0.12350434420673662,0.5119010338113852,-0.26100370712103693,-2.2927823424269773,0.4063987185394514,2.8147493622916135,0.06080927080548933,0.47739228967402747,-0.22293479746851994,0.033837004923732136
39.599965,-0.13210341188796565,0.5088025366925714,-0.2601827974566376,-2.2978899879457426,0.406397983003148,2.8167353420182537,0.05105297356860785,0.4741795231863289,-0.22618673249659194,0.03399149067283651
39.699983,-0.14176160405194263,0.505584043862905,-0.25987927254887616,-2.3034963598407967,0.4063984274482912,2.817604085757463,0.04337328595318292,0.47020949701302805,-0.2299630857079969,0.03398170613214553
39.799985,-0.15174538238189145,0.5035988603261797,-0.25982390185032983,-2.3076235156118137,0.4064026280060683,2.8190213206760335,0.03517739766305718,0.466587814424251,-0.23422394947448721,0.033883201952208966
39.899987,-0.1611749126772007,0.5014782222647874,-0.2591533492627539,-2.311619558674959,0.40639859186487676,2.8216929336944223,0.027736226338620305,0.4634646233059349,-0.23803559230622298,0.03395649463824833
39.999962,-0.17016558300413256,0.4991754226901855,-0.25852180273910647,-2.3159968090678915,0.4063993495291839,2.8242671374682584,0.018319448393037143,0.4602640135057286,-0.2415596384109016,0.03400559835224705
40.099967,-0.1783848521759337,0.4966979976643121,-0.257918666430172,-2.3206537834006142,0.4063987360910709,2.8276061183846055,0.008769171527953963,0.45722634709369686,-0.2447715397483306,0.034136506595129915
40.199969,-0.18781411968392359,0.4931166872512413,-0.2563854949325119,-2.327541185793061,0.4063979535545714,2.83182476831206,0.00044273799587319696,0.45335820605185434,-0.24780366075542737,0.03415759364401216
40.299966,-0.19816036482419344,0.48988657714823436,-0.2556079271429872,-2.3348812363474063,0.40640113025844254,2.8364332404362878,-0.009248701858448182,0.44880924832834446,-0.25155522012806975,0.0339830261352498
40.399968,-0.2097592454467026,0.48612053729770915,-0.25431765535062034,-2.3434206691493253,0.40639949370919176,2.8429033415770353,-0.020955206854339197,0.4438442302215866,-0.25557029880186066,0.03387447812855837
40.499968,-0.22291622020891383,0.4818658134630544,-0.2529920843088149,-2.3513888553055264,0.4064002513272469,2.847086360817311,-0.034047224895445344,0.43854319437253964,-0.26000158842219223,0.03394606133378951
40.599966,-0.2368193920894126,0.4781966899806495,-0.25198342723121675,-2.358069121552082,0.40640111716868643,2.849710599243043,-0.045329752250197065,0.433220880288415,-0.26478306786315503,0.03397104794668179
40.699967,-0.24907241990141776,0.47460113712401875,-0.2513626695586174,-2.3650836672423874,0.40640187479454426,2.8542028000336512,-0.05480069839695472,0.4282255404911027,-0.26915185523291313,0.034088236825233
40.799972,-0.2573677278115954,0.4686942122697221,-0.2512184756728575,-2.3768276221574416,0.4064014785429293,2.862367771354398,-0.06391016790333215,0.42289577451589255,-0.27163928023037215,0.03433235406242857
40.899969,-0.2623656004835845,0.46220200464807465,-0.2500244846996641,-2.392457852183352,0.40640578225051527,2.873330992344296,-0.06712093396725334,0.41737327116604755,-0.2717622291820919,0.03397883967159167
40.999974,-0.26468603647926486,0.45373663868429465,-0.2474990550229684,-2.4114446424511446,0.40641030531798517,2.8868073566198014,-0.06738722085611965,0.41209193614691486,-0.26979587622432105,0.03379156986584285
41.099983,-0.26657568838476986,0.44230959936518344,-0.2429915853615671,-2.433860653977384,0.4064217474199328,2.8986352964352644,-0.06742526299559659,0.40639006596263544,-0.26584869079744844,0.03375887111981747
41.199986,-0.26888738166441045,0.4333871032465371,-0.237632107442977,-2.4531395330344488,0.4064222655432243,2.910060190087326,-0.06743841855495519,0.4016770088306865,-0.2622262631780601,0.03339213841910402
41.299985,-0.2718068940450948,0.4253830120361973,-0.2320800045119523,-2.469381274843818,0.40642519766384877,2.920106013757327,-0.06745320815593246,0.39782682006995196,-0.25910132267601393,0.03331096199966688
41.399987,-0.2751443950772562,0.4167828162017836,-0.2263695754705468,-2.486728685028557,0.4064250154145887,2.9313800201594433,-0.06746403909244107,0.3936440739647148,-0.2560414260604287,0.033336295576713804
41.499985,-0.2787667723025151,0.4092744467713921,-0.22072165679193134,-2.5030985649153097,0.4064294675897928,2.9410905222400117,-0.06746970316978744,0.3893522777176515,-0.25302483469273884,0.03301377407410408
41.599988,-0.2838383122100756,0.40181210396079936,-0.21376380265276812,-2.5190011159246946,0.40643168632295595,2.9516975419826843,-0.06748200147863843,0.38535642444713675,-0.25019454445896777,0.03285564947854629
41.699986,-0.28987555833371165,0.39219692864218625,-0.20622931954005325,-2.537657739711256,0.4064352287857444,2.9624412250187175,-0.06748458788896343,0.38047611154529615,-0.24700603581476965,0.032945906962282126
41.799988,-0.2953781965501964,0.38370286434446776,-0.1992183392860499,-2.5564731868413837,0.4064355761602917,2.9741437407236346,-0.0674845879072155,0.37531511105808185,-0.24386581923011402,0.03266279989095479
41.899987,-0.3007009448966804,0.37603810500917234,-0.19199116282146791,-2.5733467764057574,0.40643910683324735,2.984868739669065,-0.06748862099416349,0.3708693663769717,-0.24081860173909583,0.032464713128139325
41.999986,-0.306454888211845,0.3673617509173669,-0.18465901494261677,-2.590774611277704,0.40643724872346,2.9946947774463126,-0.06748936546901338,0.3661991228219033,-0.2376847718392664,0.03248748894256116
42.099985,-0.3121034095193262,0.3602810400782602,-0.17732005006955287,-2.606161743801774,0.40643987273742843,3.0048856597068685,-0.06748861661310791,0.3622034529165087,-0.23495222460688053,0.03242095255218129
42.19999,-0.3171289649645445,0.3557119098676429,-0.1709655240660294,-2.6176768982212426,0.4064418868486418,3.0135999607078303,-0.06748407528559716,0.35916895157464446,-0.23292835410890944,0.03216052256346927
42.299967,-0.32247762797140417,0.35250957000653765,-0.16492623472379975,-2.625220970419959,0.406440714565449,3.019574072730954,-0.06749100207961863,0.35726304295250794,-0.23158727934293655,0.03205785594214715
42.399968,-0.3292312433740342,0.3479467519727204,-0.15912618169209009,-2.633516343026103,0.4064395327518286,3.022972405290127,-0.06749997752987784,0.3546146998031139,-0.2303860833442669,0.03209243863309101
42.499986,-0.3388461210099231,0.34478970582370844,-0.15282074897449285,-2.6389207808909103,0.4063977170246944,3.0253509291418115,-0.06848704697810899,0.3524288690920712,-0.23041682354410253,0.032131149773444806
42.599983,-0.3502265137827744,0.3430474691859519,-0.14710274031419662,-2.641152252197919,0.4056429954982515,3.0254524695043736,-0.0774739676696783,0.3506372233519689,-0.23158759286901878,0.03214025330789212
42.699988,-0.3614182302544362,0.34201634187896346,-0.14427229158525912,-2.6425894039984352,0.40481148983140114,3.025435996932364,-0.09181711808627036,0.34833848809459966,-0.23401856594890272,0.03212939998855527
42.799991,-0.37443434603588155,0.3415168058655323,-0.14272368936243837,-2.6431478714647554,0.4044116994563594,3.025421410198806,-0.10781033676101821,0.3455317896684438,-0.23779610040564705,0.032153014088918117
42.899961,-0.38938946903490407,0.3413972408739192,-0.14269668226282792,-2.643208384739895,0.40425659325620766,3.02541578495886,-0.12155742198638742,0.34194538178485057,-0.24292833778266104,0.03218599552240772
42.999977,-0.40534356393452375,0.3413356782748387,-0.14274595695669723,-2.643193733838273,0.4037485530997564,3.025421926517166,-0.1347388903032812,0.3380628789248583,-0.24837041552720635,0.03221730127456647
43.099979,-0.4203348215780753,0.34126295014544294,-0.1427640658050938,-2.6431273300977303,0.40296541705205824,3.025424963852781,-0.14905131277179245,0.3344059117914375,-0.2534016197525985,0.032267206102462795
43.199982,-0.43277849215299363,0.3412413121410987,-0.14281683074548926,-2.6427029180700563,0.4009026056689217,3.025095558438259,-0.1589288910782989,0.3315055208014144,-0.25755347520555344,0.0323476286703616
43.30001,-0.4428308207113963,0.3412945699637776,-0.14306399641055503,-2.640944517537388,0.3956286556802183,3.022058271351263,-0.1649255618815569,0.3296125118010954,-0.26077643631430286,0.03245401835652478
43.39997,-0.45101614324511097,0.34199235452836224,-0.14462788310751473,-2.636123355378441,0.38422976775707396,3.0136727844250184,-0.1667753478874207,0.3287801643093571,-0.26365352305719286,0.03254624172657834
43.499986,-0.45807269427861685,0.34475314116282474,-0.14655038310839066,-2.6273634771133154,0.3750293912179658,3.0036172401311463,-0.1668342001342725,0.32911581937642675,-0.2670888011191065,0.032584485400405025
43.599986,-0.464468582129472,0.34948615623545004,-0.14934461299563992,-2.6156700897338476,0.36839130378987894,2.9948192198770234,-0.1668508330058437,0.33018724940039446,-0.2716409405333571,0.03267400323834284
43.69998,-0.47432607441660324,0.35493114434225354,-0.14973628449955062,-2.603948118834913,0.3608598779893031,2.989511626301921,-0.1669022212890489,0.33118677452776674,-0.2769031976898132,0.032743047517106716
43.799991,-0.48696543430200756,0.3588589796580404,-0.14969254447092822,-2.5954561772676,0.3544563443263462,2.988086174923675,-0.16892249198650314,0.33071707100919384,-0.28280206499525756,0.03302959768218473
43.899991,-0.501822054252829,0.3611326714674636,-0.14921394681855216,-2.5896864743674333,0.34840965858067463,2.9869666067069782,-0.17661011161194612,0.328837198395816,-0.28870068435756197,0.0333660831597742
43.999976,-0.5164940011376947,0.36316386139111867,-0.14935922922550787,-2.584479603608379,0.343970576287825,2.9843297117535084,-0.18537685000716125,0.326294912898904,-0.2943988720238543,0.033537133927570725
44.099987,-0.5257694192972846,0.36668674580390676,-0.15100052217995205,-2.5749972666917933,0.338493389469856,2.9752715301943597,-0.18818343299791018,0.32568818464748167,-0.2990059830845691,0.03356938630794966
44.199986,-0.5316366788509569,0.372373018681336,-0.15263773558813584,-2.561606609541129,0.3313394832913367,2.9661468817077163,-0.1887318228751248,0.3272876153827966,-0.30349678106810646,0.0336651063653768
44.299988,-0.5366387579298063,0.37854227716832767,-0.153645499594603,-2.5483435619740087,0.3246918650336193,2.958776916757287,-0.18890771423637495,0.32924714530888594,-0.3076831013835475,0.033673994972720694
44.399991,-0.5432401881181038,0.38338311826358484,-0.15338080148888883,-2.5370408083658473,0.3206616641847788,2.953825605066104,-0.1901999564048122,0.3306950355784511,-0.3119389402754937,0.033964855891977994
44.49999,-0.5533296107780392,0.38640595701320796,-0.15177094503058652,-2.5297586850691425,0.3177829921626529,2.9514161777116263,-0.19409818355639857,0.3303696664070795,-0.316192588396938,0.034219675473693575
44.599986,-0.5650104656621247,0.38889807852235825,-0.15147079084570386,-2.5237310765836916,0.3136167844082094,2.948872411307864,-0.20212298566844858,0.32864542571268335,-0.3211009203438287,0.03442399892030916
44.699985,-0.5776803820169378,0.3920309304806543,-0.15151426729689862,-2.516524981326971,0.30991024075285,2.9444470581868623,-0.20975263865935598,0.3265565164586513,-0.3264645459808998,0.034482346544274456
44.799991,-0.5875735078787527,0.39720235356958494,-0.153186916093186,-2.504255391855416,0.3046740237559773,2.9359405970144894,-0.21578641641298169,0.3259987140545997,-0.33228913604759314,0.03462605981768391
44.899986,-0.5932519943100366,0.40392775596156594,-0.15523339707889397,-2.489788522316034,0.301616932357707,2.9267834633902177,-0.2174567256796058,0.32701574219263446,-0.33739119298672704,0.034620347099015056
44.999975,-0.5955160900767607,0.4112264234614427,-0.15754021043709718,-2.4739420573797926,0.2999379265867746,2.919670886183163,-0.21779901062962337,0.32961263751029046,-0.3422806688892343,0.034936237361604325
45.099988,-0.5961152278262983,0.4177198424231264,-0.15994168314892754,-2.459348695969919,0.29903956976050117,2.9111954122194783,-0.217888522727944,0.33218484094412704,-0.3461113352462061,0.03517271530554318
45.199978,-0.5961579872595245,0.42388726788010966,-0.16187270326249784,-2.4465253174057833,0.2985063950152459,2.902761989748448,-0.21790535271288616,0.33443838341435667,-0.3490056947464188,0.03507561740858521
45.299982,-0.5961614111470471,0.42966914985005994,-0.1635573401081016,-2.433462087061764,0.2980246936198826,2.8936473032115217,-0.21790307983195295,0.33691571455838876,-0.3518284422653106,0.03517014296491065
45.399964,-0.5961427731823153,0.43605587634994336,-0.16518179993862314,-2.419922716462052,0.29757811839303516,2.8873380435191005,-0.21790667082213777,0.3397412594653745,-0.3551824137291845,0.03538270698360578
45.499987,-0.5960864196725051,0.4417133854927339,-0.16656488697016528,-2.407493442571461,0.2972134449956453,2.8817601887549804,-0.21790490523598013,0.3424349623985141,-0.3582396719273681,0.03569907314950452
45.599968,-0.5954877301505194,0.4454220185939456,-0.1680408440590162,-2.399478565255125,0.29707241172367377,2.8762342556220903,-0.21790778935871616,0.3439069608086829,-0.35989854690071277,0.0357156117537306
45.699987,-0.5928272496290781,0.4480150473351068,-0.1703836402086432,-2.3947387055312093,0.2970509800260236,2.873699014376307,-0.21791368937593206,0.3450096131443102,-0.3607653823548421,0.03567679528626054
45.799994,-0.5868856567277494,0.44932750152241907,-0.17477463072337493,-2.3931246427822304,0.2970457486484582,2.873199697276212,-0.21791100270020497,0.34570863014152964,-0.3608078934766635,0.03565647055117897
45.899984,-0.5797373599284417,0.4511661758398494,-0.17942859605498293,-2.3907789431823816,0.29704295278687065,2.8726715163574488,-0.21792007082742298,0.3469273308072334,-0.3607251329996102,0.03560396097084431
45.999976,-0.5732067656440958,0.4546858970602587,-0.18228015600599293,-2.3840215920373033,0.2970410660441163,2.868514263681421,-0.21791411283763185,0.34970848316906816,-0.36074293069885777,0.035569623877173925
46.099986,-0.5675715491653656,0.4606625232723179,-0.1838836078647191,-2.3714232031822235,0.2970383840388881,2.8610950016466123,-0.21790823182781635,0.3541552953755542,-0.3616013564774245,0.03565410633918217
46.199972,-0.5619358647513527,0.46710051232878713,-0.18580380208534353,-2.357305724585699,0.2970330089667411,2.8540607361886403,-0.21791362808428275,0.3590204505357018,-0.3630519740715696,0.03601058966416587
46.29997,-0.5564789332746594,0.47168673009180856,-0.18842644740875483,-2.3480823203354353,0.29703210548341213,2.849047273490143,-0.21790228549749924,0.36213987506455075,-0.363772998678401,0.03608609179333261
46.39999,-0.5498918491227521,0.47456831663398136,-0.19212031598094714,-2.3436646181131446,0.2970373373112096,2.847596383559014,-0.21784906441224375,0.36406115278446527,-0.3637954687797818,0.0360122164034367
46.499985,-0.5421668350658166,0.4764395304294111,-0.19625490259075162,-2.3412485357801636,0.29718177715593125,2.847211988192023,-0.2173740368006413,0.36575006886361966,-0.3632561796302067,0.035985393690676507
46.59999,-0.5335541005146175,0.4787797441467155,-0.20022864536444046,-2.3376376990973973,0.2974350916120304,2.8451418038777194,-0.21664866724061607,0.36804739447821433,-0.362357213998481,0.035908228847834844
46.69999,-0.5263489179023848,0.48308529487021373,-0.2024207965529691,-2.3286617009586483,0.29797098106545344,2.8383245538445827,-0.2162771781126054,0.371815550853733,-0.3618544229298708,0.035882958435958026
46.79999,-0.5217738629144403,0.48938347738766985,-0.2028735158846023,-2.3150338500341348,0.29851604428716744,2.830592195006508,-0.21624764415880854,0.3766678594259299,-0.36259005347255036,0.03605861231815394
46.899988,-0.5176338323802211,0.49495314370681975,-0.20430597809983306,-2.3025138765123865,0.2990906417368283,2.8229011360405196,-0.21621486410748517,0.38067203699643304,-0.36360521219331765,0.03633735929362239
46.999987,-0.511388260413146,0.49851885291547315,-0.20810772311686523,-2.295620856679731,0.3002040350157446,2.8176073605640646,-0.21544530987568283,0.3828781104051207,-0.3637624528054086,0.03631608895386575
47.099988,-0.5033243626179917,0.5010511507766455,-0.21316998855723868,-2.292099633854183,0.3028408079254238,2.815906215877784,-0.2133337470712114,0.38449313772003624,-0.36349676787339685,0.036247788035645476
47.199988,-0.49506740824957907,0.5035433958437849,-0.21658733344463113,-2.2886659661292925,0.3054993355849606,2.8152947450012236,-0.21245350011725322,0.38692995065469954,-0.36253892671439664,0.03617633349099052
47.299982,-0.4868727079828204,0.5068108441583514,-0.2188305912258536,-2.2826865114155424,0.30783608155834113,2.8115484589144835,-0.21210033161941066,0.39034588149013844,-0.3612048039036365,0.03610463714247243
47.399985,-0.4795192676757387,0.5128576988388466,-0.22084964227401907,-2.27034091886793,0.3098459832930289,2.8042700830904588,-0.21193040242287126,0.39521111259501784,-0.36107558992290517,0.036200432753796793
47.499971,-0.4731554877277104,0.5196856487101851,-0.22335178911234035,-2.255985968904928,0.3121686674003606,2.796410037637229,-0.211904358550945,0.40011249615235794,-0.36189239969706766,0.03649582334252327
47.599969,-0.46769969859142557,0.5248139212794363,-0.22663230536300902,-2.245626677178887,0.3158210781910944,2.7894817199335593,-0.21188681025898876,0.4031703104738578,-0.36256792970136487,0.03658501717487632
47.69998,-0.46077040618830717,0.5278342241943864,-0.23161797227280992,-2.24063858867459,0.31926983022507666,2.7850792897168604,-0.21185215639684787,0.4046385648211001,-0.3625374131437306,0.03649590672340698
47.79999,-0.4516558591547401,0.5305097082508873,-0.23806997355061182,-2.2371539143507224,0.32406512267787607,2.7827804484292202,-0.21121853635617482,0.406031518826371,-0.36228432538463795,0.03643525445627706
47.899988,-0.4425209165692663,0.533475548210182,-0.24288915048947762,-2.2330244318878343,0.32963825163245325,2.7809041741887284,-0.206269363620213,0.40832737926392304,-0.36145380198930527,0.03635873657452664
47.999983,-0.4351399115649691,0.5383648406231657,-0.24505233066107215,-2.2234395358396997,0.3324990659251632,2.775182045786379,-0.2043279066015219,0.4124974695443203,-0.36071011872620556,0.03640953027378452
48.099971,-0.428446735584153,0.5451247381603089,-0.24703497314914544,-2.209777811674032,0.334959999044166,2.7689349913471895,-0.20385998930147314,0.41771759947946313,-0.36096020786577937,0.03670093221724707
48.199985,-0.42373719881368227,0.5517474638759644,-0.2485916614188845,-2.196507781739963,0.3377291618703651,2.7614048514065255,-0.20380804801274047,0.42208652420451576,-0.36144486446825314,0.03678598532866767
48.299986,-0.41998336637594663,0.557963086690665,-0.25108001387987144,-2.1843647082078146,0.34051276111377576,2.7527287965027907,-0.2037950994162601,0.4252257990594507,-0.36229561393724746,0.036700824401778465
