SnyprDragun/scots_vcz_franka/recorded motion/example_2_joint_ee_log_disturbance.csv
elapsed_time,joint_1,joint_2,joint_3,joint_4,joint_5,joint_6,joint_7,ee_x,ee_y,ee_z
0.0,-0.05414348204288671,-0.5299275100076343,0.17127179758450156,-2.0051835753809972,0.0828511241014882,1.490916171883704,0.8328155269061456,0.3755590365322387,0.07456232916743404,0.5554906225685564
0.099988,-0.0592841072100375,-0.4947572309585293,0.18801590705475735,-1.9537818588745017,0.08438029794291238,1.4759317777042018,0.8485089571318097,0.3843104346127768,0.08186163939913367,0.5637858792840278
0.200004,-0.0621804948371229,-0.4578073992005902,0.2033927624511948,-1.9010099233830362,0.08485821115084954,1.461689706783874,0.8632697712586097,0.39312059903985247,0.08949679746389001,0.5723111320900864
0.299989,-0.0641586156464622,-0.4203560683044601,0.21781176442068378,-1.8462816560748512,0.08488363000532459,1.4449120369158566,0.879777056194153,0.4016556157975243,0.0973404054466037,0.5802580851537444
0.400006,-0.06509685584558858,-0.381616133687401,0.23273730605643767,-1.790880093512999,0.08488161139137827,1.4281536937860564,0.8962621628720725,0.4102608331707041,0.1053912194570286,0.5883785127519727
0.500003,-0.06560844432762483,-0.342977969083536,0.24711315642802786,-1.733590298118324,0.08478798127794021,1.4101049747856655,0.913598541242644,0.41848409435496003,0.11366239847882331,0.5960537509462666
0.600001,-0.06574688803386546,-0.3031758892280765,0.26223390735593455,-1.6751379012217944,0.0835314274248747,1.3909763824790222,0.9328137525822072,0.42646478192677506,0.12166369466066167,0.6038926734814527
0.699998,-0.06570990739201849,-0.26389909204759837,0.27771880244746505,-1.6153666998699923,0.07993222958716807,1.37128538565379,0.9508960441562954,0.43419467544728785,0.12938392678964233,0.6113503643876207
0.8,-0.06571799491273231,-0.2234342760492967,0.29358400736377815,-1.5551068463895523,0.07317820462513167,1.3504289932781919,0.9704076079038331,0.4416701975934069,0.1361041892326014,0.6190525963705974
0.899954,-0.06566448788062397,-0.18382885399834495,0.3101681269021712,-1.4937175405662002,0.0648582359944912,1.328873356712946,0.9893656398041508,0.44890385104977226,0.1425580809909313,0.6258325496442628
0.999997,-0.06500740313212955,-0.1427696428707494,0.3271378556985513,-1.4318106732886353,0.054490027497092475,1.3067415193798189,1.0105621003571745,0.4556236198063355,0.1488585894288453,0.6328255400282415
1.100003,-0.06255094260254106,-0.10225301340818145,0.34439169337834036,-1.3691134240844804,0.04170981364758062,1.2821322639048391,1.0311618381704235,0.46204643073117824,0.15485529915719684,0.6388122292188122
1.199961,-0.056221667167474135,-0.06086983280776055,0.3609845879410815,-1.3066777107597947,0.02817560071147916,1.2585736327603245,1.0533455262714198,0.46747951351111017,0.1618522383726787,0.6447703292876537
1.300008,-0.046691429092212695,-0.020431828053559857,0.3767579839633092,-1.2449904436099357,0.013662802984788098,1.2341293473356194,1.075452713388327,0.4723246514210156,0.1694036447890061,0.6497538026069203
1.400001,-0.03209557183847028,0.019165230215540306,0.39068610330176773,-1.1846121710762234,-0.0016197843248504469,1.2100462021809355,1.0979794932910916,0.4759784606781791,0.17717862660868397,0.6546678996651127
1.500003,-0.013435715544627386,0.05702509539407125,0.4018023713761479,-1.1260237992278463,-0.01720972449350123,1.1865783139085624,1.1208850119452922,0.4791009609380729,0.18549348772417326,0.6585781438361129
1.599995,0.00917381996355855,0.09288726715117615,0.4093764456207427,-1.0705627903637536,-0.03263851910700658,1.163912465810773,1.1421189988418012,0.4811262898442687,0.19380305172887485,0.6623761422715132
1.69999,0.033568537995589454,0.125331846161438,0.4145747202695267,-1.0199119738807059,-0.04794615593651828,1.1442180299955058,1.164294901869964,0.482730904614392,0.20202361701794813,0.6649882696179488
1.799975,0.05919245815823174,0.153339603730215,0.41643489978875886,-0.9773206236627164,-0.060346760643375984,1.126896095765104,1.1834222219762014,0.48353173032478236,0.2098859014058029,0.666468456170544
1.900012,0.08328736749518455,0.17604142856828592,0.4165518076647984,-0.9450493461547657,-0.06870258717859472,1.115932665007739,1.2025729080429752,0.48389918627344125,0.21810598718986166,0.66690684773702
2.000008,0.10459377639273486,0.19172309807078555,0.41650072747055156,-0.9261000749957549,-0.07491443399808695,1.1104755837964169,1.2176001212324994,0.48348577246062024,0.2262130087502755,0.6653303970447821
2.099992,0.12207579591221274,0.19852283033906598,0.4164837569667606,-0.9226796929845006,-0.07683713488395415,1.1099748685151194,1.2337621691210983,0.48148538426281556,0.2342146756288446,0.6631085010944112
2.19999,0.13576416338903757,0.19971402589201545,0.41648178103085653,-0.9286861714287531,-0.07687787611679671,1.1136106425615406,1.2467621515168608,0.4796148466081633,0.2412687310819333,0.6600080139285703
2.300054,0.14431522359642532,0.195145727812414,0.41646336032540393,-0.9514896348380066,-0.0768527446859466,1.1286887657596922,1.2580786836239748,0.4793754937083271,0.24733130375283705,0.6535725860448293
2.399996,0.14748262885452057,0.18234894654307324,0.416442771948042,-0.9940011371897841,-0.07596633208133927,1.1521579755990328,1.2714435607579009,0.47891308111095104,0.2526072927689994,0.6446666647005418
2.499994,0.14989169945333214,0.16839565933344794,0.41645171575654494,-1.041241021076654,-0.07162063523139511,1.1808644133024284,1.2816366522888876,0.47823262253640336,0.2584976180327358,0.6349922968692688
2.59999,0.15253303072990584,0.1512033517037302,0.41647621317537226,-1.0903004066063722,-0.0658926660956433,1.211024085670302,1.2918034971410883,0.47653164472811943,0.26485035111637284,0.6259622020000879
2.699988,0.15664659885374027,0.1342140734722653,0.41673182123238495,-1.1366825679576138,-0.059484879408498656,1.242040998203125,1.3022583710102562,0.47400548550298727,0.27159654400178357,0.6183433155288103
2.799989,0.16176444479301375,0.1183866121827978,0.418194596442516,-1.1788581147295598,-0.05386549591486062,1.271055672559533,1.315330206870011,0.4711212957400219,0.278864791089768,0.6110501085673476
2.899993,0.16824809696746665,0.10457060336895184,0.42083421239329916,-1.216463779268496,-0.04860810369927742,1.3003290561776368,1.3258367879327932,0.467966845065817,0.2867563984482381,0.6043253293366759
2.999973,0.17599751286502813,0.09590547412179537,0.4242672581501568,-1.2487156057987605,-0.045596490776613374,1.3272927706053943,1.3358702638316964,0.46595205623442676,0.2951102387600002,0.5966938092505373
3.099998,0.18545794068342222,0.09402330725263451,0.42732220381654834,-1.2740575122063906,-0.04473549250484212,1.3506480832048673,1.3487238740877785,0.46481289837699613,0.3033344779000745,0.5884111585505576
3.199985,0.19408602378430273,0.09479000148882857,0.43034187509440225,-1.295030259281148,-0.04470237430115927,1.3709005763559219,1.35962867691477,0.4637206119092958,0.310490566823904,0.5810800150609592
3.299991,0.20365683411712013,0.09810720007105075,0.4324591210021403,-1.3043687991789845,-0.04476658208893367,1.3852307066661362,1.371398675846414,0.4630234795771412,0.3178793503526519,0.5774145338451553
3.399996,0.2154810769327622,0.10562155669629178,0.4341578041290314,-1.3041971813655653,-0.04573942757168897,1.3986355020702648,1.3862684309265676,0.4628585943334174,0.3260946069328971,0.5745765527270833
3.499993,0.22957702658682314,0.11914782622061565,0.436457844315058,-1.2975115141867535,-0.04984951132625136,1.4050604438624061,1.400248163485483,0.4629889933826607,0.33480142260107987,0.571301329871693
3.599996,0.2462928836087614,0.14023248626807042,0.43792019159434076,-1.281614910027366,-0.056713276652615975,1.408876498549485,1.413439810033805,0.46479567128169463,0.34392031731009537,0.5671919648265181
3.699986,0.2634365683940553,0.16583102735492422,0.4380286696393493,-1.2616256712146339,-0.06451774691783592,1.4097640247601184,1.427972680046329,0.4674901432557905,0.35253399535304925,0.5624787477741151
3.799993,0.28018110360113435,0.19338480924459375,0.4379461189757085,-1.2386231925171132,-0.07336499416675434,1.4098155524857798,1.439619574722042,0.4707485649380274,0.3608538928372775,0.5579306147237978
3.9,0.2963252492194652,0.22063561000606816,0.43777535364664105,-1.2137737399186086,-0.0830179582931679,1.4098035706958418,1.4508956242107478,0.4739483570657216,0.3689355218329708,0.5541599807672482
3.99999,0.3128769772456726,0.24595551464085258,0.43687580429773937,-1.189010323209811,-0.09248539521560535,1.4097664181655194,1.4639167085446343,0.47665059941253174,0.3767274621050694,0.5511374659883946
4.09999,0.3291931071716419,0.2683008379387371,0.43639272812174845,-1.166301130686683,-0.10029975271384979,1.4097198226508734,1.475797309080145,0.478019142196745,0.38464389939126803,0.5485157317055169
4.199979,0.34522214773412235,0.2869342903699628,0.43519893456696157,-1.1481807084761988,-0.10826132710848943,1.409761110866603,1.4851487700315975,0.4783230012699087,0.39197464372875424,0.5455547401574852
4.299979,0.36078510940033404,0.30203122426081536,0.43346112466683945,-1.1384263582787213,-0.1132182386568148,1.411140020698789,1.4951449242321362,0.4775216452396407,0.3993249029274904,0.5411350787132091
4.399995,0.3752114452935988,0.31287898345641507,0.43095255490438567,-1.1362240196217654,-0.1157389595230942,1.4196585436413511,1.5081692857491378,0.4765170654972491,0.40687257507300817,0.535976331276863
4.5,0.38870673459897764,0.32097982856069845,0.4276967112629975,-1.1396992831815298,-0.11700207087300285,1.4338010850658505,1.5177954111579093,0.4757878790982754,0.41430326569069914,0.5307086413945037
4.599998,0.4006812873778587,0.3232406489577621,0.4235230809214782,-1.151565972341046,-0.11722040359344435,1.4513786521347736,1.5281735739076143,0.4739164236770162,0.4208452987516443,0.5251288350458725
4.699996,0.41240600877430644,0.32335098305069404,0.4198677379987688,-1.167690147651181,-0.11725151493574423,1.471064237875511,1.5403575058108254,0.47173379638537444,0.42769384796455845,0.5189744862737159
4.799983,0.42488149952451215,0.32421302317229894,0.41626898751107105,-1.1859571647232878,-0.1172650621488086,1.4923729874438774,1.553179624497578,0.46874212476123267,0.4351017347050883,0.5113790314598795
4.899991,0.4379712407415945,0.32622424039826287,0.41349998796844467,-1.2046102700146906,-0.11726940389689829,1.5129586814812668,1.5634167882126455,0.4654445232087909,0.44308375377026443,0.5030528408146473
4.999991,0.45186749022514383,0.33236971226115514,0.4110156667305273,-1.2187225573076965,-0.11728361093149574,1.5331772396236463,1.5748011117711742,0.4623333764733819,0.45163470549234186,0.49413148809812096
5.099996,0.4664316006927753,0.34143159072912227,0.40790946815565376,-1.2306597152456065,-0.1173335752945999,1.5507696552423567,1.5882384648990697,0.45972319943328466,0.4599923421347028,0.4842629707532723
5.199993,0.4820602102726783,0.3541238110567664,0.40326659169763873,-1.2350706535302327,-0.11879231403833412,1.5660075394088189,1.598048822776247,0.4579198206881405,0.46811043578260264,0.4758909111811972
5.29999,0.4989128408411728,0.3675016123698816,0.39638432124307277,-1.235049004671023,-0.12289160835283629,1.5772534062374899,1.6083948827551329,0.4570083225782171,0.4748883065804572,0.4676909235451882
5.399978,0.5168085880627076,0.38544979516840505,0.3892970361714718,-1.227482182747876,-0.13039479610205376,1.5834796121686676,1.6193851594270376,0.45698785039420337,0.482328714457675,0.4607403235881618
5.499995,0.535525152155696,0.4106503645652071,0.3824746841915139,-1.2062840243103683,-0.13671808922850642,1.5862360026308695,1.6297237967220524,0.45791682024199426,0.4911048936018409,0.45484992704060706
5.599996,0.5553972605391043,0.44030038162676993,0.3744263284025568,-1.1738303024109193,-0.14174251722373438,1.58618776201976,1.6367895241671742,0.46030859848539213,0.5003206134687961,0.45012691022422247
5.699991,0.57577028828467,0.47304882970734663,0.3625327938292783,-1.1327086552885668,-0.14502294201217517,1.5835065412212517,1.6425233781538986,0.4657693544271425,0.5077070708455901,0.4469453809128598
5.799996,0.5890239484916708,0.5094230713976784,0.3450928318519807,-1.0808428011353677,-0.14761854705070848,1.5744299533799362,1.6477119072580215,0.47848082981569984,0.5084014945092933,0.4452410308674436
5.899997,0.5902182068124612,0.5473487445364279,0.3206454130306077,-1.0211422823136609,-0.1518090272228979,1.5604548028267224,1.6493091531463522,0.49995012461469424,0.49976103576586745,0.443279475191425
5.99999,0.5865584774995969,0.5876624223174666,0.2980298313912666,-0.9609028874040915,-0.16449548145340184,1.5441706909383013,1.6500040350744698,0.5197635571763326,0.4908346756544619,0.44002682073173505
6.099992,0.5907591596595242,0.6299699724906794,0.2937384996745221,-0.9017213380110489,-0.176151436763474,1.5234069777871575,1.6506434082451564,0.5256476100321278,0.4941312225817516,0.4347183300233963
6.199977,0.6162450955271086,0.6742696378848667,0.2941460541573598,-0.8402535208516383,-0.18361252636651892,1.502764701532058,1.6524320282127747,0.5195627836085542,0.509896987195123,0.43019374649808184
6.299999,0.6595954690097475,0.7169980723436561,0.2938209608278818,-0.778222696567364,-0.18735707971061458,1.4828842432681715,1.655311296391705,0.503316421811146,0.5339007889079757,0.42584018726724304
6.399993,0.7133755331230877,0.7542876457956219,0.2913626379204993,-0.7245323716143077,-0.18745546492339416,1.4683328887359621,1.6588433660615056,0.48233253470779436,0.5594234628564148,0.421300486129227
6.499998,0.7582173752148728,0.7784385714427607,0.2875837584476911,-0.69655349192839,-0.18743266994237798,1.4642034901859577,1.6602004294574018,0.46452569659769694,0.578268002653567,0.41566167992569275
6.599978,0.7827016249849621,0.7882589765557066,0.2828724306852117,-0.6938200595275235,-0.18707773547515513,1.464947091558559,1.6607672655814512,0.45583528788826405,0.5862866397408234,0.40947079512065543
6.699977,0.7864156178807015,0.7883299669143197,0.2768575076019506,-0.7089615522750126,-0.18563078669995,1.4793233812537245,1.6619393108089433,0.45814241560027047,0.5868697305739993,0.40302937964758534
6.799977,0.7785812798415982,0.7796663055296575,0.2659763461650297,-0.7462206870154191,-0.1827021954088635,1.5062880186263894,1.6644673544988728,0.4651365922258322,0.5828457645324548,0.39272980204985863
6.899973,0.7678668513660509,0.7686865001212477,0.2547452830923272,-0.7956825826901271,-0.17862925847481456,1.5387526226380701,1.6705601299145614,0.47111171645661953,0.5782446327073577,0.3800032263774208
6.999985,0.7601262678625956,0.7552064789466911,0.247992362971675,-0.8491153001244175,-0.17410859863941938,1.5714968289882412,1.6803229158782758,0.47251151412796044,0.5761831717675778,0.36754116014271265
7.099983,0.757915607970029,0.742861947322829,0.24495730439874772,-0.8992981006501578,-0.17090003179942972,1.60434654273156,1.6902462373382618,0.4698458977775882,0.5772760533731472,0.3566615895304738
7.200001,0.758531959726793,0.7279796516040394,0.24471077748303013,-0.947675448482603,-0.16801337470645175,1.6359160768146168,1.6996265340258723,0.465236670833678,0.5792849578842283,0.34826738621241443
7.299994,0.7589689958315736,0.7141098195627495,0.24468134842137135,-0.9890732535902349,-0.16554892185995537,1.6649385757240442,1.7038941403576826,0.4615478291938882,0.5807691532103267,0.3421408093101209
7.399976,0.7589188715577574,0.700222395658071,0.24452752215594148,-1.0254047502504449,-0.16286418937158717,1.6913678016695843,1.7044842740777089,0.45859834216502554,0.5817763426229167,0.3379160580905961
7.499973,0.7587623546031887,0.689197208497941,0.24377979134466018,-1.0551030146441467,-0.16017517740805473,1.7153261145559946,1.7045985954347391,0.45656555642075414,0.5824367656951156,0.3342182397010109
7.6,0.7585083918539127,0.6799701340283593,0.24168382787290685,-1.079105797114942,-0.1570644850644952,1.7322520915043356,1.704611973515032,0.45548078455049795,0.5819017950847433,0.3309091964685542
7.699996,0.7577511533037955,0.6741519808248845,0.23776987809509562,-1.0984020764802107,-0.15330140300747203,1.7482691643171435,1.7046149477752939,0.45619269169457566,0.5811161396763848,0.32690490541783934
7.799996,0.7558760912116614,0.6725297596693662,0.23343040113804944,-1.1129901892054874,-0.1500419771570352,1.7612027122444827,1.7046064629761977,0.45792703960803527,0.578948440997079,0.3215191596737159
7.899997,0.7520616582765202,0.6721265285885493,0.22940512791977333,-1.1272676032361226,-0.1483168274137089,1.7707291939823182,1.7046162907461766,0.4605296568492996,0.575559803198961,0.31574298665789724
7.999992,0.7466541154262469,0.672068700845411,0.22656284310614996,-1.1385119155446728,-0.1472401543630631,1.7786575647520582,1.7046176368040709,0.46392460862374213,0.5721801697294633,0.3113503822662622
8.099994,0.7401816174974735,0.6720761478897579,0.2250907952746209,-1.1473473068761642,-0.14663200119984465,1.788319234321764,1.704612768590249,0.46773424327685736,0.5692223539118417,0.30822375845399347
8.199994,0.7335427480664741,0.6720682874375139,0.2247888980413584,-1.1532520378503612,-0.14634293301214543,1.7955364213463927,1.7046161906941912,0.4717101643893835,0.5663401129836079,0.306437769007302
8.299979,0.7215292743678298,0.6720618847854052,0.22436867285039658,-1.1571708805125034,-0.14514606333204896,1.802908865079724,1.7046160763161127,0.4807128212199102,0.5596962256374104,0.30503868767863573
8.399973,0.69764657115715,0.672151179137102,0.22073105982511373,-1.16286069210672,-0.14482493597306406,1.8114341529424969,1.7046206219142377,0.49778392213049377,0.5450033186038217,0.3023987949787529
8.499978,0.6638046751000142,0.6723944832137089,0.21371342814856562,-1.1701813375939605,-0.144910653752912,1.821066788973373,1.7046153186441158,0.519186337310204,0.5252348843189144,0.29894825965179944
8.599994,0.631881105571258,0.6729170101029904,0.21145468170476894,-1.1795835149325604,-0.14815077221228373,1.8327716537727423,1.7046169483121902,0.5339296054427248,0.51047808295258,0.2949090224737386
8.699991,0.6227902050075337,0.6729071660114901,0.21277925208588072,-1.189781046491736,-0.15461598714160885,1.8443724637846877,1.7046154260953037,0.5340829338450949,0.5107077554679301,0.29128123801318506
8.799993,0.6350039935543996,0.6730876278947979,0.22190537584791742,-1.201337202482175,-0.15615098437402503,1.8588164905825382,1.7046144995541135,0.5203023145874464,0.5253820334899367,0.2874673935666793
8.900001,0.6661757905655451,0.6748832999096804,0.2307286611478914,-1.2112154867387284,-0.15627482986346053,1.8765773511236796,1.7046093106593965,0.4984151508211588,0.5477969235467983,0.2833084042506252
8.999986,0.7065341182269832,0.6767694532077916,0.23501954019729934,-1.2239846233492555,-0.15615281596534397,1.8936531706261286,1.7046140790309783,0.4736654094757597,0.5695079261845843,0.2772183855403699
9.099984,0.7409767784395446,0.6805829500220066,0.23636572262083044,-1.236470163897011,-0.15496518096355588,1.9118993981232688,1.704612672409546,0.4546322554985354,0.5853726809447968,0.26997641875220946
9.199984,0.7603139321162177,0.6860780563501316,0.23543374612188042,-1.2480080070529473,-0.15290113547545292,1.9286261927564057,1.7046107742333751,0.44585345460296644,0.5922205845551358,0.2616514389544184
9.299996,0.7647576314843786,0.6938619848319723,0.23051399007775475,-1.2573288295217722,-0.1519758385033206,1.9459026330965496,1.7046125986644143,0.4478411961850568,0.5916781765091635,0.25272942549078814
9.399987,0.7638236659527373,0.7029794956606414,0.21682565369126347,-1.2632148902491942,-0.15114181469418334,1.961625270624347,1.704625930610246,0.4557015143002137,0.5862623001589525,0.2432912782318476
9.49999,0.762833867692955,0.7101066189801596,0.20053387808890577,-1.2738552570458823,-0.1488721778994339,1.9754094385393974,1.704636298465752,0.4620823992887788,0.5798926848973847,0.2332967234221609
9.599995,0.7625735604397116,0.7169267524779911,0.18922816997643344,-1.282576854578065,-0.14487799298987006,1.9895277720220328,1.704640019977398,0.4653989323362834,0.5768390056916787,0.2253475385409057
9.699993,0.7631065598216985,0.721807466020388,0.1834146705178145,-1.2893923153859068,-0.1411129880411342,2.001081355608532,1.7046512834660215,0.4664194729707578,0.5758737780799574,0.21987228641705586
9.799995,0.7638371836143024,0.7240541852958022,0.18093431677511312,-1.2971755848131514,-0.13938594206797758,2.0114729931731645,1.7046486823338098,0.4659935137575143,0.5754849784608543,0.2155537776108897
9.89999,0.7643099018539032,0.7250229562023949,0.17947402003269788,-1.304901123352797,-0.13802283548473593,2.021986230359488,1.7046485654795904,0.4658557389606591,0.5754664195330212,0.2124022891978296
9.999996,0.7643023178414953,0.7254540071999105,0.17802411936451187,-1.3106138772754372,-0.1369840038473734,2.0307127878875697,1.7046523985119613,0.46624185502153426,0.5751544503687052,0.21040236554221997
10.099994,0.7641065570830913,0.7254542094828736,0.17624514448899842,-1.3156092849774679,-0.13631252302023353,2.0379495299313315,1.7046513649317823,0.4668317029150098,0.5744850852702428,0.20843491380350287
10.199993,0.7633270118167582,0.7254785857477198,0.17438220524763068,-1.322334561062896,-0.13563260026557541,2.045023522976117,1.7046561517896643,0.46736348158814883,0.5729916536191094,0.20564597640530838
10.299979,0.761441154716791,0.725953459576707,0.17302617471239767,-1.3282461143880864,-0.13518529592683895,2.050558322460383,1.7046540521084386,0.468604221827085,0.5713358020856748,0.20310112631049074
10.399976,0.7584241525572119,0.7278681019018091,0.1718872643142228,-1.331251422625224,-0.1349668955595478,2.0578190578907503,1.7046568489396017,0.47119345151050784,0.5699359841811691,0.20091465755670126
10.499993,0.7543880805537503,0.7306759675044319,0.1706719648731031,-1.3327174642094444,-0.13493714770180346,2.0650935598794065,1.704655219271601,0.4744095832913375,0.5680141535011514,0.19875345670558714
10.599996,0.7503365910324034,0.7339207318325557,0.16929057156543945,-1.3333813254833777,-0.1349363980394395,2.0709459729987683,1.70465662219608,0.4775352620247189,0.5662482016949912,0.19635027370242697
10.699997,0.747714708283213,0.7394375312167903,0.16780024747860947,-1.3333493369767433,-0.1349400642871783,2.0781394213045306,1.7046527237602647,0.47968904758516834,0.5653112111956136,0.1922280630939795
10.799989,0.747323279295058,0.7484829734890043,0.16637286266764809,-1.3332196905051479,-0.1349394572409949,2.086245122616771,1.7046621460624956,0.48031248604890886,0.5653173487281181,0.18555595784078016
10.899994,0.7474807309274378,0.7622813026852279,0.1661621577698441,-1.332760522092989,-0.13495679971091415,2.0956004605719816,1.7046553777264488,0.47984661188895406,0.5655050736935947,0.17547817896043647
10.999997,0.7483126335623178,0.7789735802931754,0.1656567222915911,-1.3321572993824646,-0.13500755035904652,2.1066083402067557,1.7046567833838435,0.4791395237709038,0.5658926143874576,0.1644358913223556
11.099994,0.7512371559481102,0.7958949567731614,0.16316806833732314,-1.3320736670071618,-0.1350980302229806,2.1166071308008414,1.7046565476257558,0.47766653556359434,0.5660378896564876,0.15291620993031077
11.199996,0.7568668662991387,0.8105122262286655,0.15928188282711755,-1.3321143941198716,-0.135113221239492,2.1281360952174517,1.7046562978631572,0.4755900963516624,0.5675828323426447,0.14330445429871186
11.299991,0.7645430533855935,0.8225813524130291,0.1554502787793828,-1.3327099020491806,-0.1351134990733658,2.1429556471839266,1.7046484488913287,0.4728379506459021,0.570874879919476,0.13602706583226534
11.399995,0.7742021948485907,0.830058543724556,0.15191752838143865,-1.3353927458901407,-0.13510660619026227,2.158347504901891,1.704644889610741,0.46893685603678686,0.5750078562227913,0.13080776790262721
11.499992,0.7852875040189884,0.8327031436180606,0.14741018878503112,-1.3454596938721952,-0.1350890364867186,2.1769655536507933,1.7046527341851316,0.4633819431613222,0.57842249933521,0.12548714544310544
11.599985,0.7972066938145733,0.8327065691596793,0.14343042766318118,-1.363641348196548,-0.13488750984435055,2.1975484320381,1.7053688060093581,0.45559094226988217,0.5809841980116911,0.11840746612090935
11.699994,0.8097907191773192,0.832593728864778,0.13822068426533068,-1.3878468056364623,-0.13352983775005992,2.2210496362283925,1.7113611341968884,0.4466322935522273,0.5818122246302215,0.10863472803039995
11.799989,0.821469269294355,0.8320709978794135,0.13349989968792694,-1.4206131876838948,-0.12896873779095994,2.2455531092080316,1.7220311482447754,0.4353977600186637,0.5799687249490478,0.0958610646885276
11.899987,0.8321195096045455,0.8284140567201929,0.12825776444830955,-1.4631905174680302,-0.12518021599144968,2.272460187106071,1.733807192583182,0.42354826539410123,0.5750245584798527,0.08203298712209409
11.99999,0.8412954968660512,0.8189940668114365,0.1237193446302914,-1.5121372179736203,-0.1226027258893319,2.2996412780074826,1.7442430874710855,0.4115820383549612,0.5689484505088593,0.07127181480980045
12.099992,0.8498283424805063,0.8027082589545481,0.12037822088587337,-1.5619860668766428,-0.12047879720531322,2.3270957257702602,1.750559681614747,0.40074634543933807,0.56400735489753,0.06540476372115832
12.199991,0.8593813525720482,0.7806168894253489,0.11538188868578522,-1.6098432337340045,-0.11653719698197657,2.356566538683752,1.7565668350112902,0.3916632708476215,0.5603438384619089,0.06437563060984426
12.299989,0.870273897886445,0.754665360362096,0.10971021190846213,-1.6559311976356286,-0.11088994048977013,2.3857753668502886,1.7649741368548657,0.3830329281743073,0.5579648009281684,0.06622530102253812
12.399974,0.8819671917053784,0.7283202359804218,0.10409326889271475,-1.6993817771128872,-0.10588438476534205,2.4139512965210423,1.773399291687744,0.37462053050620625,0.5558014306661232,0.06839205052853325
12.499976,0.8937517316011518,0.7053018974323958,0.09876039701187729,-1.7405095409063498,-0.10043772318166087,2.440373444946269,1.7830048947426673,0.3655679823583171,0.5531214913331914,0.06904318601774392
12.599994,0.905410055327512,0.6876725494575185,0.09444206574523792,-1.7795483737779325,-0.09398310484898939,2.4646126741509353,1.7880870519757344,0.35594756988937276,0.5494938047728558,0.06660721438880528
12.699997,0.917992181414879,0.6744889115588483,0.08805716157337455,-1.8156291485002491,-0.08900686823255251,2.484649190508492,1.7903752662020138,0.3468169870740475,0.5446782874386091,0.062133665389369125
12.799992,0.9306151138309081,0.6675527512567987,0.08154481571914032,-1.846043045244438,-0.0827032483799735,2.5037868695833443,1.790640692619339,0.33841207177077043,0.5400208023594604,0.05628181152572216
12.899975,0.9436224208028191,0.66213432194796,0.07262970414094601,-1.8714728955511923,-0.07380649544844028,2.517554443128824,1.7907602989083549,0.33190715410187366,0.5356085304976774,0.05158336284127352
12.999997,0.9555369979793887,0.6583031113687702,0.06444721239700618,-1.8888820410382512,-0.06562830328734304,2.529204962915385,1.7908042459763927,0.32756564357355333,0.5336445453661881,0.048913464782299174
13.100001,0.9672593526808866,0.6550593072560081,0.05539674155124012,-1.899589172229588,-0.05674565383343053,2.5395251669110994,1.790801734338723,0.32509668442118284,0.5329148354352959,0.04805976453970036
13.199997,0.9772846636235629,0.6520730271694357,0.04763591294539953,-1.9054027305276957,-0.048673146237039513,2.5449616682403398,1.7908050036510497,0.3236057453195823,0.5333611809238641,0.04834126308510295
13.299991,0.9850075946495996,0.6512858445690942,0.04125618366587477,-1.9061144784386936,-0.04255725007101223,2.5487475239601944,1.790808886888034,0.3234666503640873,0.5341110411535914,0.04865431640549328
13.399996,0.99118105272936,0.6512838098624133,0.035275344685658,-1.906113787865719,-0.036931282006328336,2.5494707949992077,1.7908103007742635,0.32346873709643165,0.5341481636140867,0.04860609903018025
13.499999,0.995163746772618,0.6513041628008808,0.030609286711518517,-1.9053995363274707,-0.032738327808106024,2.5494402075769544,1.7908062900207695,0.3244268341583077,0.5343581125587747,0.049077884611012326
13.599993,0.9960384556229968,0.6513642297925082,0.027532896807643457,-1.9004908691943605,-0.030787766265156263,2.548018089325126,1.7908123447647302,0.32734763915292947,0.5357593437708751,0.05126985014019107
13.699979,0.9960100390155723,0.6513890869914704,0.02462183854167023,-1.8899398974253199,-0.0294176860510409,2.5436090629083257,1.7908128395088831,0.33117786254374393,0.5384232907064981,0.05496617497635106
13.799994,0.9958388449072476,0.6515569521257087,0.022319525307941894,-1.8745167132153653,-0.027857365447377064,2.5339068241964093,1.7908193392313347,0.33559256892855743,0.5424152566999227,0.0602144150488981
13.900001,0.995195089358159,0.6515330404829993,0.021383836021882447,-1.8593195408961125,-0.026593337547179144,2.526141611168315,1.7908177095632603,0.33907300136555085,0.5462948609804761,0.06481523648935258
13.999976,0.99488257178035,0.6515395575002331,0.02111695101898536,-1.8547252171143163,-0.025710494383373132,2.5257445776502805,1.7908199284724655,0.33965651049192613,0.5468493345522148,0.0654607550821488
14.099992,0.9948815023544575,0.6516077369181055,0.02109267749788085,-1.8548775401503423,-0.025562327216781096,2.5239868585732563,1.7908167942917963,0.33945837659243405,0.5465166885828049,0.0652773263328015
14.199995,0.994883108858675,0.6516112755812359,0.021089450078021044,-1.8548817411707215,-0.025509592106921903,2.523166853683202,1.7908152659377776,0.3393815453425039,0.5463821542800757,0.06520242364746463
14.299991,0.9948833161892897,0.6516133835399534,0.021076007042728252,-1.8548853079298986,-0.025480380325210262,2.5226847479847736,1.7908152651811065,0.3393466239839056,0.5463144300912096,0.06516505580519451
14.399989,0.9948833161892644,0.6516084804599793,0.0210749408334867,-1.854880489583226,-0.025467093265622118,2.522512692077921,1.7908188775435758,0.33933325133228665,0.546293721632405,0.06515589254028893
14.499983,0.9948732094349505,0.6516064835332972,0.021067826477672285,-1.854884317090086,-0.02545558693413744,2.5224193425878734,1.7908116018440432,0.33932964175599967,0.5462708415328164,0.06514577962202625
14.599981,0.9948796527640432,0.6516030589869207,0.02106819731434804,-1.8548881799158128,-0.02544360380553265,2.5223764166058005,1.7908173866353763,0.33933005653467274,0.546264730131757,0.06514617418609521
14.699973,0.9948749600509321,0.6516084828800215,0.021064178184341743,-1.8548843204653864,-0.025438052412677173,2.5223565855074757,1.7908148147099456,0.33932354692133443,0.54626096880779,0.06514063600723415
14.799995,0.9948776262166229,0.6516107424923697,0.021060024916398846,-1.8548843175259848,-0.02543789394018632,2.5223412866390795,1.790817952543819,0.3393272176435787,0.5462596268832136,0.06514180367206585
14.899995,0.994877522216864,0.6516113454613502,0.021058850677656976,-1.8548844234897977,-0.02543751928628171,2.5223328730358903,1.7908121835822315,0.3393230061511036,0.5462584828478453,0.06514021970361894
14.999997,0.9948793954925206,0.6516069285890381,0.021058960294774116,-1.8548843204693815,-0.025434016770924807,2.522327738324882,1.790815978124253,0.33932858607811295,0.5462557845769294,0.0651428641142473
15.099995,0.9948800946358661,0.6516073047649511,0.02105682771750644,-1.8548863972830494,-0.025428983542852935,2.5223223678498017,1.790815984748948,0.33932437122514236,0.546255250411642,0.06514094395297772
15.199977,0.9948760450070551,0.6516087392430403,0.021058609391518907,-1.8548843175260012,-0.02542770708615947,2.522321345014399,1.790809802514841,0.33932556809899633,0.5462569393079496,0.06514135573988304
15.299992,0.9948742580366171,0.6516125781434146,0.021054324980207286,-1.8548821904583406,-0.025426081448472918,2.5223182015639214,1.790812698202379,0.33932763386330456,0.5462535701909105,0.06514071889315932
15.399991,0.994878151037837,0.6516084844507378,0.021057599882841574,-1.8548881799319632,-0.025428444999942273,2.522317442492061,1.7908115975521928,0.33932494656345763,0.5462536285064998,0.06513865246075051
15.499994,0.994876672526532,0.651610971656679,0.021055417876383296,-1.8548843175259846,-0.025425556973106993,2.5223162045337206,1.7908183994207867,0.3393269668356728,0.546254820881476,0.06514213383340066
15.600008,0.9948749484554387,0.6516106276619497,0.021053623104339694,-1.8548843175259853,-0.025425243708260607,2.522311812631886,1.7908168512654068,0.3393269358371078,0.5462506911417685,0.0651362036384768
15.699997,0.9948747173748541,0.651608481943306,0.02105738608786333,-1.8548881799319634,-0.02542291450019049,2.522311050652915,1.7908161344643905,0.3393287671309842,0.5462512460053226,0.06514228177708761
15.799989,0.9948739196036379,0.6516047740094367,0.021052929431639777,-1.8548921176144955,-0.025422756658260805,2.522306415420974,1.7908152198601428,0.33932561631673075,0.5462473741374937,0.06513604131012303
15.899979,0.9948783759462777,0.6516069207521716,0.021050438926139697,-1.8548866474754362,-0.025425186624037834,2.5223068014810743,1.7908187080677491,0.33933125416149357,0.546247741285295,0.06514001225479304
15.999999,0.9948755644440208,0.6516105397675369,0.02105256690923585,-1.8548864002688266,-0.025420749532434804,2.5223047716880127,1.7908218336839146,0.3393281241707846,0.5462485847667321,0.0651381996422828
16.099995,0.9948738557987881,0.6516108656849637,0.02104865334630495,-1.8548889044944674,-0.025420299708764756,2.522302336636945,1.790816435210792,0.3393269267221303,0.546250290793063,0.06514150221388516
16.199982,0.9948755649767168,0.6516086006174584,0.021051507338633854,-1.8548907871979339,-0.02541827789372881,2.522300517873341,1.7908132563203305,0.33932623029274356,0.5462475154667106,0.06513721514477486
16.299976,0.9948789455521164,0.6516078822651254,0.021048201162280483,-1.8548872302925659,-0.025417254202333067,2.5222997602552284,1.7908161201087984,0.33932463999905493,0.5462452266174259,0.065134285704394
16.399983,0.9948067686770474,0.6516792741292339,0.021059248896346933,-1.8539030844648094,-0.025419635293766743,2.5189563276559364,1.790815858748489,0.3393097343617391,0.545896701501106,0.06533723685504571
16.499998,0.9934561672252907,0.6534964502140502,0.021090324347514334,-1.8424364867512757,-0.02541965443076009,2.5014711732739356,1.7908216831303503,0.34180343496399385,0.5470958412472477,0.06788633826106286
16.599992,0.9887754689349205,0.6553761566231427,0.02111068473839395,-1.8215436492644002,-0.025417981405216453,2.4824552283052466,1.7907622881294845,0.3483173141942663,0.5500180720231117,0.074056666690881
16.699994,0.9801915479802135,0.6554526825938295,0.02110824133002577,-1.7960982066778728,-0.025418521193371374,2.4606580499456583,1.7894543320944907,0.35773782441405033,0.5526427208956513,0.0824797743976511
16.799993,0.9684071217839061,0.6554540549029475,0.021407655173194078,-1.7694154245419282,-0.02541977573645347,2.438307169999562,1.7870597147558067,0.36844871360444564,0.5540962504718394,0.0911432891897703
16.899996,0.9552036369739197,0.6554843381479547,0.021566303262044575,-1.7426450490791443,-0.025425773910687073,2.4128217262540064,1.7841299907772608,0.37956458979156615,0.5541929015401243,0.09973754330998026
17.0,0.9419244313946264,0.6555382332353752,0.022248104862989122,-1.7155543557876411,-0.025445010400103392,2.3860415448535255,1.78051443199309,0.3898866844507689,0.5544021812341665,0.10869963104058664
17.099996,0.9304048089322197,0.6557594082866395,0.02297809220389218,-1.6861738660939443,-0.025458884908721863,2.358313865983911,1.7761397605363898,0.3998707974251783,0.5556610190038598,0.11868980052841022
17.199999,0.9208018306686852,0.6566166367092363,0.02384440837683248,-1.654807010726627,-0.0254702319094799,2.3304760621221168,1.7701084508327096,0.4086550784587258,0.558040155925343,0.12912697944892632
17.299992,0.9127200787518113,0.6587784113963863,0.026243678322196512,-1.622189982322653,-0.025481444136590512,2.3023178219994853,1.7635202495832405,0.4157114783063981,0.5609249803537645,0.13884968939153153
17.399979,0.906561458409699,0.6620380949686576,0.027590781922959665,-1.5898529496916618,-0.025475691199264707,2.2748254611074303,1.7587268380077168,0.42284936181916083,0.563357394855665,0.1481476715048772
17.499974,0.8952468230169085,0.6670495663913563,0.02756899045241352,-1.5569820049886964,-0.025475080451179466,2.2479396336929502,1.754103062826764,0.4351721902736541,0.5615392309674913,0.1563225765942105
17.599996,0.8689001469946223,0.6762945535233977,0.024915331948303476,-1.5220075749260054,-0.025455095804738353,2.2216501981157277,1.7481158510174057,0.45814944168548966,0.5503188121258388,0.16253465003524398
17.699994,0.8285107651676499,0.6851504461201705,0.018982376858447086,-1.4927747799807307,-0.026257555248350106,2.1966376665219496,1.7452805779756557,0.48686752109583603,0.529584687165642,0.1668062496236926
17.799981,0.7800454271477967,0.6918932077416455,0.018136932316501292,-1.4664902100550121,-0.033333975134583624,2.17106205893793,1.7450474648437706,0.5148052296055536,0.5066972199778665,0.1719546300313286
17.899981,0.7368015461858752,0.6978867647370437,0.02013203211419343,-1.4393659979852644,-0.04930625207093539,2.145715296244288,1.7450425744916345,0.5377992633740021,0.4874780620335406,0.17790576382603582
17.999997,0.7022394219436481,0.703884938906641,0.027914378408647838,-1.4129698307486969,-0.06490627106701877,2.1228525727666967,1.7450456717003766,0.5525989619706951,0.47518491073255037,0.18354140540398467
18.09998,0.6849276751607384,0.7067360965731212,0.04128372815188804,-1.3906758655992033,-0.08205851952558653,2.0984833135146532,1.7450469333179934,0.5544346485372412,0.4765633966426178,0.1906534066048661
18.199977,0.689292984755046,0.7078027026705463,0.07065057622057784,-1.3656726128211076,-0.09257724750090639,2.0755109648604892,1.745045531847005,0.5393139909317913,0.499074938909876,0.20073664595617374
18.299994,0.7125765034095813,0.7083962808414962,0.11029399240194207,-1.3384231707504108,-0.10102092567526536,2.054926093430802,1.7450389077608688,0.5112511254620246,0.5342182775634583,0.21264077136180792
18.399997,0.7595636111636813,0.7084794697487097,0.13954287821575304,-1.3126259072215085,-0.10537531065834016,2.035610758720654,1.745041634738793,0.47441851304729676,0.5718344505454769,0.22368602026669357
18.499993,0.8089623922313823,0.7085057871940815,0.16061522266519626,-1.2916525441547466,-0.10535379466171714,2.016522813015819,1.7450417757948564,0.4402514030101874,0.6007995441971207,0.23197516764451825
18.599977,0.8434079941340483,0.7085893369962192,0.16887624071927645,-1.2740053317017102,-0.10464316672718174,1.9963427742789739,1.7450391905404457,0.42129192038590135,0.6151017279635753,0.23858280090198403
18.699993,0.8549920112233577,0.7089795786218078,0.16866627315138563,-1.257024425918799,-0.10229359187717721,1.976577773759316,1.74504537675516,0.41999979936122633,0.6169053776712577,0.24455885498452273
18.800001,0.847820545190471,0.7093812618667271,0.16047032080375181,-1.238869713091616,-0.10068124133339845,1.9576095895761072,1.7449770750763771,0.4330152325235229,0.608891261080886,0.25069624497374204
18.899998,0.82582335190284,0.709396521119576,0.15220752337777776,-1.221514654526085,-0.09958189347008378,1.9399907341206593,1.7436437105835925,0.4532293298326862,0.595167748698043,0.25680612111273315
18.999985,0.7956561468734112,0.7094006950470861,0.14695825233439913,-1.2068803663885375,-0.09959034828345874,1.92323147018758,1.7413410253214296,0.4737701447377001,0.5790547223796461,0.2618032729438253
19.099987,0.7695617411240575,0.7093085547052433,0.1441488783506124,-1.1948342376512635,-0.09972983349462963,1.9059630420645286,1.7391167925968023,0.48815096825092524,0.5661380014281788,0.26547299665729596
19.199986,0.7551018211009983,0.7082541487112194,0.1439235758214618,-1.1876080879817192,-0.10020803771024545,1.8917400967256657,1.7372513622027586,0.49336787204777544,0.5595546839274972,0.26823137063335567
19.299994,0.7530143549224462,0.7039005226611516,0.1451471777794588,-1.1858800662648252,-0.10025393572388926,1.877118003557692,1.7348577126628495,0.49073248895370625,0.5585348280023364,0.27124427614273244
19.399994,0.7540477838813203,0.6981188989333456,0.15265844875511328,-1.1857249764431468,-0.10024132574036655,1.8645758213936683,1.7318525787017178,0.4855517174479263,0.56055513801353,0.27513806365859655
19.499982,0.7530217443111744,0.6916543322000148,0.1556271087540592,-1.1873451812374347,-0.10087521059372316,1.8560982623019384,1.7285437231432212,0.4849180576493632,0.5578953147268012,0.27738496384911093
19.599987,0.748844868701127,0.6854783192112486,0.1555363044301478,-1.2024841284001764,-0.10714749249931534,1.8487724318692915,1.7242873327056836,0.4839263849511073,0.5511468732942649,0.27162638918318205
19.699996,0.7441883978423156,0.6855451645303833,0.15550209916619462,-1.2260035904506408,-0.11113188210737278,1.8413168249477347,1.7231024616642256,0.4804511521779718,0.5427948181439418,0.2582340297349403
19.799996,0.7410337786617698,0.6869926899234539,0.1556832010192899,-1.2560375758833087,-0.11248722909295912,1.831882020120272,1.722585142019234,0.47423944823965625,0.534484936789332,0.2428224028868166
19.899995,0.7380957383265393,0.6906153418645292,0.15609678556275738,-1.2859597981421145,-0.11456083479518363,1.8269720659330897,1.7221958946667637,0.4687546891538466,0.5261345117464776,0.22603836256055865
19.999993,0.7336055051135263,0.7019749445108922,0.15750533740894854,-1.312868057082407,-0.11725747783770792,1.8229412098214322,1.7218993609011617,0.4628595145835488,0.5173870264303588,0.20514734971556303
20.100002,0.7270667069524669,0.7245176324274045,0.16257811046338944,-1.330259605968212,-0.11711863333424095,1.8145951315617814,1.7216230116215683,0.456534851780092,0.5102020332739998,0.18301079597523554
20.199973,0.7193298183423605,0.7481945712388482,0.1740838088565427,-1.3303260403346782,-0.11475485662838836,1.8037471803837744,1.7214127495273954,0.4504043453417501,0.5095062092956245,0.17113254997790678
20.299974,0.7106387779372076,0.7511175165230105,0.19350059288127103,-1.3210089684982254,-0.10871738330411575,1.7915858976920154,1.7213332835886335,0.4470206601797767,0.5152583415322347,0.17893571885406212
20.400002,0.700770115062994,0.7286380727262157,0.2140389969046057,-1.3148631157121287,-0.108731166739022,1.7853791328313813,1.7213149099093201,0.446799079610257,0.5206287413082465,0.2011414046158765
20.499972,0.6905884078951544,0.6825288647186855,0.2287717543002809,-1.314790881766512,-0.10876925549716934,1.7740813895643721,1.7213041795701916,0.4493383435831744,0.5228094931596263,0.2367684327318112
20.599995,0.6797043865832857,0.6177436612436596,0.23767182601295206,-1.3133816708937063,-0.10881085505513365,1.7612522779087043,1.7212963435732176,0.45430332344954943,0.522260220374172,0.2852705999259299
20.699997,0.6702473699184632,0.5404715622710935,0.24037135854013755,-1.3027526748922054,-0.10881219131354808,1.7468630331176755,1.7212626732607563,0.46046658647685285,0.5194074691473657,0.3445456786345056
20.799999,0.6629926584319903,0.4657585667915723,0.24046481217705495,-1.2764782989355863,-0.10880117548918851,1.7336028539027326,1.719251542477554,0.46479444689620014,0.5162311505368185,0.40554157347747166
20.899996,0.6597986219994639,0.4140945625522638,0.2405535893172622,-1.2401420290136398,-0.10877902934496685,1.7204866425539604,1.7084850637170843,0.46558381934725523,0.5136069142503613,0.4512073049157988
21.000002,0.6594466721682748,0.3879728192901867,0.2406368346432192,-1.2150921611170058,-0.1087305040342588,1.7035902560595058,1.6962165513532652,0.46390472520356446,0.5108956415423058,0.473042707113247
21.099998,0.6592742007411725,0.38831708576568913,0.24061233609175706,-1.1989366257166538,-0.10864199013375282,1.6824022895928255,1.689209721899477,0.4635409522996742,0.5087242937613448,0.4733851106750185
21.199984,0.6586919336847382,0.40968619733329015,0.24058135161988128,-1.186109975025373,-0.10860126379662671,1.6595749894425162,1.6834071389920635,0.4654260337553142,0.5078647062155518,0.46021674382428324
21.299993,0.6562012702527328,0.44314202757424104,0.2404946080199876,-1.1718663936870395,-0.10858843122881003,1.6373450783311971,1.6786108181597943,0.46910852578469187,0.50581135641975,0.4407418612085998
21.400002,0.6495731469731691,0.47100047726247574,0.24017967514196037,-1.1658880837626966,-0.10859397059759113,1.6156005971027139,1.6696405803826275,0.47282204940063377,0.500486130754164,0.4247661031326672
21.499996,0.6403404253653062,0.483478397690508,0.2392984913475331,-1.1613459843506189,-0.10860090243858941,1.5945346586965023,1.6599680800949608,0.47638949940642394,0.4932162349249428,0.42044410759965123
21.599998,0.6304413320227639,0.4810752981209435,0.23913516282445568,-1.1503427495064191,-0.10859555607030719,1.5791012028078686,1.6542935483236916,0.48055112633413777,0.48711826653751555,0.4288310881610867
21.699996,0.6206401252478372,0.4664635075785344,0.23916331370576652,-1.1418414383662647,-0.10819258489959566,1.5684127429587675,1.648705792920746,0.4829489494849132,0.48008142587935715,0.44229241104795186
21.799986,0.6106775506903123,0.4413583553747252,0.23920185850700182,-1.1421020484831597,-0.10507374075105652,1.5573430370809307,1.6425853408122253,0.48278583198388686,0.47241940481980843,0.4587611077059024
21.899997,0.6012642861699082,0.4105373293787497,0.23972492352247135,-1.1488879070881415,-0.09906438141014745,1.5509557822643014,1.6348837040421713,0.48037044059415424,0.4653539512351061,0.4754727737216648
21.999989,0.5928908944018315,0.3781756232651355,0.239821692331224,-1.1617710855526537,-0.0920267681707751,1.5454250886206353,1.6231049906632014,0.4766066498799056,0.45793636484343486,0.48962819964074417
22.099974,0.5852658062388301,0.3472311940885014,0.23981709211172245,-1.1802953783453587,-0.08599396853632782,1.5382367308018863,1.6133591852341,0.4721719447262536,0.45066650603657166,0.499088718000354
22.199997,0.5780676238655685,0.3216035525026672,0.23984789253444763,-1.1997292326080349,-0.07939226849893176,1.5314791320014558,1.6052126515878353,0.4680142620704457,0.4439232162316855,0.5045699551296153
22.299974,0.5700491430950423,0.30085508093555713,0.23976132888406818,-1.2182391561655876,-0.0730669950574318,1.5220592575453282,1.597625751254657,0.46479499273892216,0.436508558204063,0.5078796618759297
22.400003,0.5609972036547692,0.2822921896286071,0.2389101052235685,-1.2331637216449365,-0.06858607483486868,1.5116845906814456,1.5854277556417684,0.4631956714108294,0.4288757177052298,0.5117116764693707
22.499976,0.5516185354071905,0.26682684589959055,0.23785520963317044,-1.2406013486776273,-0.06375131171656967,1.5007054976330723,1.5773894667925736,0.4620812466518961,0.4210487870100538,0.5174317953046991
22.599983,0.5422385179855677,0.25179313412281207,0.23692432725010976,-1.2429157016290857,-0.0610722251425356,1.48598058515549,1.5704987404213422,0.4612845858003647,0.4130381797404856,0.5244394145655428
22.699993,0.5340334891235344,0.23892111262013,0.23553901628083068,-1.239402946906114,-0.059019600495166295,1.4691862896693326,1.5637335920457696,0.4606337716005288,0.4058888213972127,0.5329031337609096
22.800002,0.5281690026517989,0.23386778172336936,0.23518540064657892,-1.2212332559874874,-0.058618714380468624,1.4489206987571523,1.5567020254317079,0.46062009390217756,0.4009621454302366,0.5427381967197009
22.899998,0.524048198440054,0.23410524774779967,0.23510910363761905,-1.1941046463704517,-0.05859958729090048,1.4258041957566745,1.5467482799726455,0.46066866420045477,0.39672726809035647,0.5532449708149173
22.999994,0.5211693924925598,0.23776379435240264,0.23479994403071197,-1.1577749418109933,-0.0586006321637169,1.398170605899081,1.540978958688067,0.46094008094055827,0.3930077642836537,0.5657641953132284
23.09999,0.5198633690819096,0.24765373233606885,0.23435630924225243,-1.1103188677536977,-0.05871466871431073,1.3693680121389462,1.5367486340389145,0.4618748587048139,0.39028305971358324,0.5784098339887171
23.199996,0.5196704890659409,0.26404188421838115,0.23389668829506086,-1.05595524848056,-0.059612407735029564,1.3383120516289337,1.53415955681887,0.4638243303767234,0.38799144904960176,0.5889304292136758
23.299989,0.5196563227907073,0.28689564492790137,0.23341110310815913,-0.9991577414332751,-0.0624058899605865,1.3050533215248312,1.5300966754892642,0.46683733355244417,0.3852037828532243,0.5962395108691667
23.399979,0.5196224794801331,0.31496210318790835,0.23253726617830905,-0.939941434773861,-0.06788369858927516,1.2698561591826423,1.52508616737504,0.4709269439021377,0.3818684162253379,0.6010647333671711
23.499976,0.5196412938173296,0.3464091497710104,0.23165224359872627,-0.8792510663579318,-0.07579483743119253,1.2339088932819307,1.5191127196452847,0.47528264028910283,0.3780437019205322,0.604883133024691
23.599994,0.5196300936277111,0.3768008374607427,0.23124375739791414,-0.8196799442018226,-0.08350441658585621,1.197974765478196,1.5093310120273622,0.4787428460421012,0.3739927443920456,0.6084599181211674
23.699994,0.5196378917439091,0.4030470614902293,0.23095492548657864,-0.7637329036985818,-0.08983976986691497,1.1633447825488685,1.5019077333330804,0.48062281120526923,0.36956580749670986,0.6126301192596435
23.799995,0.5191781773949161,0.41741876518899396,0.23024079444977247,-0.7243666377524293,-0.09243055810418423,1.1369997524264017,1.4971410121183055,0.4800588623408084,0.36535230389503565,0.6174051019013672
23.899977,0.516410288585111,0.41608063032983444,0.22992948800727456,-0.7125848441122578,-0.09258527247300359,1.1205298938023867,1.4899443789760942,0.47830614572642294,0.36094696638011237,0.621301709861678
23.999977,0.5094149497255226,0.4063148119000579,0.22994530812177766,-0.7186026938427438,-0.09240573468082347,1.1164377256553941,1.4805775455380974,0.4776669186197995,0.35515446344085394,0.6239509837656327
24.099995,0.49448797664248434,0.3805445425781712,0.22995578604333777,-0.7540158446468743,-0.08997874170761111,1.1169390154621641,1.4682841168426137,0.47580178941386936,0.34569218776857474,0.6250619896510705
24.199991,0.473868432440712,0.34536546300344867,0.2299113064103575,-0.8020497931010087,-0.08402112984526769,1.1219706046464248,1.4579267936720526,0.4736459370356762,0.3346549504742988,0.6270989925748317
24.29999,0.4517287291003364,0.30646841564191857,0.22976962534478504,-0.8520977180383834,-0.07559725795018712,1.13125402657528,1.4474800663910314,0.471339303914111,0.3238345203689882,0.6303146561502828
24.39998,0.43110920919270024,0.2668360669655563,0.22958465350372423,-0.9003327118958983,-0.06679100345831658,1.1445592964553757,1.4350862140083411,0.4679226729607964,0.3140937902039816,0.6347308322100818
24.499982,0.4133700512308668,0.22830386038475536,0.22910550850565664,-0.9460176861683823,-0.05755418353189031,1.1587413772514608,1.4226619579494981,0.46428528942198355,0.3060788206543994,0.6384773971541826
24.599992,0.39868225588956446,0.19397291073163278,0.2278526238818765,-0.987226925890796,-0.04972090135769396,1.1717514746630133,1.4121664218513585,0.4604394282548054,0.298837381941687,0.6413332154074157
24.7,0.385852537869502,0.16435243021090978,0.22682010619539714,-1.024636563694233,-0.042862210897119814,1.1825663485053963,1.400112417906991,0.45755284595437545,0.2925229684970011,0.6423630032710494
24.799978,0.37497603080901015,0.1415403665191803,0.22401510296104585,-1.0566485809489075,-0.0378419507143249,1.1927584486716547,1.3851665066212928,0.45668669233900233,0.2865332072085883,0.6416830112633942
24.899976,0.36526987328714383,0.1252840082506031,0.2204752148897871,-1.0821108779282933,-0.033881583744740665,1.2022569334446624,1.3735097877365368,0.4573893490327102,0.28128981236249095,0.6399177486488219
24.999997,0.35681551900184183,0.11629503112022123,0.2158176902648751,-1.1019485929738304,-0.031308068292953545,1.2100027168368517,1.3634348125985989,0.4597306066520449,0.2762012970844555,0.636835482805766
25.099988,0.3497827925567777,0.1097751422449426,0.21031221895602703,-1.1200259635487262,-0.02943699177303216,1.2187403567515336,1.3520122058584132,0.46250776700247476,0.27149433538728923,0.6332561482011103
25.199996,0.3440185070975211,0.10674436586248799,0.20557665717567156,-1.1341969808418926,-0.02784025606293983,1.2270303415654231,1.3428470415657683,0.46566009175619577,0.2681442921898695,0.6294731579183586
25.29998,0.33824422030041135,0.10382337639914906,0.20248157430177643,-1.1496453277728929,-0.026858681085238853,1.238545897798649,1.3358626312251407,0.4689633886784402,0.26538040122728684,0.6253632971791322
25.40001,0.33310144163982364,0.10051201956256636,0.1995329518106877,-1.1657020076221773,-0.025988072077889363,1.249902847974395,1.3278622059931788,0.47168376510003046,0.2627499043696835,0.6212176817861406
25.499998,0.32865507140108874,0.09671099654647981,0.19644849588066599,-1.1831589469777728,-0.0249624644425208,1.2621548795618855,1.3193747123034276,0.47440950922563374,0.2604666438583812,0.6166505487010993
25.599994,0.32490792512466543,0.09047823428914198,0.19204024141367618,-1.2062351355177374,-0.023338699080358218,1.2783630764663778,1.3092493940484486,0.4768191254393703,0.2578679185932544,0.611282658959001
25.699994,0.32102180974707617,0.0792368446036286,0.1863021863682534,-1.2354094774776285,-0.02020490017733697,1.2954982916701985,1.3011848374218107,0.47803894622007526,0.25424563897763075,0.6062056177003097
25.799981,0.31634495975502747,0.06539038221824098,0.17988932308394343,-1.2683536458215543,-0.01693566187517033,1.3155173238480626,1.2928661591978352,0.4793977511750565,0.24984997619222588,0.6007919647848547
25.899981,0.3103505485681482,0.046123533775894836,0.1731186499293485,-1.3086484658776631,-0.013792430388934698,1.3386939877075916,1.282020620540687,0.4797481472727628,0.24421150747983836,0.5945920150140425
25.999978,0.3046598860478774,0.023036648189933343,0.16521906436488126,-1.3555236696252941,-0.010142431010358933,1.3636184707613672,1.2683692527850345,0.4790578459736509,0.23800245040447202,0.5877924635480241
26.099991,0.30079827275722004,-0.0031824504972513155,0.15560320625472,-1.4073684114369192,-0.006258194164614267,1.389521276925418,1.2575016484816832,0.4773991140661578,0.23136975796868953,0.5804417295217105
26.199993,0.29804429820152367,-0.03150715116465467,0.14488079862942332,-1.4622607065358906,-0.0032610330730096625,1.417173094640983,1.2450530239240816,0.4750238527842662,0.22400323635638048,0.5727021049291219
26.299996,0.2963479065116615,-0.060430883240576,0.1331793440786573,-1.5178058358215718,-0.000241943086659422,1.4442698981731372,1.2292684457868148,0.472224633773187,0.21642661873208077,0.5648952915704648
26.399998,0.2953371225404136,-0.08897908027644215,0.12038849419675432,-1.572160234403602,0.001979911774077968,1.4702860568282348,1.2155779611641915,0.46939854098510686,0.2080244315740746,0.5572012253355471
26.499979,0.2948224967687089,-0.11644139104477595,0.10683300255598517,-1.6242564499528387,0.003018038028622666,1.4961557433993449,1.2011892152349837,0.46649414124347494,0.19936102557009586,0.5494107271654547
26.599985,0.294595655536559,-0.1421804660494843,0.09286692342462735,-1.6732132587502149,0.0035621312345001876,1.5200769528033333,1.1862634932626115,0.46410644203631085,0.19052082938687825,0.5416818972605372
26.699997,0.29452537276821994,-0.16510816023745428,0.07893798958106091,-1.7176126510363428,0.003645134522187696,1.5414460362702587,1.1743250363444973,0.46195453370416256,0.18200558181909934,0.5341110072352084
26.799976,0.29450231922617026,-0.18468272303646258,0.06522801205772867,-1.7572212945765577,0.003649251242924244,1.562066149111284,1.1609049580667674,0.46040328004234904,0.17387505071310624,0.5274390271912892
26.899978,0.2945030278649557,-0.19927299591775344,0.05270062430513857,-1.789779169667428,0.003651132570591777,1.5788747768118745,1.148001043224972,0.4594270020812035,0.16677102332770402,0.5210847872995551
26.99999,0.2944932908904338,-0.21051830611865707,0.041035487839056604,-1.8161290232899534,0.0036491232290686445,1.5951273429498385,1.1383555606569662,0.4595814679561847,0.16056878207963166,0.515744052061765
27.099976,0.2945015512586311,-0.2162983573579751,0.03052360034407071,-1.8347719548899806,0.0036449790333630255,1.6071218622108159,1.1282370830526676,0.4605388149144264,0.15535100449261652,0.5110401205490034
27.199993,0.294493185947836,-0.21725794574844895,0.020796870363590497,-1.8467641859968214,0.003594343160744347,1.617703624856353,1.1170354165491596,0.4624197035576385,0.15077731448392154,0.5067147802321047
27.299999,0.2944922293830756,-0.21722877373301688,0.01192301720073999,-1.8569368054670716,0.003461900807962425,1.6271458754769246,1.1080520990582214,0.46435607431232095,0.14676571070462802,0.5031838947919759
27.399992,0.2944930550060719,-0.21720179138596618,0.004138861067149092,-1.8617800383698633,0.0032054059717047004,1.6355958753123097,1.1020654995353207,0.46665523522353886,0.14330225287198559,0.5022619675746027
27.499986,0.294496905018947,-0.2172056280024801,-0.0034434005267127976,-1.8636079753725028,0.0027859018692509255,1.6431875331117858,1.0952791417936085,0.46899182889206575,0.1398809751701852,0.5019785991608989
27.59999,0.2944948421955103,-0.2168879528358832,-0.010476277666856961,-1.8662755960683404,0.002063499181020084,1.6507909300190282,1.0890877439803452,0.47118479137856345,0.13668287063224724,0.5009645874127593
27.700035,0.2944985971506878,-0.2157538894260719,-0.0167775395045341,-1.870215451221651,0.0015464633999528476,1.657803058936438,1.0814257607393516,0.473094975903304,0.13388397308903718,0.49881766147066137
27.79999,0.29449724079710754,-0.21407433164574022,-0.02271554572837445,-1.8761978382473667,0.000953639762749009,1.6677628968263356,1.0742903429389508,0.475442600918066,0.1312129489846237,0.495783338833394
27.900007,0.2944961843370101,-0.21270395819439517,-0.028511619955203005,-1.8847233948821454,0.0002693242384931172,1.6783582177255336,1.0698446300516289,0.4769328314872179,0.12846043012549427,0.4916216848780418
27.999939,0.2944903484096825,-0.2125339287764367,-0.03390808120297117,-1.8972291424303356,-0.0004716066963422734,1.6904399109429662,1.0664775084208507,0.4779628510568182,0.1258167069329315,0.48602618488794247
28.099981,0.29449689630639364,-0.21253499382939034,-0.03861568932372334,-1.915684380488376,-0.001605072160016592,1.7048382162920916,1.0639784360250346,0.47838693069423105,0.12336592788795755,0.47785986410214376
28.199948,0.294499612679775,-0.21359767800866497,-0.04306845563372396,-1.9399872547741435,-0.0026803406792120493,1.7226191558755948,1.0611545754635752,0.4777038050130865,0.1206453575080024,0.4677560297254335
28.299982,0.2944951925699084,-0.21625662945330587,-0.047970521477685976,-1.9688432853672018,-0.004039578941233853,1.7402050961176234,1.0558581423910718,0.47607284551789075,0.1174345776370798,0.45662790336664155
28.399991,0.29449566218127776,-0.2209228140331045,-0.05281665479199792,-1.9999369706351648,-0.005424672164673696,1.7608053585292711,1.0518345424960085,0.47384273798152216,0.11433783651299159,0.4459770003832253
28.49999,0.29449466127505997,-0.23033455539589195,-0.057028133340810507,-2.0324531457858854,-0.006422294665235347,1.7809662229282142,1.0486636505864313,0.4705595126597503,0.11144825972255477,0.43741626313500553
28.599994,0.29449837858388267,-0.24288632835082488,-0.06018401272788494,-2.0635417782443777,-0.007884220268495652,1.802804791660908,1.0460738031084933,0.46750476642198596,0.1091237415347531,0.4306607711982656
28.699991,0.2944963747563122,-0.2544857425917742,-0.06246602950932429,-2.0911997225658463,-0.009023901599176237,1.824033045175275,1.042892961739896,0.46502861522022815,0.10745663106697857,0.4250309739720505
28.799933,0.29449847282839686,-0.2646162208921121,-0.06423012185788377,-2.1175873703540007,-0.009726759736946566,1.8451315142663542,1.0414168445867509,0.4625918775316714,0.10604228737604518,0.41864757425269516
28.899987,0.2944953873265235,-0.26970306602938293,-0.06571135300966294,-2.1414306183454657,-0.010454835076801299,1.8648862332977498,1.041058404164206,0.461085883600581,0.10502890089373246,0.41107485601676547
28.999974,0.2944966868333985,-0.2700555811998601,-0.06689616181227233,-2.1623891770959163,-0.010949258874289422,1.8829576608184166,1.0409811657310715,0.4596803611304803,0.1043106755531504,0.4028362206940978
29.099989,0.2944971232019739,-0.2699793218214365,-0.06757247587262985,-2.180266616610003,-0.011198276818234768,1.8970761845798028,1.0409742246241782,0.45849553287553313,0.10389227617607062,0.39634148110029915
29.199932,0.29451079313090406,-0.26975894831328184,-0.06765360010791666,-2.1908889211048823,-0.011243446248866069,1.911631775213713,1.040968813066407,0.459105025440479,0.10410511184295125,0.39326669321457175
29.299979,0.29452161327720444,-0.26806604306268417,-0.0676541892150497,-2.1939981631469228,-0.011246018690679682,1.9226144685948523,1.040968515959197,0.46104195803983133,0.10459513951491964,0.392394953451883
29.39999,0.29458182324614307,-0.2644335011024723,-0.0676180829204082,-2.194000052925159,-0.01124416748161024,1.9322167278367823,1.040967624010106,0.46310405140974525,0.1051393063802858,0.3911175744960338
29.500023,0.29470706765723803,-0.256783433933852,-0.06743292840996755,-2.193917774589881,-0.011240315651457557,1.9418735635447324,1.0409652538397645,0.46565326037801924,0.10599574423170338,0.3877604992077224
29.599923,0.29496908182757126,-0.24442902130899283,-0.06658347627247464,-2.1927082057856384,-0.011232863277078849,1.9501385312608228,1.0409677603352165,0.4681981380972786,0.10729115304966462,0.3829633490889767
29.699994,0.29548900849679516,-0.2288977054764428,-0.06490064587524208,-2.1905054164138176,-0.011210768714718398,1.9566033549128274,1.0409694982344357,0.47040985980743083,0.10908830721281826,0.3768340897972191
29.799986,0.2961708760090936,-0.2148031024129974,-0.06253805779942485,-2.18816147795111,-0.011170533861153914,1.9630915499378478,1.0409576320425873,0.4728128917591447,0.11127456922521073,0.372286963274221
29.899927,0.29649894866873494,-0.20299261723937956,-0.05958092740400687,-2.18566071294488,-0.011075121989340679,1.9704651186171074,1.040963443472541,0.4748697295883278,0.11344130057959391,0.36862591871237405
29.999992,0.29658558975333316,-0.1956738203053811,-0.0568332064537399,-2.185404302146758,-0.010978896725750767,1.9804881178877776,1.0409589380466742,0.477163868872388,0.11535838678994291,0.36637425642279037
30.1,0.2966058639106085,-0.18929244512187193,-0.05509182760870799,-2.185508893750985,-0.010888509433839571,1.9925013885450982,1.0409595478209057,0.4794389066243675,0.11662100551774383,0.364105264925993
30.200033,0.29660188219095024,-0.1846855460073407,-0.05473403697614203,-2.189426530228503,-0.010843766678896666,2.0070630657437682,1.0409611706362467,0.48097830210522596,0.11713607708487891,0.36093082974200846
30.299932,0.29659585531666893,-0.1834421332769777,-0.054736491763597746,-2.20061020755604,-0.010833293350851123,2.024544762489986,1.0409595471688908,0.48098473224285676,0.11720820302023423,0.3561748912533218
30.399995,0.2965945429055122,-0.18332004951058534,-0.05478612219277375,-2.2171850405793867,-0.010830505406964699,2.0434948307882967,1.0409625714404995,0.4794080620115314,0.11686288553527123,0.34925869095057793
30.499946,0.2965898815572194,-0.18278973461608877,-0.055255852079122696,-2.238645036300919,-0.01082940434343175,2.0639502382567643,1.0409654874809529,0.47700063343285776,0.11606064284752467,0.3404235650974967
30.600017,0.2965682373108129,-0.18210861966370262,-0.05640820424942301,-2.262309821209102,-0.010831203878080165,2.084816037001752,1.0409667690759405,0.47386248966847877,0.1147875783133464,0.3308192072558486
30.699996,0.29655669863477424,-0.18170661365599258,-0.05808822571396348,-2.286581098529165,-0.010834246748143723,2.107511831659574,1.0409696857624158,0.47094671860756065,0.1132750005179124,0.32155498772115654
30.8,0.29652848484194205,-0.1816305581812646,-0.060873217965966224,-2.3098680220302548,-0.010842850699489119,2.1293274197402328,1.0409710902813227,0.46812336498702944,0.11119318432192118,0.3129176428969701
30.900023,0.29624141892077194,-0.18158235823189142,-0.06449434585810696,-2.3323656294646486,-0.010850133406453431,2.152263437423367,1.0409592763951339,0.4655818848289396,0.10878350228007715,0.3047814833329029
31.000015,0.29621903183772075,-0.18148324939198568,-0.06856032159606688,-2.352811949548791,-0.010851994377834276,2.173377183151441,1.0409485257385012,0.4632872988933983,0.10641866163080022,0.2973883358437418
31.099989,0.29621760373599937,-0.18094233750959987,-0.07253936021011725,-2.3713870167531494,-0.010858252167208964,2.1938642869782714,1.040930922419325,0.4613480236085461,0.10432291349445504,0.2908698496924226
31.199932,0.29621016582154513,-0.17947894391197095,-0.07544938117225503,-2.3864979989929593,-0.010861408994082255,2.2105861389772112,1.0409215210362444,0.4599004170502658,0.10292301572934867,0.2852361854836599
31.300011,0.2962167056687367,-0.1765822813049512,-0.07668713368493134,-2.3975395669069,-0.010863344455921072,2.22716507959279,1.040916008128527,0.4591072188878954,0.10245202578083965,0.2805574039857579
31.400066,0.29623636422853095,-0.17284570291177156,-0.07672939626213524,-2.405450586363259,-0.010862274843314665,2.2389236483251946,1.0409148992241966,0.45873965445448767,0.10241571378821683,0.27654399229873106
31.500006,0.2962691905844709,-0.16541293738492935,-0.0767087096017121,-2.407921047710871,-0.010859760025383507,2.249072383370581,1.0409146073242497,0.4598355331672207,0.10269466438648735,0.2728542726964861
31.599923,0.29637712520334264,-0.15536888593407702,-0.07633512815647275,-2.4086181463613885,-0.01085809942062198,2.2599001901730804,1.0409132065199724,0.4609315860972503,0.10323337907721607,0.2686994476575991
31.699923,0.2967034576162825,-0.14590093753503078,-0.07514966321941058,-2.408692106137401,-0.010852168835825111,2.2669322200319213,1.0409170596440065,0.4615374952637074,0.10420291327737709,0.2650406522293856
31.799957,0.2972582453170909,-0.13652994258059414,-0.0730489051236053,-2.4083590344574843,-0.010847456396219774,2.2731700740418894,1.0409112817387953,0.4620491796082137,0.105713681950759,0.26102575112375664
31.899927,0.2988609686730041,-0.12313028023729276,-0.07080013679542106,-2.4059106578641094,-0.010835456712969227,2.2795413633885544,1.0409121530889232,0.4632687719264421,0.10786675559141927,0.2562777160912981
31.999993,0.30106612207021777,-0.10690179658131774,-0.06858203935435651,-2.3989655801354153,-0.010807602859024455,2.285804404582087,1.0409116982086803,0.4661546833906262,0.11055420735258577,0.25212773156025525
32.10003,0.30307283499438137,-0.08710679314928835,-0.06690484354085578,-2.3884215207969226,-0.010289734649992,2.2950295161610326,1.0409047720428215,0.4707429970236978,0.11325322863518877,0.2483302032501428
32.199936,0.3041069135028378,-0.06547710761416761,-0.06565566818078952,-2.375180638673784,-0.009430500966373934,2.3050286934711504,1.040909880934518,0.47597795686420613,0.11538703392805764,0.24420650482961853
32.300024,0.3042972103687975,-0.041847326059263036,-0.06527852850509538,-2.3612054789212946,-0.00806928842248568,2.315641870625781,1.0409066408810999,0.48196440423709314,0.11693018875656008,0.2391763218211887
32.399983,0.3042931879632081,-0.014372577309664708,-0.06526498405037222,-2.3452124886788233,-0.006295239769902057,2.3280504647039058,1.040910182248364,0.4885519176267109,0.11855582535635706,0.23307207883057063
32.500129,0.30416268512457273,0.01698525229209573,-0.0653319501714944,-2.3276021065016517,-0.004225378182465504,2.3431499300822414,1.040912986034574,0.49563366038926887,0.12013971983920643,0.22575217854984908
32.599991,0.30371528272791054,0.05055561752045407,-0.06537969445167409,-2.3094255817153013,-0.001504951836297001,2.3568492532003273,1.040906804395616,0.5023276876310797,0.12135177249754643,0.21685527778225866
32.699944,0.302600179435177,0.08716834701294841,-0.06540462288804232,-2.288796792693849,0.001011451682573179,2.3703309257286547,1.0383306534380983,0.5101299579986095,0.12280479321411254,0.20767996137502837
32.800012,0.30268877078196016,0.12667956593093332,-0.06433189491157945,-2.264072831207714,0.0030582590199058424,2.385073971687358,1.0276614077824808,0.5181737867854406,0.12582286621745623,0.19793827399495822
32.899927,0.3028047505093746,0.16668104963175673,-0.060037513323573356,-2.239525004726644,0.005906631548563131,2.397589731871562,1.0145897344989152,0.5250542615873725,0.13032237283241488,0.18792746711490485
32.999986,0.3029532378854035,0.203793991631435,-0.05463512531735634,-2.2156476270916268,0.008297172498754243,2.408414340905094,1.00111652665808,0.5314559486446366,0.13519327233767986,0.17844118057139938
33.099927,0.3032030134061516,0.2379642204653262,-0.05054031374916382,-2.1927960555779147,0.01222356002592355,2.4193877924452307,0.9893433135749423,0.5376132936831617,0.13903173282540032,0.16988236884691382
33.199996,0.3036558931186376,0.2688346109905789,-0.048215376442141335,-2.168971572806447,0.01685361875289652,2.4263803629986143,0.9803356608136966,0.5441644700681629,0.1429087202805378,0.16347792037059247
33.300031,0.3069149312090708,0.29487378735445824,-0.046520510498340086,-2.1461202800689385,0.021316285031507336,2.4323848452657013,0.9709402044161071,0.5502955082260252,0.1482075086005648,0.15879657446961254
33.400048,0.3142421081817357,0.31963434635221083,-0.04604142853646533,-2.123878020352169,0.023944473468063755,2.437915626395299,0.9590407308769481,0.5547067685052952,0.15368257944495922,0.15363206443178906
33.499926,0.31091451968741146,0.3331988608542965,-0.04910361393876673,-2.1185954733289036,0.03275707240802064,2.440370905853004,0.9498990000491074,0.5562707919676303,0.14561011301446733,0.14874912961301728
33.600032,0.2877112836037285,0.3419320487148999,-0.061671230597707245,-2.11295466525174,0.03529062657390971,2.440486608182376,0.9448108797260472,0.564185463449615,0.12253972385533582,0.14682529228162933
33.700055,0.25160151452730745,0.3524097289041338,-0.07489066763761314,-2.098736599922922,0.035470833924287785,2.4421740357973913,0.9385765897455008,0.5749709857938438,0.09505810199595513,0.14727283748148978
33.800016,0.2181351107419798,0.3611163891439063,-0.08312484511337169,-2.08592360838107,0.035482575423961354,2.4459281213873196,0.9343664635152431,0.5823108150056706,0.07437940405009105,0.14723912990876015
33.899948,0.19786153837984272,0.3676939255398607,-0.08361389154342225,-2.0807340134815555,0.03547889677414386,2.449818458582898,0.9299197005282975,0.5846018475174996,0.06580871151678708,0.14540552410701563
34.000032,0.1930202496086519,0.37346874622569304,-0.08044818609958913,-2.079771425223837,0.03547403765630486,2.4547146220230647,0.9238599377241472,0.5846743879783662,0.06732309177005331,0.14255214802337896
34.099966,0.19312100763473847,0.3796197274934525,-0.07135157435543871,-2.079753312406656,0.03547134407791914,2.4602327827029864,0.9169697141549332,0.5839587495542756,0.07324981322042351,0.13916238323454114
34.199973,0.1930178946387662,0.3874425163979728,-0.06333497828893517,-2.0799298049366755,0.03546900621668504,2.468712173747658,0.9108790216735617,0.5834883721395329,0.07695133864074176,0.13489084573427051
34.300002,0.18981480986699734,0.39440927321455316,-0.059429522523444446,-2.083783483971653,0.035468585399837466,2.480599348343978,0.9032186681356,0.5826601616077681,0.07577403724164931,0.1302686948848276
34.399922,0.18055951802302161,0.3991425802995652,-0.05791795394801513,-2.0923154481952557,0.035467093729329165,2.4974308417851403,0.8912872958752937,0.5819055693163646,0.06959693447574787,0.12553905232468981
34.499919,0.1655498702624771,0.4042710286878042,-0.05782609579989361,-2.102569761916,0.03546967810325655,2.516763082912653,0.8771998749839509,0.5809846300899711,0.059752190722278414,0.12000785818547756
34.600032,0.14750153321497755,0.4125574896787101,-0.057707350489378806,-2.1152562826418078,0.0354675870346548,2.5408126669705586,0.8667074776242948,0.578806026577993,0.04833715768709452,0.11145726835777561
34.700034,0.12735910500657796,0.42618158499435815,-0.05615388555553714,-2.1296105246217594,0.035468691028113584,2.5656168906986605,0.8546054086153477,0.5744842881977501,0.03709666446571259,0.09978506482252637
34.79999,0.10717152311569113,0.44154976447322725,-0.05312609642333748,-2.1459477974978562,0.03547337112993692,2.592954508344476,0.8389109071160399,0.568900592659078,0.026965738900749735,0.08705484260050608
34.900071,0.0881235276241418,0.45904397401566677,-0.04854712244403442,-2.1616031407622245,0.035474019351990245,2.6206231748320956,0.8248476980694354,0.5630771492691063,0.018491281044054175,0.07434091622991162
35.00001,0.07054176434483957,0.47649009255332003,-0.043689945988286995,-2.1750037074519195,0.035473754631582956,2.6480433259341103,0.8109666546037501,0.5580353381590344,0.011215994220508473,0.06242261298585172
35.100044,0.05406186729104629,0.49362551267428467,-0.039124914443577956,-2.185540588416146,0.03546007946524981,2.676210558449819,0.7957040727250473,0.5539486757558479,0.004566641481223185,0.05201070717600259
35.199978,0.036604070190890514,0.5096290987052328,-0.03351940017851559,-2.195610519125052,0.035286451076984214,2.702382144500969,0.783238103314105,0.5499841280692347,-0.002352686931460808,0.04249754888310875
35.299977,0.019067183435215684,0.5254678748336441,-0.029268196165428296,-2.201839703066871,0.03502164465411013,2.726499959551447,0.770730917824979,0.5472457469390574,-0.009760570378340867,0.03401395073609989
35.399929,0.0033877689832486893,0.5399852046079423,-0.02765405067456783,-2.2079765250040393,0.03440910434412112,2.748398440647116,0.7585902714485608,0.5439481850915322,-0.0173904821870369,0.026386433188513442
35.499934,-0.008468696189899509,0.5512847300801935,-0.0271918256073103,-2.212794253941999,0.03370259402205477,2.7607887075381843,0.7525930674942859,0.5408585247541372,-0.02265085377957271,0.021315173838651308
35.600025,-0.012171786481017997,0.5521039715266972,-0.02701489976194661,-2.213508092182183,0.03315502163518199,2.7642246645439776,0.7523689039366687,0.541179748204258,-0.023506970107369022,0.02147955073749272
35.699924,-0.012215704090451994,0.5521075351739796,-0.025217783249800875,-2.213518792260227,0.032421505996251446,2.7647051277255676,0.7523546668945784,0.5413172904054586,-0.022073512197864315,0.02150056791352524
35.800023,-0.012195296174662315,0.5521072924640652,-0.022677886053820782,-2.213514236246059,0.03152700202279325,2.7649023107271824,0.7523531465864873,0.5414018170434682,-0.02056443024563372,0.021497756871132964
35.900048,-0.012189865436842843,0.55210729246413,-0.021107576445140424,-2.2135163170244816,0.03082637431044336,2.7649867380989495,0.752356290359251,0.5414351728294532,-0.01983266936938127,0.021492464577753778
35.999973,-0.012195640559155896,0.5521127124946428,-0.02083758436910042,-2.2135187884342913,0.030459052104271186,2.765035849317643,0.7523546668919199,0.5414451374076746,-0.019746631917580148,0.02149457842968032
36.100031,-0.01219654418790042,0.5521110028744957,-0.02080035089223923,-2.213518099669508,0.030295779289720756,2.7650589676205275,0.7523546668918201,0.5414511000908442,-0.01973049252910522,0.021497517589637402
36.20008,-0.012195496089378989,0.5521127124827543,-0.020776198855111793,-2.213520191478872,0.03023197533969331,2.7650760216282797,0.7523523939831478,0.541455426330984,-0.019715209971411893,0.021499516278473976
36.30005,-0.01219986816303411,0.5521088580702608,-0.020755242803152437,-2.213516209966618,0.03019979970070174,2.7650871874232013,0.7523553445565652,0.5414599787544493,-0.01970178999702901,0.021501428011586332
36.400068,-0.012199265802060795,0.5521092845449517,-0.020747435359260744,-2.2135149260322007,0.030182296809780147,2.765095329167033,0.7523570435561239,0.5414608150908967,-0.019692952482561234,0.02150052173287942
36.499935,-0.012199967552108313,0.5521090490576827,-0.020737015207867186,-2.2135124574490384,0.030170328665710393,2.7650981276835123,0.7523551856169659,0.5414599976164194,-0.01969316581461709,0.021500901688746688
36.599978,-0.012196265474912421,0.5521091726902226,-0.020732870321766947,-2.2135182017087343,0.03016111583201121,2.7651039542220497,0.7523539086135771,0.5414604393332051,-0.019691262627112665,0.021500759500417993
36.699981,-0.012199976318549334,0.5521107527365938,-0.02072895352131581,-2.213514237263545,0.030156432470068266,2.765108731144116,0.7523552655097794,0.5414607002350619,-0.019687055427000114,0.021500910026824444
36.799932,-0.012194550452558836,0.5521109995494988,-0.020714188476959532,-2.213516317020594,0.03015366301326803,2.7651126691393,0.7523595574427745,0.5414561621584414,-0.01968076769131478,0.021498522302337744
36.89995,-0.012196160710679253,0.5521147094149959,-0.020703738440966204,-2.2135247648755003,0.030149652513788084,2.765115002665902,0.7523577997024175,0.5414587210456581,-0.019675866417080294,0.02149799445451546
36.999921,-0.01219455341078183,0.5521109999855645,-0.020693794994921168,-2.2135288740679253,0.03014637954168057,2.765112025950082,0.7523518327784906,0.5414543976719132,-0.019665755745055285,0.021495402337293218
37.099947,-0.012196265903996122,0.5521148143613236,-0.020683148814723263,-2.2135295273283715,0.030143164415486028,2.765114406984399,0.7523512842200683,0.5414563486080043,-0.01965834729016033,0.021496141203890567
37.199986,-0.012190843000204014,0.5521127124827543,-0.02067348402314978,-2.2135247689456725,0.03013889050929149,2.7651126265874764,0.7523565715828234,0.5414553586755589,-0.019656855249137396,0.021496136505146715
37.299926,-0.012197979379543698,0.5521088541820302,-0.02067178488890638,-2.2135289976335204,0.03014187392810024,2.7651136631561966,0.7523554387151868,0.5414546827482887,-0.019646383799533887,0.02149494639202175
37.400007,-0.012192840917608581,0.5521108910379359,-0.02066307829761649,-2.213534427527763,0.030139742015383355,2.7651120259528157,0.7523499322693165,0.5414571213783739,-0.019648505906097503,0.021496303912057937
37.499979,-0.0121966852529477,0.5521098514637679,-0.02066331159203131,-2.213529884448866,0.03013618829525217,2.765115164656323,0.7523502113181937,0.5414555325423596,-0.01964491790385768,0.021495932284104527
37.599997,-0.012194791581194572,0.5521161844747523,-0.020657980776390528,-2.2135298849178824,0.03013527288301579,2.765115165334646,0.7523536556606029,0.5414562595989273,-0.019646153676523247,0.021495726093615636
37.700022,-0.012195080363631438,0.5521147125497228,-0.02065822019034977,-2.2135312198632393,0.030133743041498812,2.765116311487612,0.7523530563160289,0.5414579914236285,-0.019643242791163345,0.021497905076221305
37.799957,-0.012194562185635612,0.5521144690341073,-0.02065418427654472,-2.2135337377142785,0.03013434416425187,2.7651160698441863,0.7523572882860551,0.5414568644460946,-0.019641983402783118,0.02149598610223291
37.899995,-0.01219285109174082,0.5521147015777131,-0.020652647792718873,-2.2135291340096384,0.03013341721075109,2.76511402030259,0.7523556213652037,0.5414554249023336,-0.019640919748056904,0.02149382610097013
38.000005,-0.012693108301744032,0.5523339972671495,-0.02045294550104509,-2.2136946726385727,0.030132445500825774,2.76992743788647,0.7523188089540508,0.5428042861141447,-0.020051883090541386,0.021842287865597027
38.099941,-0.017782094670469283,0.5546489102468506,-0.018217118710044344,-2.213864920001234,0.030121357396509785,2.78144761755338,0.7506318749035209,0.5440205584301511,-0.022097405207490886,0.021000017017358902
38.199998,-0.027363536087973685,0.5609942932160862,-0.015950181523710624,-2.2145131924468555,0.028828225307010177,2.7919595616906743,0.7454169521649257,0.5430090345368704,-0.02660673412767625,0.017598225620259575
38.299955,-0.03733447674786411,0.5708305562453441,-0.015971300637418844,-2.215857273831625,0.02740155209648998,2.7986919166111237,0.7385203058415805,0.5397038429092543,-0.03185525230192653,0.012012845850270598
38.399949,-0.04493026067353079,0.5798329898523317,-0.016002284655096743,-2.2195535884387008,0.026767549956833225,2.802095863482988,0.7344405641720856,0.5353632305864526,-0.035112021105412984,0.006876303616221421
38.500006,-0.047596730641964444,0.5832705174534101,-0.015981325147110724,-2.2221216109575335,0.025989090120161092,2.802418746964026,0.7337469081012784,0.5338122422056459,-0.03579483086368402,0.005388433905309603
38.599997,-0.04761314876636929,0.5831862068788858,-0.01564506179745618,-2.2221350888962137,0.025311746271230028,2.8024541575090045,0.7337164159416956,0.5338910597384506,-0.035497998353009715,0.005441644592438066
38.700014,-0.04755811146982387,0.5830494462101592,-0.015021540247529932,-2.222124541816809,0.024921320578328382,2.8022496547684996,0.73371167501556,0.5338883035812826,-0.035025819897410736,0.005531721563443129
38.800006,-0.04660486301857444,0.5818418584801544,-0.014881338857860818,-2.2221113404169657,0.02464954074026093,2.7996729745799747,0.7337106744471281,0.5338035477294307,-0.03423173588096514,0.006249603996108313
38.899992,-0.043672752718667794,0.5773492299170463,-0.014887297368905766,-2.2219056468226563,0.02463147971728643,2.792797907791884,0.7337050720209843,0.534221787098292,-0.03220242323591601,0.00861730766608651
38.999942,-0.03687187688383759,0.5690388699309122,-0.014925997488330536,-2.220600522403902,0.024628709963916518,2.7808601081942337,0.733703078548753,0.5356360559995209,-0.027884195786295626,0.012810438902666116
39.100006,-0.025203434451765525,0.55876128987952,-0.014999524648814953,-2.21717933246399,0.024636653639346102,2.7672290794161714,0.7337149439054844,0.5386322835822092,-0.0208561111093005,0.018892654436274164
39.199987,-0.008616964816873627,0.5446055498545327,-0.01550258968409961,-2.213023814949143,0.024756675428017988,2.75211252109939,0.7340178558275269,0.5426477349770457,-0.011911479509716728,0.026582930249669817
39.29992,0.01181418306160225,0.531340596099971,-0.017839373459573458,-2.2063290442317953,0.02513470388278635,2.7351069549930878,0.7361423531213953,0.546707828639304,-0.001868059609761732,0.03459466932166495
39.399958,0.03412170378027438,0.5169239713120435,-0.02161216122126461,-2.200546619587465,0.02683314629404323,2.7174408250890494,0.7389095044283348,0.5501397169184323,0.008248493762519281,0.04252573528078768
39.500008,0.05658587050134072,0.5043231176385297,-0.02666260910266796,-2.1938740239389554,0.029538948835718563,2.6977845022092026,0.7443010361670205,0.5527008658338806,0.01761354561812226,0.05010000869284764
39.599911,0.07868111988812393,0.4905421065652408,-0.032915856848681806,-2.188961173935687,0.03314872372172868,2.6782093919807,0.7530587028827449,0.5546749139291207,0.025879019059938446,0.05741511651346194
39.699996,0.09841031641553166,0.47779360238676405,-0.038298710138252076,-2.183006641329723,0.03448168056439689,2.657801953819268,0.7662513132955303,0.5564453570176461,0.033785453518444,0.06507557556728198
39.799999,0.11692075743734241,0.4626629884340379,-0.043333145467620585,-2.1792287682757676,0.03488125445841207,2.638204477699574,0.7788416743759263,0.5577487603164852,0.04138129400751752,0.07303841345982467
39.899981,0.1343416716720573,0.44654504944960666,-0.04823603097594447,-2.1755925278873267,0.03516554560364572,2.618346031070991,0.7902521178944414,0.5590357107039674,0.04854655507507609,0.0820517561664243
39.999991,0.150267589194318,0.4297628460145941,-0.05181644634837831,-2.1729555334949984,0.035258306957258005,2.601080235311322,0.8038149196034429,0.5600857936070711,0.055600102213619496,0.09090310197451974
40.100003,0.16529392972943455,0.411046366954954,-0.05521879204311172,-2.1727950967173397,0.03527197893557125,2.5838424312224273,0.8157542497207712,0.5601164978372815,0.06242763710182779,0.09976834298469042
40.200005,0.17893410430715712,0.39198115641274917,-0.05776366831788687,-2.1732432132521584,0.03527524160254415,2.568389224463852,0.8264720690333266,0.5604378821172575,0.06871987216423929,0.10924072707763641
40.299955,0.1907609841843289,0.37200515634501335,-0.059737070441586305,-2.175769273385043,0.03527717300128015,2.5547731039873405,0.8390872343471117,0.5596972554992736,0.07438720290785049,0.11845879591245076
40.400001,0.20118110330939992,0.34897431608939405,-0.06144643821183411,-2.1842573744411253,0.03527709490945386,2.541418037041239,0.8496100997857483,0.5564198378178146,0.078806595701142,0.12674077938047332
40.499956,0.2107936110758473,0.3253951904729628,-0.06357209346589922,-2.196263640294277,0.03525113426406285,2.5298198986369123,0.8588967634602273,0.5524372041736137,0.08250169436639944,0.13411988681596648
40.599954,0.2194999431558443,0.30284077337101656,-0.06534762859386772,-2.2079695401068946,0.03510836489279383,2.517970964021345,0.86728586166161,0.548158806818526,0.085892693364721,0.14107498116388406
40.699991,0.2277557035965612,0.2789402384898258,-0.06736596411414056,-2.2216853869408584,0.03471373212792537,2.506213411961955,0.8779945698681313,0.5430504128839553,0.08860554814779918,0.1478265721699709
40.799975,0.235782555191425,0.2546545320070878,-0.06959857612788645,-2.234859165166742,0.03394209307253948,2.4940726538851825,0.8865320308900192,0.5385565970872448,0.09122040789598601,0.15502994853477356
40.900008,0.24240382668298877,0.22918548728064878,-0.07045863283419836,-2.248710084409014,0.03279941258941649,2.4833876281315943,0.893730101888376,0.5337473835332385,0.093740117337725,0.16248680566726992
40.999998,0.24832940807426665,0.20385406045733534,-0.07072686632550534,-2.261112463078091,0.0302991838765178,2.471222583306008,0.9016804547919413,0.5292744181528029,0.0961369649978324,0.17023615592751518
41.099989,0.2541028670810991,0.17822048270825097,-0.07075525052157919,-2.2734838206712182,0.027554456810736157,2.4576981465900314,0.9116535895823787,0.5244762359303621,0.09858383552068513,0.17783355484374347
41.199974,0.26021372731585973,0.15407683038679887,-0.07074115811943396,-2.2835177171742265,0.025245119275174092,2.445190076899607,0.9240512740433534,0.5205782513080908,0.10124861892059771,0.18569174375420378
41.299973,0.2658139437227301,0.13005859870676909,-0.07065395307793085,-2.2928776291765027,0.022356029429454083,2.431228944770471,0.9329442201025706,0.5163082559581605,0.10343785333285468,0.1934265833099014
41.4,0.2708233360905537,0.1069765081936762,-0.07033464092834148,-2.3008889451772156,0.0199732818556787,2.415335082030771,0.9407558838944449,0.5124012330458226,0.10563852982873591,0.2009637335527743
41.499992,0.27625502938526925,0.08710853073849038,-0.06887857348788333,-2.30453363389166,0.018128344319202492,2.399773074895379,0.9496624506307476,0.5097804153924519,0.10947607537301991,0.20856739481728737
41.599968,0.2828552918693621,0.06650859764955165,-0.0665985250274851,-2.3089028509376397,0.017005522758341954,2.384324644144223,0.9596503881041706,0.5054085004381004,0.11306340082413578,0.21584394821610248
41.700011,0.2869745618601888,0.042493615191075605,-0.06362952847992381,-2.317287458306064,0.014774995209810767,2.3674865139802885,0.9659057915531223,0.5009232957131409,0.11635151746433098,0.22354362405989517
41.80001,0.29264085967521986,0.02255228125964593,-0.05522454756382471,-2.318027140133379,0.01297991012890041,2.3514645985550704,0.9714844572561778,0.4975077873889529,0.12444960099705929,0.23160268727347083
41.899953,0.30494914372078913,0.008403264992604426,-0.03835004977705772,-2.31483312306255,0.010299789281633593,2.3351314611847385,0.9772453197279132,0.49254734966224983,0.14081087694613276,0.2386980106036254
41.999975,0.322303220195121,-0.0068019560990983784,-0.017262571517177857,-2.314335017355379,0.007645363976850855,2.3184472501948314,0.9811986042115525,0.4846050238666981,0.15812742402607602,0.2447804189348664
42.099991,0.3320522150762946,-0.025306582615728858,-0.001967774295298456,-2.3171128797967713,0.006153252390328894,2.2988750105550952,0.9834502214254578,0.47788838811247303,0.1651427082764627,0.251466965046157
42.20001,0.3279632446156641,-0.052676198299057286,-0.005448533878384059,-2.3298007960325466,0.00586903805234536,2.2803190403173765,0.9860776625822575,0.4735130350451031,0.1548831664367789,0.2583302712757435
42.299983,0.30796369602827806,-0.08342979467896959,-0.02265016882317684,-2.339949633246029,0.005702917008574986,2.259794171170093,0.9879148826541376,0.47472320206156293,0.1340240171805039,0.26793135117227296
42.400006,0.28279718779603025,-0.10885549061450468,-0.04005711523723299,-2.341499549146969,0.005512885846398674,2.242766911861276,0.9881398344183402,0.4772933634846711,0.11483426879161923,0.27803574748081883
42.499998,0.26685062359487266,-0.13046958911676526,-0.047929013406621535,-2.3418195305233773,0.005279567006532858,2.2241257313827516,0.9881437307399615,0.4760864330791549,0.10601125975688659,0.2865173127624242
42.599987,0.2637814872513652,-0.1499077085449891,-0.04694638745071676,-2.3435613938891904,0.004778501876445558,2.2058781114965234,0.9881458891071455,0.47237124548783826,0.10564015161554971,0.29329503889611497
42.699998,0.26384456605089346,-0.1679276823549248,-0.04360266899417762,-2.3448487176814754,0.003820960906334494,2.18568279170313,0.9881431643645453,0.4682372240299047,0.10605218464880058,0.2994337368003571
42.799994,0.2635629680243952,-0.18571500679811923,-0.04311689251669653,-2.3450808698261665,0.0021665754809385707,2.1666124839071688,0.9881459616126714,0.46492756913093486,0.10476079552100148,0.3061564641431457
42.900005,0.26122787703362255,-0.20243837381305874,-0.04362449523397548,-2.3449097159552763,0.0001487046683344376,2.1463754874454093,0.9881563284236752,0.46169304172233566,0.10200574417078911,0.31241846356043446
42.999979,0.25723560453721317,-0.21757800777346595,-0.0461241354195639,-2.3430330157306956,-0.00258245220444069,2.1269207303350255,0.9881534446222826,0.45974138170445505,0.09768836836348578,0.3185896777992355
43.099979,0.2525600335554706,-0.2293494941637732,-0.050577893715934914,-2.3367269442281917,-0.0056223515971441885,2.1063739625182007,0.9880557736434662,0.4590330672653101,0.0927068105482454,0.3254629083072765
43.199987,0.24936634785440584,-0.2387633691282608,-0.0568555927051023,-2.3260866312003174,-0.007584292341673053,2.086970989516864,0.9872086281929224,0.4597549882233864,0.08814251161382256,0.3331042091722852
43.300005,0.24725182975202023,-0.2447557889971602,-0.0630500720195935,-2.3123499753163568,-0.009484796245931225,2.0666548583904434,0.9857940255048054,0.46089636096800657,0.08430785117436743,0.34036013157366507
43.399996,0.24679552541340832,-0.24708194078658546,-0.06933624151029455,-2.2955632325256663,-0.010959855370192869,2.047838824179101,0.9836263535466145,0.4629648444980908,0.0813165892223184,0.3474400533451415
43.499999,0.24677487903836198,-0.2471192251386274,-0.07572850089072798,-2.2770258055917854,-0.012168291448514456,2.027672870885013,0.9796667891112194,0.46509093866478657,0.07829129236818397,0.3544357969285646
43.599987,0.24680881876616068,-0.24703470073732897,-0.08170798776331566,-2.257480340671503,-0.01365077671191772,2.008040191789271,0.9765995379290779,0.4675979420467883,0.0761557601017438,0.3623227678612029
43.699985,0.25003755137952016,-0.2444599879769797,-0.07953438106413434,-2.229936973668568,-0.01575933852357919,1.987794297576598,0.9735343866206849,0.4716500368917208,0.08137779685098104,0.37302340505568643
43.799976,0.26404846045003505,-0.23754945389403828,-0.06782477102837911,-2.1961304514718316,-0.017474079441741588,1.9709032459391702,0.9674351755108094,0.4749162297310861,0.09625794654188843,0.38379702805637694
43.899987,0.2811294570747186,-0.23170840611194887,-0.04734590360885263,-2.1682770964480573,-0.018068257102736948,1.952189137403596,0.9577838191658402,0.4740686067038876,0.11533284286077528,0.39200952205346123
43.999974,0.29598919733569834,-0.22846809788193245,-0.02110619242062553,-2.1490985202716772,-0.018181265617830834,1.9337145544453973,0.951291862103158,0.4697948140074165,0.13369352724479908,0.3973648328403812
44.099972,0.2974839008792776,-0.2312538379105672,-0.005184895790083115,-2.1418412555078588,-0.018158307905976886,1.9132698889295927,0.9452354476906409,0.46578183950127605,0.13486229304301106,0.3998624689308257
44.200007,0.27936530764793527,-0.23645742862318164,-0.022983273955770198,-2.13520173335378,-0.018153853127778164,1.8909732565966706,0.9351887337186647,0.4697772581171882,0.11091738529707272,0.4047707958489183
44.299986,0.24260848027396217,-0.23761208002411163,-0.0666471058233287,-2.1156770361669177,-0.01818946179795311,1.871221741509478,0.9222381383249257,0.47889037946314206,0.06938660817955358,0.413117350231599
44.399984,0.20334791315656245,-0.24053104192647,-0.11700420037246666,-2.097255806777541,-0.019248013819606977,1.8541861857797508,0.9111184651917744,0.4832746066524377,0.027790499607856425,0.42112667039883034
44.500011,0.18044216538060337,-0.24859058888571178,-0.15096451038163558,-2.0847078800328886,-0.024515536500323367,1.83333074790999,0.9015985137136715,0.4813960414932218,0.004689796843149728,0.42868495907513726
44.600002,0.17840579181348842,-0.2616002680679538,-0.1601744887966928,-2.07511417571874,-0.029739619756781077,1.8130773836624003,0.8892989479488291,0.4781687172859448,0.0022129446787057814,0.43785653726790075
44.699987,0.18509198100395682,-0.2725883355644399,-0.1562597195850292,-2.0626059750643564,-0.032367943081345454,1.7925812305097986,0.8746368077112356,0.4756616460728727,0.006847375463487102,0.44708085313148027
44.799999,0.18957788305197792,-0.2814353253259836,-0.15365002383006243,-2.0507163571392972,-0.035424364628734356,1.774182944218919,0.862800624998182,0.4730834398362414,0.007625207104953549,0.4549596828539722
44.899994,0.18936232968375033,-0.28922349285377963,-0.15772675310812712,-2.0395248572609264,-0.0399674481986724,1.7534290819033032,0.8490427235097072,0.47023618118831245,0.003024131583570497,0.46185050646731374
44.999981,0.18721213959870223,-0.29499158845704665,-0.16772103432931762,-2.027549282857553,-0.044579942666512294,1.7338772392133652,0.8329486871192202,0.4680052701934924,-0.005035414098795179,0.4682936305064943
45.099992,0.18366852881977466,-0.29866190250461555,-0.18070054768162974,-2.0124779083291346,-0.048500985880486035,1.713766220003205,0.8191497805574396,0.46624494423451174,-0.014429787857230756,0.4751427138521657
45.199983,0.18034471070324756,-0.3008433293932341,-0.19437804903374253,-1.9961546987650318,-0.05250869530608664,1.6949370922808877,0.8057466540308198,0.46481997381226675,-0.023835527793992287,0.4819836592337073
45.299992,0.17822002708786278,-0.30190934273247116,-0.20648182578992613,-1.9774280794658834,-0.05641246962281887,1.6748409597521972,0.7929972253106458,0.46359862949529385,-0.03145507812373953,0.48944759238356395
45.399993,0.17803954620870682,-0.30193483138931687,-0.21638127691432935,-1.9560145430547833,-0.0588214152010205,1.6569302192013113,0.7834077612940981,0.4631952490292645,-0.03699702768628224,0.49803632870051173
45.499997,0.1780504976336049,-0.3017509132055305,-0.22379780025087817,-1.9317406721207848,-0.05932878091888496,1.6378602562773308,0.7732779328369418,0.4629775502663592,-0.041209335137573654,0.5079419779212747
45.599991,0.17806232326827404,-0.29965216731786143,-0.23010842585866212,-1.903512559206323,-0.05939632049855713,1.6205834463045077,0.7631440512111706,0.4639865627729934,-0.045250727917449884,0.518809474676727
45.699997,0.1780569003983367,-0.2929120124953888,-0.2367963767682278,-1.8715434234838897,-0.059401854972207103,1.6026688516525622,0.7555116057603205,0.4657362199327854,-0.049408733506828915,0.5286209667714592
45.799994,0.17805349101575677,-0.281162130476518,-0.2434744596642621,-1.8397278375392438,-0.059404077163019445,1.5849480234580624,0.7503365898504359,0.4683339808694452,-0.053272608478512,0.5360565408073418
45.899992,0.1780556658607168,-0.2658467450269936,-0.2494059247682471,-1.807162307135581,-0.059397335940366426,1.566120164375046,0.7450638111600689,0.4712602271114918,-0.05661131038179032,0.5423225247649894
45.999994,0.17808768407967998,-0.24690017771815356,-0.25486083706945023,-1.773895346107041,-0.05934798525334182,1.546849745694547,0.7355914401009843,0.4746245437053018,-0.0595908897897383,0.5474435433705188
46.099996,0.17809256505107038,-0.2281521547169124,-0.2605987868772089,-1.739707211924751,-0.05909798384343837,1.5265636376897858,0.7248488250402495,0.47761230164708296,-0.0626335633104034,0.5528213070567303
46.199977,0.17808446915466225,-0.2115029007791902,-0.2666278525827933,-1.7046022849940456,-0.05854196552993316,1.505445225079874,0.7155757200676579,0.48008866948850615,-0.06593717523936252,0.5600917068871345
46.299998,0.1780837351598833,-0.19612367669314842,-0.27346988750495305,-1.6678562765237173,-0.05775240074406238,1.483505363304231,0.7081941506211097,0.4815987329985877,-0.0696224657231195,0.5682734169196251
46.399982,0.17810417168436965,-0.1829863792063346,-0.2818411043175424,-1.6294308705861602,-0.05670606280793246,1.4608286470740428,0.6963331188586811,0.48259338869619467,-0.07419047991461827,0.5778746569152566
46.500027,0.1780603210465247,-0.1711242815048042,-0.2923590376229132,-1.5916137367623833,-0.05550621817823293,1.435987019295799,0.6816409907374529,0.48213347119919137,-0.07970283932325936,0.5872356366833571
46.599999,0.17757967106378816,-0.1603570186515001,-0.305208764142462,-1.5531798011374682,-0.05384522972294269,1.4108849879108294,0.6683406785271182,0.4810216417665455,-0.08640433345744723,0.5972734386355514
46.699992,0.1772206493432133,-0.1491220075897308,-0.3194529935005604,-1.5149959124964858,-0.05212085335169684,1.3847930778837911,0.6526850976993492,0.47927054201075525,-0.09359736313309726,0.6063696529334756
46.799996,0.17570206361687646,-0.13820397449208843,-0.3351156867565431,-1.4764838112358598,-0.05071224299003485,1.3572336685991984,0.6337265601377553,0.4767786737349139,-0.10194649895892983,0.6160452573367666
46.899978,0.17335171182295286,-0.1263343196117133,-0.35167587524214444,-1.4377166123367495,-0.04905163206263365,1.331457723606919,0.6154856816317132,0.4741021858836749,-0.11074770484277412,0.6247478362656682
46.999971,0.170394070478255,-0.11441393342313984,-0.3690119597347957,-1.3995878664838954,-0.046368486756426165,1.3050872130128959,0.5947661819426112,0.47104720378943427,-0.11956386892916315,0.6336452808853319
47.099996,0.16678794084605011,-0.10135389158756752,-0.3871062855681292,-1.3606012602502848,-0.04359234090859452,1.279930684544002,0.5744480342255839,0.4681536371398309,-0.1285183805710834,0.6416746819711785
47.199992,0.16259036949377123,-0.08756285211719873,-0.40429337702669427,-1.3234677021977825,-0.03997258402644837,1.2568875321996817,0.5532240818459122,0.4654344501410507,-0.1370716702088685,0.6491173022029155
47.299971,0.15677122775457825,-0.07255759456543805,-0.42027184934872647,-1.2879884768582945,-0.03512083554064103,1.2358816732525086,0.533085229795817,0.4635053637293773,-0.14490589896416356,0.655083616701132
47.399982,0.14984768257973408,-0.057490060684748136,-0.4354023954244329,-1.2554241774414086,-0.02884404412594924,1.2179042972506504,0.5129435407990821,0.46184530120144507,-0.15241837882875003,0.6600212274467576
47.500037,0.14411597768610387,-0.041501717701889845,-0.4495511029483218,-1.226805269418307,-0.022522739476439235,1.2023081116172258,0.4950975807229316,0.461286032475816,-0.15854230090514845,0.6630316140776794
47.599975,0.13802113284172443,-0.02645104578334863,-0.46146000784442204,-1.2024632599216922,-0.015983208948573507,1.1923818918319813,0.47740899549102034,0.4619652721532945,-0.16378136673438584,0.6651261041661033
47.699988,0.13281578582698117,-0.011896646936407261,-0.4701591727652595,-1.184578862122993,-0.009442163945599423,1.1856282184286862,0.4652628631247945,0.4634757433089189,-0.16756922931936458,0.665381002055963
47.799985,0.12725199921873048,0.001686160381617589,-0.47704732316502135,-1.1705025291523348,-0.0032985632950467735,1.1826456119947948,0.45332115480727775,0.4657127653067474,-0.17102409922431464,0.6643110477656611
47.899978,0.12214063019052862,0.013735408324024418,-0.48161405112167366,-1.1628410037114536,0.0016559591481178195,1.182191128372529,0.4433604443462225,0.46815867841655795,-0.17371120874830565,0.6620448707835258
47.999985,0.11816172909025341,0.023738291062274874,-0.48532763718937383,-1.158842023468091,0.0060362640148624224,1.1822292291973082,0.4391493432576195,0.47039843330932124,-0.17579685526192687,0.6587930741398866
48.099976,0.11564933548188142,0.032731813669492224,-0.4890070398422138,-1.1586463091914578,0.009368917081106404,1.1834997044584894,0.43546019099911737,0.4727433615360519,-0.1777605461530311,0.655147114755178
48.199999,0.11275197618866965,0.03988357443224385,-0.49236278348994444,-1.158647470899456,0.013050976661395606,1.18761902415392,0.4302626831685107,0.47500500028934006,-0.18019227535147397,0.6526015168429897
