SnyprDragun/scots_vcz_franka/recorded motion/joint_ee_log.csv
elapsed_time,joint_1,joint_2,joint_3,joint_4,joint_5,joint_6,joint_7,ee_x,ee_y,ee_z
0.0,0.003362463382881202,-0.7891064741381069,0.00641929261615622,-2.3616746199037912,0.00486919566300579,1.568194126983326,0.7713449829853015,0.30510779369240254,0.004125444342231556,0.48533807397604367
0.100025,0.0033364795547941827,-0.7689337044979228,0.023339177885080498,-2.3309346129522943,0.018014018007555144,1.5643132520150962,0.7740176531116916,0.311188699470673,0.012660973140448836,0.49319499109882536
0.199997,0.0029087161738070794,-0.7396104533017667,0.045109767966818586,-2.289066212143064,0.02964732327039575,1.5597346526389624,0.7790144681759475,0.31979595660663285,0.023041992942605907,0.503048492406511
0.300022,7.283169276433626e-05,-0.7099723821587564,0.06551292209218111,-2.2507099182020327,0.03942282572342594,1.5532146960042856,0.7854512874253895,0.32761170381103605,0.032288892628410386,0.5105952441920626
0.400017,-0.0063185008950681345,-0.6795501353178103,0.08331757496940403,-2.2130788881062298,0.04801648615681042,1.544511317730542,0.7932337984012514,0.33518990840722523,0.039539927341029055,0.5170275475543264
0.500014,-0.01291909051138855,-0.6472903403029407,0.09910864248480962,-2.1718371258741667,0.055107113754550595,1.5336403496938278,0.8039790211850764,0.3431664533902908,0.04601495882556108,0.524035880919378
0.600008,-0.018814417187036504,-0.6140460976433588,0.11403135423590939,-2.1276017126218227,0.06193182106387197,1.5222499784853818,0.8144681407969226,0.35156337064295184,0.05267608301573411,0.5317146549327033
0.700001,-0.024166716370133436,-0.5808347954370869,0.13030107420215398,-2.0808414974845686,0.06685725861413433,1.5109135867658636,0.8257754802895809,0.3601466543437169,0.06000169775972801,0.5401605084113941
0.800013,-0.02914245789161803,-0.5467402574490081,0.14698345049031564,-2.032110218197274,0.06998038082672708,1.498271467812539,0.8396503411549139,0.36875332364705327,0.06753654659173726,0.5486838901414172
0.899993,-0.03246464128788136,-0.5112823886550211,0.1622444661322832,-1.9817144710317387,0.07224528120155803,1.4842866177100653,0.8537406335450872,0.3774178694581484,0.07511855839141153,0.5570160611469229
1.000015,-0.03391921648068676,-0.4752579680979091,0.17664533608146837,-1.92969966805718,0.0730565558766756,1.4701201781346067,0.867509804301494,0.38614226184660133,0.08292785865480153,0.5655006629034133
1.100017,-0.035326990893078954,-0.43769280643426467,0.19059132709937127,-1.8760721808920713,0.07319754006926514,1.4544098951985862,0.8837425448356787,0.3949453621492922,0.09052160183290273,0.5736037580631994
1.200012,-0.03573425681977087,-0.3996461175832045,0.2038651174364423,-1.8209389993417329,0.07320736712267548,1.4367618126459345,0.8989136651889654,0.40339223146542613,0.09821022914407966,0.5816371991863047
1.299999,-0.03608037974578348,-0.36104008100479384,0.21720956708869005,-1.7645004508893352,0.07321284812599167,1.420027355920762,0.9158330233040725,0.4120699429209532,0.10602002121640997,0.589690444061749
1.400014,-0.03611678646534307,-0.32190920596626765,0.23124296249664525,-1.7066680132471246,0.07314638008644964,1.4008585249142296,0.9338764431374379,0.4201663072549429,0.11415777304438192,0.5974813520869453
1.500018,-0.036133193944809495,-0.2826248699413764,0.24527521644657224,-1.6474194727173566,0.07261433563390583,1.382090675745313,0.9509093661424985,0.4282496221191261,0.12213561566743679,0.605450963383188
1.600026,-0.03608790654482255,-0.24269878509574103,0.26058494946632926,-1.587209134711833,0.06994055389034783,1.3609208951033482,0.9690479708222253,0.4357623333694981,0.1300092075518266,0.6128821803067249
1.699996,-0.03605405366273176,-0.20284702487423759,0.27645575955261514,-1.52653102678619,0.06471380291447734,1.3402110261377986,0.9868364876442205,0.4431823869252798,0.13735393613447686,0.6201456521347769
1.800016,-0.03585838745521537,-0.1629803404788725,0.2927200867400823,-1.4646580546658725,0.057437989990938756,1.31758751411381,1.0072568405758469,0.4500490898007472,0.14410022834701816,0.6273234826167602
1.900008,-0.034683216199516274,-0.1226617498685444,0.30964508346548514,-1.4027201665295022,0.04708910549745387,1.2953946872164452,1.0262111029920662,0.4568488661475053,0.15053742488498265,0.6339263815277245
2.000021,-0.030818092971177737,-0.08240455612584575,0.32582603557168643,-1.3400052370551871,0.034030502354315706,1.2710253861693164,1.047839862812481,0.46285541607425384,0.15666435931803985,0.6402858746277181
2.099951,-0.024116146352366273,-0.04159853679404171,0.34188842488403937,-1.2775719854398413,0.020604806147199686,1.2467042305387674,1.067918293044024,0.46840810262509547,0.16345181411800722,0.6458390347777798
2.200015,-0.01364548721530797,-0.0023540090015747193,0.35681586832350987,-1.2165296191016166,0.006606820404254478,1.2224797754297922,1.0903797308363155,0.47286088062324566,0.170832447996809,0.6510972680016849
2.300016,0.0011908403670015692,0.036883238807938784,0.36935434958139524,-1.1568485311513825,-0.009618895928906026,1.198072340027436,1.1123744829662685,0.4768864630899366,0.1781843499444511,0.6553089384021286
2.400018,0.020027994344549528,0.0733214144784298,0.379502302120272,-1.099508681175016,-0.023666076324826528,1.1756962426176412,1.133379981754424,0.479728978796604,0.18655972334511833,0.6595792254263054
2.500007,0.04136571462977337,0.10736788358262882,0.3873815243223693,-1.0463956557144385,-0.03898358620688047,1.154213006641149,1.1554435453517522,0.4818473993649484,0.19463080035691724,0.6628675485840383
2.600016,0.06400786048776262,0.13813977405431196,0.3921373348999034,-0.9991700158013898,-0.05199775003638804,1.135695896068778,1.1752378797595004,0.4834797217300722,0.20254915154634762,0.6651716241351889
2.700016,0.08681282206104297,0.16362544968426218,0.3940616062433022,-0.9604782392761594,-0.06205894304177074,1.120275583787794,1.19427486194089,0.4841654437964192,0.21024469141627591,0.6665580664200326
2.800016,0.10852289092166595,0.18286306399937435,0.39439715092203337,-0.9335772347612771,-0.0685565825596116,1.112259435846901,1.2106117704523418,0.48443933769332775,0.2183792355096727,0.6668037682487797
2.900014,0.1274340206812283,0.19430755118268433,0.39436095570328245,-0.9226957955278514,-0.07277608177783045,1.1092218042440767,1.2255322106224287,0.4836855501624874,0.22635345370945684,0.6650090448274596
3.000008,0.1431881057358765,0.19807101888422204,0.394377629276723,-0.9233288598931871,-0.07320488468629997,1.1097894543356828,1.2409929083167706,0.4814511315949275,0.23412840650332384,0.6628932497608154
3.099997,0.15524907416112968,0.196949106619842,0.3943818670771373,-0.9351741781847578,-0.0732095604963314,1.1185176690719698,1.2530937956387584,0.4800006728888075,0.24126579669197218,0.6595572258227059
3.200012,0.1617193726429412,0.18814587375913652,0.3943878233084826,-0.9695368208477686,-0.07290479594894783,1.1392880862571335,1.2653396326639885,0.47970035130998206,0.2474987815523716,0.6521838239495343
3.300002,0.16516587527691165,0.17515877645651345,0.3944045875908307,-1.0154033576066879,-0.07071835850713008,1.1656197825092272,1.277496839721917,0.4794160186078947,0.25323855087564157,0.6425755854452767
3.400009,0.16754481393825013,0.16053701407229393,0.3944180842390931,-1.0638378740379972,-0.06509545128876211,1.1944763301969294,1.2872521926273472,0.47862893065073653,0.25909963851193896,0.6326486708025648
3.50001,0.1707468475514617,0.14454611082926333,0.39476695105334947,-1.111775675115774,-0.05915064974960663,1.2250669401762,1.2976853226630045,0.4770970155793448,0.2653400962014924,0.6234534130043673
3.599999,0.17526685556495236,0.1271213443875626,0.3961410929445579,-1.1571243274300294,-0.05308904327963974,1.255919599458728,1.3107053959622967,0.4743328033416228,0.27228212697589277,0.6158274202458689
3.700004,0.18199493474768627,0.11267948659584909,0.39879101218293195,-1.1965000817988496,-0.04788776680337684,1.2851942158360439,1.321870602594084,0.47116913256370857,0.2803248910854261,0.608862837339678
3.800015,0.18912872670601097,0.10004297022139814,0.4027328259966082,-1.232562285371083,-0.04404801004122076,1.3127330676991287,1.3324438285430316,0.4677202581119103,0.2885365915080636,0.6020880733947258
3.899997,0.1972075785134802,0.09444853706885764,0.40747541467430054,-1.2609644582957058,-0.042769469019215176,1.3386449089022208,1.3440217884124788,0.46568973950142983,0.29711559667712184,0.5947827666151085
4.000009,0.20536641173380837,0.09423296891561139,0.41167381677210396,-1.284101098265038,-0.0424694132765874,1.3612453790266363,1.3566448802345163,0.46467422921463936,0.30516237000093493,0.5866455372296449
4.099999,0.21306467742827634,0.09536460346246985,0.4154702565321569,-1.3014046512596087,-0.04247633294807461,1.3784585972225702,1.3675115716371384,0.4634247835076661,0.31222006540369796,0.5798756334103594
4.200008,0.22242953409308852,0.10064259753332551,0.41903214227304386,-1.3048930405819466,-0.0427950375465789,1.3918248738182883,1.3810182267668631,0.46274403330987596,0.31991444534274055,0.57678776943842
4.300008,0.2339750620328634,0.10987604139847905,0.4213967080157116,-1.30250160087583,-0.044924984777782576,1.402661392274101,1.3962372229643325,0.4627014542146097,0.32782869648187074,0.5740290506416592
4.399997,0.24820085761051416,0.12678021632276018,0.4243501320412883,-1.2902160732674948,-0.0505726756583573,1.4073396947702526,1.408536427393044,0.4632953512885449,0.3365394065771474,0.5711348052232366
4.500017,0.26481303480617174,0.15038681465626655,0.42474040511156325,-1.271904228100741,-0.058486325615154815,1.4099765503782076,1.4222371439890529,0.4656589256024406,0.34519258029637356,0.5670230768904282
4.600017,0.2812505970256879,0.17728072903171657,0.42471716150894406,-1.2505076633197836,-0.06660183627674138,1.4104630830143583,1.4356685787448031,0.4686615481509148,0.35362714151233016,0.5621135827700715
4.700017,0.29708156571711497,0.2051520891753101,0.4246710159430733,-1.2265530002771978,-0.07586966462985836,1.4104627524647415,1.4463317946571213,0.47218876702423346,0.3616956520412357,0.5575231497423028
4.799998,0.3128839818391784,0.23183733806063417,0.42426819216444683,-1.2018497456434316,-0.08561232368702042,1.4104040786545855,1.4583232338134826,0.4755416626918078,0.3695142048471147,0.553651917777707
4.899956,0.3287733983970127,0.2561049372472138,0.42391311183333796,-1.1779350893947709,-0.09343965675750464,1.4103135976928673,1.4715596237305268,0.47783338238469114,0.37758785725904653,0.5505681952967169
4.999993,0.34459357497178916,0.27694024257538946,0.4228973114862787,-1.1575294419331825,-0.09978755595681744,1.4103004190222614,1.4815822472087912,0.4790281094376045,0.3853765510288651,0.5476661320896721
5.09994,0.3606152391421021,0.29360048579168974,0.4217986539649895,-1.1424304004899115,-0.10668821362362232,1.4105982841889908,1.4916349235700497,0.47887275354149816,0.3928717444811705,0.5446889345778408
5.200016,0.37563485021515597,0.3060826732145551,0.4198696957364325,-1.1359839812732757,-0.11006765274233224,1.4155765886784597,1.5039347916245405,0.47788493190426595,0.40044948533328645,0.5405548109107036
5.300001,0.38970905909683556,0.3155063468781711,0.4173774865265447,-1.136427775481247,-0.111709031308671,1.4252125690212607,1.5146010877926512,0.47657067380907847,0.40803361279642053,0.5354473606703614
5.400012,0.4022327542253689,0.32096253186893087,0.4144878490071178,-1.1438297520086016,-0.11222262597001813,1.4424894642764081,1.5237665255591677,0.47547445667100036,0.4156368572884319,0.5301676647348949
5.50001,0.4134516436986154,0.3219878677490207,0.41180139692191553,-1.1581991511616256,-0.1124585109388817,1.4602764974714506,1.534832461980172,0.47325350195093946,0.4223391127207452,0.5244068330540627
5.600018,0.42473041484125473,0.322065283421745,0.4093802536896369,-1.1762663479946562,-0.11255357958083712,1.4817583492097677,1.5489286107059534,0.47073342398230295,0.4295202046756419,0.5178366809624751
5.700014,0.43690277345899453,0.32318963957842095,0.4074700482538714,-1.1950057928362303,-0.11260766787460982,1.5017871118083277,1.5598152191998338,0.4673193437388974,0.43706277246808317,0.5101813620860374
5.799998,0.45007311560275864,0.3264434716966643,0.40488612390955314,-1.2115826291274605,-0.11265781480313994,1.522610622710711,1.5712847904738836,0.4641946580463783,0.4450378691628852,0.5022132623638984
5.900018,0.46413586454630756,0.33344716490652876,0.4022417214987845,-1.2241322704482995,-0.11298515685517074,1.541498190841329,1.5844618607454763,0.46124337499919676,0.4533916638370652,0.49359538441560374
6.000017,0.47924692683082964,0.34483372240038807,0.39770480442839784,-1.2326205667481462,-0.11383858136709746,1.5590171397023094,1.5950639793820485,0.45931303598350687,0.46161853463812713,0.4838590734415149
6.100016,0.495373696605388,0.35866456708902333,0.39169436006130803,-1.2346152091794096,-0.11725994303447357,1.5722788100618152,1.6048568726281132,0.4582087644673424,0.469165223285854,0.47506669235389043
6.200017,0.5111635149077597,0.3743933996431331,0.38598638802101387,-1.233187984990305,-0.12436370656091,1.5806380223616974,1.615426560775876,0.45749721630276935,0.47569846909113117,0.46616246923056376
6.300017,0.5278143868427794,0.396234992293326,0.3806408742414454,-1.2191686234632575,-0.13070279430441278,1.5856288331160204,1.6274624510572822,0.4578132402730838,0.4834721674608025,0.4588863592119489
6.400016,0.5468993638132408,0.42401137263782324,0.3747118091665824,-1.192708512077014,-0.1368917039086258,1.5864323972027323,1.6360800662635355,0.458713227601072,0.4926192253098456,0.45300493251831003
6.500009,0.5676095078637804,0.45528643149008363,0.36662340963311085,-1.156646049705799,-0.14282431028358258,1.585999863499736,1.643073594140151,0.46092125243651955,0.502314380055361,0.44876057182093665
6.599991,0.5895133828797317,0.48888357559620815,0.3563287668261392,-1.1113304049657091,-0.14804018866073207,1.580136407519559,1.649532050497726,0.46380656797703407,0.5115650340059401,0.4462845461786953
6.700001,0.6123052008727258,0.5244004688178243,0.3440589226141777,-1.0592411420632646,-0.15302689024562868,1.5689414697059858,1.6530247764792152,0.46704091170586887,0.5200385186440485,0.444627738615867
6.800016,0.6358352241609382,0.5621506533894816,0.3298245369540491,-1.0024412163508685,-0.15647718048248613,1.5520599961098178,1.6577006397107559,0.4700524882450717,0.527654873823712,0.44251998030845413
6.899997,0.6597045937097685,0.6017139663658849,0.31500984636255397,-0.9405022864642666,-0.15911292454223352,1.5342658241228304,1.6604106270685854,0.4730900657679597,0.5353581918332974,0.440935845042758
7.000031,0.6833869397423443,0.643841840545865,0.29953345996808495,-0.8768675081253423,-0.1613765014701909,1.5141250291531094,1.660842182864405,0.47584365503088843,0.5424682092383111,0.43757761138996143
7.100029,0.7069794809449148,0.6860118148951718,0.28318813479561866,-0.8128004671057646,-0.16189802514315974,1.4950772203567468,1.660910274987928,0.47808491933247743,0.5495147370559318,0.4339595817180726
7.200017,0.7284742383057178,0.7274133147563817,0.2680083794198798,-0.7521309049607842,-0.16195476153209096,1.4762608750098143,1.6609325998549755,0.4796995151210874,0.5557676695081226,0.42902879504035507
7.300009,0.7465439279507962,0.7617926575308362,0.2541566213838744,-0.7065537711114246,-0.16196243382955022,1.4662427382604748,1.6609388423647806,0.48093758843593537,0.561444538844956,0.4229131345266807
7.400013,0.7587053441492536,0.7817897176871293,0.24393932423852965,-0.6902592856369861,-0.16195764046229527,1.4652652577752914,1.6609638278310213,0.4807363448042915,0.565509072757712,0.4149330490942924
7.499996,0.7663463264767154,0.7888482472336291,0.2367818741351318,-0.6965085852549306,-0.16182471975685364,1.470308756016209,1.6610117915080322,0.47932058856661464,0.5681345219254961,0.40692532997520764
7.600013,0.7689547307817198,0.7856182930929708,0.23402424436446673,-0.7229306583118785,-0.16138766749476002,1.4918111120657418,1.6644411106816475,0.4782908114487065,0.5712978914708675,0.3989826477786279
7.700009,0.7689684070965782,0.7757675008824921,0.23205391541774864,-0.7687656128088864,-0.16066439119246825,1.5217820252725185,1.6716834898073665,0.47667123908870895,0.5736636445043555,0.3877251125836927
7.800018,0.7690004309722275,0.7628641555990155,0.23124190092801833,-0.8223242079881067,-0.15915108294595004,1.554879792609397,1.679256379556696,0.4734320540739394,0.5760459700849441,0.3753347157512522
7.900053,0.7690629002951087,0.7492386363109995,0.23120256802736794,-0.8747091901545394,-0.15678957329948442,1.5875039433003824,1.6876384179244375,0.46942877137784705,0.5781906253956474,0.363857959230316
8.000046,0.7690462045843177,0.7346728069579703,0.2310582121024549,-0.9235446702504818,-0.15538806910880837,1.6199880988743447,1.695081554664737,0.46582427825390443,0.5798528750637297,0.354568111820167
8.100006,0.7690152644447081,0.7202220512550565,0.23101848704767594,-0.9674307493611894,-0.15426547701271326,1.6510551944844876,1.702186270729396,0.4625522534503091,0.5812773215847177,0.3472819949212578
8.200015,0.7688908392604231,0.7051291764960977,0.23086882258053668,-1.0069208181059712,-0.15254927932563572,1.6791140612776647,1.7051209279150716,0.4594147547494943,0.5822587955646307,0.3421856304404573
8.299996,0.7687685603944685,0.6936189327095773,0.23059307756140152,-1.0392008699384712,-0.15091749346030492,1.7034897835604006,1.705886245303237,0.4569585424700573,0.5830725276643326,0.33746972846701256
8.400034,0.7682369861908496,0.6836308474504116,0.22942179010974625,-1.067391627516404,-0.14955102873044115,1.7245904014267905,1.7060315919066267,0.4553862776503766,0.5830651484844163,0.3331928529593453
8.499945,0.767148872368672,0.6767836571399467,0.22746923232762092,-1.0892921731723333,-0.1478764851593863,1.7402819164719368,1.7060380292172717,0.45480519696226374,0.5822179093268984,0.3290532235350947
8.600017,0.764549989202647,0.6744304671662898,0.22562861083322017,-1.10523459125339,-0.14523486808356983,1.7555685800861613,1.7060355336999538,0.45582371401057176,0.5813770093721684,0.3244100354492426
8.699941,0.7601649052969611,0.6735768989217256,0.22326168396811616,-1.1208470450119885,-0.14352423520765756,1.7667987251187984,1.7060383195529834,0.45779245815085057,0.5786743175553292,0.3184426376227592
8.799996,0.7543054416025915,0.673589221847734,0.22091267450394209,-1.1336489779816572,-0.14287132142623338,1.7748931095596436,1.706037986878535,0.46082817914180557,0.5749154298814992,0.3129107689938659
8.899934,0.7477287137526064,0.6735089683275671,0.21881378867989737,-1.1431558695634387,-0.14254941077361166,1.783934743469284,1.706042521965815,0.46487586730754943,0.5714174323081994,0.3091022021529999
9.00001,0.7409080617777677,0.6734705731534444,0.2176346790312055,-1.1502003049580278,-0.14248451085936412,1.792361433634705,1.706042341880948,0.4690230770246184,0.5682935323083627,0.3064346419478501
9.100009,0.734556915569397,0.6734129049094241,0.2174465644089435,-1.1553349476103305,-0.14247606359705614,1.7992240791622567,1.70603893173553,0.4725981960985516,0.5657114819215657,0.30461645795467085
9.200011,0.7287970098553462,0.6730877832688594,0.21744005041369674,-1.1619406765435463,-0.1424773625911172,1.8079261134963331,1.7060393365030664,0.4756946844269138,0.5635668793554701,0.30246645162430885
9.300015,0.7243754115484576,0.6730761751175434,0.21742222123326493,-1.1700436191317312,-0.14248192162668177,1.8156307263549267,1.7060399796892554,0.4776020261610557,0.5616454704400544,0.29929440724306494
9.400033,0.7221797680319982,0.6731079264924525,0.2174052767318433,-1.1786469365072239,-0.14248152397119193,1.8274769732563174,1.7060347635482738,0.47865914117651004,0.5613971641935731,0.2962091798526147
9.500048,0.7220164223546227,0.6730648139359766,0.2174396885023112,-1.1865090498795963,-0.14248558496281988,1.8394950740434226,1.7060361915988154,0.4787021748945568,0.562255612040187,0.2935525417540847
9.600015,0.7220246644217525,0.6731073989599824,0.2174273799562715,-1.1972917265458616,-0.14249253054397898,1.8536564680602456,1.7060385788849781,0.4783341807692345,0.5630950949181018,0.28963600498479547
9.699992,0.7223791801746098,0.6736697614372589,0.21742229415403008,-1.2089291601953571,-0.14251071494488912,1.869941388591736,1.7060359012631043,0.47780898823091994,0.5642830849091942,0.28512704445577536
9.799994,0.7234597534404845,0.6744985548787299,0.21733735427613912,-1.2203310909476357,-0.14253639115367903,1.8862830785961924,1.706029960933023,0.47691273336076223,0.5657778713036696,0.28054385642331453
9.900014,0.726668668150706,0.6777588953898768,0.2161508208256306,-1.2301320960382522,-0.1425920276118277,1.9030404727444121,1.7060355504642724,0.47556139352712173,0.5680276264489584,0.2749135483225587
10.000016,0.7324587671903956,0.6827214055511833,0.2133134489607342,-1.2397480696995633,-0.1426170940959859,1.9206555868365416,1.7060250009201332,0.473515315615106,0.5708924178081927,0.2680956572840055
10.099996,0.7394032878390367,0.6891299713082828,0.2103001612836997,-1.2499907817652465,-0.14261099688496395,1.9369206403547228,1.7060289601187162,0.4704378353386691,0.5737478959602652,0.25978995036140357
10.200013,0.7474841482237998,0.6978685689939935,0.20656724172226515,-1.2586354218212155,-0.14260966219535465,1.9540266277592488,1.7060570419826935,0.46726530871296557,0.5770310421342952,0.250563578212019
10.299996,0.7550178649257097,0.7066815212252547,0.20241748699994638,-1.2681441352577383,-0.14260107574085767,1.9691838240627761,1.7060883678077727,0.46407030852542835,0.5792702861501304,0.24067408539915675
10.400015,0.7611233278927558,0.713875708747054,0.19852033334279667,-1.2795399565813677,-0.1425855005353529,1.98277144416713,1.7071545167188078,0.4609859902701296,0.5802938468562646,0.2309749233895501
10.500015,0.7648247496723387,0.7204807805106415,0.19545745594944203,-1.2864358589494207,-0.14257456824319512,1.9949012074452985,1.709556917958879,0.45970137210477147,0.5810780078565625,0.22376163742584043
10.599996,0.7656433053307116,0.7239126860978579,0.19257435554268418,-1.2936408315847445,-0.1425696126531882,2.00672527348839,1.710455665634843,0.460109564826154,0.5806784582085773,0.21872524434650958
10.700008,0.7656264114750173,0.7252617296389452,0.18812252202810023,-1.301334545571965,-0.14254790820082675,2.0162403047870776,1.7104856854480852,0.4615305926289705,0.5788960690778718,0.2146913846025741
10.799936,0.7655418441896056,0.7256626817010718,0.18325945997764811,-1.3079620001131806,-0.14251418320249506,2.0264467662169445,1.7104841045862018,0.4635878844114696,0.5772941490938661,0.21189793717718985
10.900007,0.7650081624383778,0.7257808642804772,0.1798628792914723,-1.3127320497071107,-0.14172393946130551,2.033946411390381,1.7104922751470553,0.4652255266669769,0.576049486928824,0.2100398178206253
10.999994,0.7633036805057705,0.7257803028462273,0.17835402723011923,-1.3187814675913667,-0.14071564327543853,2.041625147720259,1.7104965384621234,0.4663189615558351,0.5748085586155522,0.20780958733972146
11.099937,0.7605641565635186,0.7259706226487628,0.17766546492634003,-1.3255256751007696,-0.14013086678437278,2.047249916773339,1.7104919696460998,0.4672202542633515,0.5728543939296908,0.2049863162903009
11.199992,0.7566285375431199,0.7271423594171575,0.17734931288454708,-1.3300520066489656,-0.13989339126131817,2.0534539525194506,1.7104983099021243,0.4691553128393949,0.5709217764130888,0.20255573056339465
11.299993,0.7520260166162656,0.7295896033340806,0.17676967772166963,-1.332349251833468,-0.1398634571104908,2.061635045545956,1.7104975303512253,0.47226096411126894,0.5692177732056595,0.20039181216542096
11.400015,0.7476641677311306,0.7323866671032053,0.17573970902218963,-1.3332288581377327,-0.13986418431808537,2.0670582922590683,1.7104891065590353,0.4754118698107524,0.5672058485122664,0.19835624031110288
11.500017,0.7441482239554305,0.7365891586390554,0.17473871352680745,-1.3333354932077894,-0.13986886676574725,2.073439663509912,1.7104899135516995,0.47822311576939475,0.565779674358562,0.19573717681036848
11.600018,0.7423829498428305,0.7440828191172564,0.17419521421001477,-1.3333132175035927,-0.13987408451483554,2.0817491766473792,1.710482229139664,0.4797410100393897,0.5654045846528856,0.19096070972129495
11.700013,0.7423513598984485,0.755663007271168,0.1740751520775601,-1.3327814449685527,-0.1398903655138548,2.090176842075473,1.7104829913552777,0.47974685317622284,0.5657304898834633,0.18344567215501
11.800069,0.7424710068923155,0.7715284591301969,0.17399759779657728,-1.3327096652016333,-0.139951553453108,2.1002117180536817,1.7104818243720539,0.47917247547548075,0.5657991483617647,0.17270541498742897
11.900015,0.743741003237715,0.7886170504865283,0.17310780235276277,-1.33179973038262,-0.14013665421397448,2.11087237275102,1.7104802163567303,0.47837380040411287,0.5660975993442338,0.16144556287934383
12.00001,0.747560735081833,0.8045292843221297,0.16999630582497474,-1.3317544693112626,-0.14026602686808048,2.121867862188344,1.7104706951652748,0.47703422769902365,0.5665484894355646,0.1505307822030987
12.100013,0.7541290122283933,0.8179964607726038,0.16561810844908872,-1.3318618350313818,-0.1402922184566035,2.133772866302693,1.71047168164716,0.4750337126278609,0.5680874687720183,0.14133554681701543
12.200018,0.7633453799578621,0.8271811380739509,0.16079064113578057,-1.3333893306461493,-0.14028741167658815,2.1496650618599333,1.7104727763602008,0.4723776570792766,0.5715247677548884,0.13496984907792564
12.300018,0.7741618936013881,0.8325110532187486,0.1566059776465291,-1.3384749388917323,-0.14027122176901197,2.1664495443024165,1.710498816908772,0.4681338810586322,0.5757612240067639,0.12997527149334492
12.399965,0.7858643595017695,0.8329218722934332,0.151705612288123,-1.3535588003861383,-0.14024947823021242,2.1869180110387583,1.711310288418077,0.4621603897978954,0.5789167265108646,0.12442072570661995
12.500004,0.7976851708933047,0.8328904010203622,0.14821139524309948,-1.3741636796290657,-0.13983224072194356,2.207744985154942,1.7156936598204333,0.4539496091764419,0.5812970120773645,0.11688504629760423
12.600014,0.8088338510863706,0.8328388177781764,0.14444804982959683,-1.401894122545312,-0.13947759724798384,2.232053697826752,1.7267342112530062,0.4446843310798316,0.5817128603778666,0.10658038561836955
12.700012,0.81768611172596,0.8314260387406858,0.14276047231132644,-1.43929347387436,-0.13923442209280298,2.2579142310626534,1.739425802885135,0.4333320185189841,0.5793885134002529,0.09345185049744782
12.800017,0.8249349855038741,0.8267662127042057,0.14137804688446085,-1.4847594267984923,-0.13912892548608147,2.284489897317716,1.7495365920984527,0.4209493256090032,0.5742881770266989,0.0795485719690856
12.900027,0.8322309890837204,0.8145865357978485,0.1378538585934291,-1.5355677837706463,-0.13894179291859463,2.3116793888378675,1.7577388264744804,0.40934310339284574,0.5675837681332906,0.06896597715683177
13.000016,0.8395736321258183,0.796322505646551,0.13428874441220423,-1.58479031287766,-0.1383681638988484,2.3403802496885584,1.7676542949604048,0.3993128222703228,0.562272851784939,0.06361909872508405
13.099996,0.8466153043037254,0.772651667781372,0.1318086395291558,-1.6317006131367173,-0.13733203976120456,2.3687167700164666,1.7797326036947274,0.39038341894342776,0.5586011331739666,0.06303639509201499
13.199995,0.8535083968450247,0.7460094301022964,0.1302273514268636,-1.676446841249069,-0.13639583986570278,2.3976416390705366,1.7902672141056406,0.38222299453486647,0.55625373483905,0.06543144704646481
13.29999,0.8615254111960792,0.7204310627515819,0.12826809450563265,-1.718404014605044,-0.13513674742015833,2.425584011519283,1.797589087448651,0.3740812860428724,0.5543786915972775,0.06809413831547341
13.400017,0.8700558147094006,0.6987952445542853,0.12653084073956372,-1.7584614792336548,-0.13295331585823494,2.450140074331837,1.806467433589948,0.36497137898884746,0.5517045530162479,0.06859530293322977
13.500018,0.8788174843926314,0.6832916177277587,0.12491889546054698,-1.795748480081685,-0.13049738242851086,2.4728899509067883,1.8151426983781243,0.35522566230982133,0.548240429757413,0.06604286477476272
13.600015,0.8879942348116721,0.6729132792709235,0.12196313431317254,-1.8297642253600785,-0.12883750983423606,2.4922892826159466,1.821992861418,0.34579873445043025,0.5435775505748542,0.06117791948453297
13.70001,0.8961257357692514,0.6688241723644741,0.1196079267351843,-1.8572748443211617,-0.12709387472099704,2.508901632413182,1.8262975213108412,0.33712836617637393,0.5390825607272036,0.05469997023964965
13.800003,0.9036464548123287,0.6658298414849234,0.11653599093896118,-1.8796524461988715,-0.12513245549397228,2.5211852683674514,1.8295091484684947,0.3300535954318037,0.5348155498331681,0.04918214881360905
13.900016,0.9109023464789151,0.6620831423179011,0.11184625997307227,-1.894933890309873,-0.12164690592368947,2.5322821571927063,1.8300879617136963,0.3260276301977275,0.5324873000947492,0.04665114967446296
14.000014,0.9181186061740989,0.6584327513272461,0.10603939428576459,-1.902821660801567,-0.1149189269068404,2.540555715834099,1.8302161876391765,0.3243540043186019,0.5321265451759271,0.04650184636576683
14.100014,0.9245610395222319,0.6559873458954566,0.10021751996754752,-1.9055069342562463,-0.10827303184000912,2.545061712407547,1.8302305086081716,0.324021302955827,0.5325801999208186,0.047197179121802935
14.200005,0.9294750535996923,0.6548481340796162,0.09536967941298403,-1.9056614359452673,-0.10350041421656697,2.547813744498976,1.8302305085902266,0.32435378800860964,0.5332345460282355,0.04790588791589563
14.300039,0.9335228214845543,0.654721173736967,0.09075056195764747,-1.9055439243733496,-0.09787068766663662,2.5481506151039124,1.8302314683346304,0.324656625453465,0.5331363125971774,0.04789483950283745
14.400016,0.9375377938922743,0.6547461320548719,0.08605384419716647,-1.9030642756287113,-0.09257883505594981,2.5478150142958147,1.8302337157362205,0.3255976583054474,0.5337809384947607,0.04860242957295054
14.500043,0.9391913158657667,0.6547956924128904,0.08375528603655966,-1.8982705427127535,-0.0904358241252356,2.546149206233383,1.8302377648085784,0.32806016714487457,0.5360012709750183,0.051156769657739035
14.599992,0.9396323351838559,0.6548280634540722,0.0806542972223574,-1.881141334303203,-0.08796110703561554,2.537309049115522,1.830235355206242,0.3322893159120428,0.5393456531741574,0.0555950486473841
14.700008,0.9394004668714839,0.6548644895019791,0.07862831015113507,-1.864976303726674,-0.08620873536619693,2.52737181187962,1.8302409431223514,0.3368746013686954,0.5430550426674916,0.06073199186987574
14.800009,0.9390373239948236,0.65479094968427,0.077622682739111,-1.8541218318902377,-0.08447999646254797,2.524052231126507,1.8302401840327325,0.3401700977885601,0.5462143061467926,0.06460505649511987
14.900002,0.9390309125790111,0.6548751976483969,0.07733749429228924,-1.8536984898965594,-0.08389265710021687,2.5225539882034496,1.830244781920713,0.3402589505381125,0.5459923472122398,0.06456831701242417
14.999997,0.9390359789677029,0.6548762412795567,0.0773150274725544,-1.8539836834849373,-0.08371992379162052,2.5213377638138885,1.830238402050441,0.340062175632163,0.545657093233836,0.06434603719981562
15.099998,0.9390367946093194,0.6548731110399272,0.07730158022779887,-1.8539922661177204,-0.08364653744003235,2.5211376504806116,1.8302382520312026,0.3400441315286456,0.5456149372164331,0.06432608819498321
15.200011,0.9390350821121125,0.6548773137149846,0.07728285874687238,-1.85400203005073,-0.08361038054364067,2.5210621770821304,1.8302406231430957,0.3400431493663684,0.5455898743701525,0.06431220622621407
15.300014,0.9390343787108858,0.6548795456795788,0.07727106886147796,-1.8540168300095299,-0.08359643088510539,2.521024874309447,1.8302423446354092,0.3400414858888182,0.545572631211559,0.06430133655217257
15.400015,0.9390398016186043,0.6548810328163572,0.0772692528019891,-1.8540100208975443,-0.0835816101911811,2.5210111501977823,1.8302375919651888,0.34003910822978184,0.5455739604221215,0.06430169647460814
15.500012,0.9390385070946041,0.65487859638876,0.07726714512595093,-1.854011702439973,-0.0835765160664154,2.5209991021994975,1.8302445344183291,0.3400395008585338,0.5455705448605765,0.06430145135488284
15.600006,0.9390422175170705,0.6548784088349352,0.07726391587510252,-1.854010021844784,-0.08356949328016954,2.520992142484354,1.8302449353423398,0.3400387695630808,0.5455702086481166,0.06430148873061974
15.700011,0.939034379673863,0.6548781207018626,0.07725920196377968,-1.8540168047977772,-0.08356647653819427,2.52098955896017,1.8302395627786217,0.34004353578387225,0.5455628641720542,0.06429869129523066
15.799996,0.9390366935155557,0.6548773137270976,0.07725814794960316,-1.8540263699713027,-0.08356595808811058,2.5209847970667814,1.8302409973441396,0.3400399227843012,0.5455588918812804,0.06429506461324026
15.899993,0.9390364566059616,0.6548812668119013,0.07725337989233055,-1.854015023130018,-0.08356168581487045,2.5209809432967254,1.8302392212481384,0.34004459082121385,0.5455599806474296,0.06429640432355593
16.000013,0.9390346885785209,0.6548775506194652,0.07725119446848284,-1.85401502358019,-0.08355634424857529,2.5209810278644706,1.8302395098410325,0.34004715017779485,0.5455595307068815,0.06429872995133859
16.100009,0.9390348481086925,0.6548814176712676,0.07724799817534765,-1.854015026085587,-0.08355634506107466,2.5209756135363275,1.8302410355971688,0.34004770931278466,0.5455565822653511,0.06429566337544283
16.200018,0.9390384984517471,0.6548773137391402,0.07725363445931199,-1.8540195421023848,-0.08355764525304438,2.5209719193473488,1.8302372884707838,0.34004165782779794,0.5455583282592253,0.06429638469848696
16.300051,0.9390348481086931,0.6548800136509003,0.07724770109769775,-1.8540237690840433,-0.08355449338556166,2.5209688684847045,1.8302380050892455,0.3400449881270288,0.5455522161458238,0.06429257683410883
16.400016,0.9390366905602284,0.6548738920496394,0.07724582837752533,-1.854017772684817,-0.08355414511577376,2.5209619612489247,1.8302384461514831,0.3400469139819599,0.545554538729741,0.06429812361143092
16.500004,0.9390359875852295,0.6548755924352558,0.07724841777006929,-1.8540115238544586,-0.08355209689961296,2.5209720064533343,1.8302399657304145,0.34004816494584833,0.5455591798965722,0.06430042781824306
16.599997,0.9390350792231816,0.6548757052314113,0.07724171123805369,-1.8540100933310633,-0.08355047133495998,2.5209725983655655,1.8302404630244355,0.3400528020989847,0.5455570894223113,0.06430076436941333
16.700018,0.9390333695972943,0.654875939270514,0.07724797012488231,-1.8540114696059489,-0.08354772126789949,2.5209690407321643,1.8302462833482465,0.34004931260736,0.5455576349967617,0.06429994241693038
16.800008,0.9390384031049727,0.6548702909904536,0.07724546798125016,-1.8540153980222234,-0.08354681274654085,2.5209708929602592,1.8302450788713476,0.3400479656107755,0.5455585017647425,0.06430214826496902
16.899998,0.9390367917202251,0.6548773137271047,0.07724545923268755,-1.8540094844750046,-0.08354552508257355,2.5209725800507425,1.8302395188715401,0.3400494377498594,0.5455590485366509,0.06430007412655875
16.999997,0.9390365606058756,0.6548793116404521,0.0772427404883308,-1.8540093869436014,-0.08354568272706119,2.520971467427915,1.8302372387497463,0.3400507035423989,0.5455573705588558,0.06429865031717769
17.099993,0.9390385071064855,0.6548795572035931,0.07724368388823796,-1.8540138429993365,-0.08354730619431869,2.520967922905496,1.830241233727208,0.3400475873133476,0.5455559174505367,0.06429648345749737
17.200013,0.9390353567290779,0.6548765376715785,0.07724417987110994,-1.8540051753984834,-0.08354301464239237,2.5209563718273205,1.8302376885240659,0.3400504826517679,0.5455570127671848,0.06430071420471553
17.300018,0.9388530208875917,0.6553397157814529,0.07726400311849649,-1.8494152941579125,-0.08354566937048605,2.5105251835473035,1.8302234101642483,0.34024775411151403,0.5452561150876013,0.06482543565193238
17.400032,0.9366389130147385,0.657455510071588,0.07732739785654089,-1.8323477005590263,-0.08352956223084022,2.491311036185136,1.829695252253489,0.34371561045699717,0.5470723810773409,0.06833649961092551
17.500019,0.9307084834837803,0.6584305309323942,0.07753781746168434,-1.8089898105966495,-0.08351015628016321,2.471351181648407,1.8282383278525818,0.3508906765862806,0.550032514574704,0.07505134533922594
17.600008,0.9205058152831248,0.6584118779439744,0.07846356832033378,-1.7827232850711976,-0.08350039082257558,2.4493119952483586,1.8256295384978938,0.3606980460905988,0.5524094361739349,0.08354233381166716
17.700036,0.9078077623718789,0.6584128707824548,0.07982762508408486,-1.7562010314603276,-0.08349961457528567,2.4249401259871677,1.8218202181069683,0.37142791424654575,0.5533696854218189,0.09209513090039821
17.800007,0.8942670282854511,0.6584480755115851,0.08067013971610282,-1.7293386991646862,-0.0835086695875425,2.3987902189183052,1.8169578527001777,0.38275920435761945,0.5532251971422765,0.10075295937661521
17.899996,0.8813875194775096,0.6585311828407129,0.08305475206885055,-1.700937480327925,-0.08351198851026834,2.371236348772505,1.8111553159197797,0.3930612987353245,0.5538094466520749,0.1101035111482499
17.999998,0.8707144391361084,0.6590178536069018,0.08516594865382085,-1.6701937968780476,-0.08351650069422932,2.3429908624312286,1.8048736568511972,0.4026933713266142,0.5553405923832824,0.1202786456292875
18.100018,0.8620009902298754,0.6603113336044686,0.08877033901214526,-1.6384704639614047,-0.08352649179182764,2.315294893108798,1.7995211628691736,0.41054454389764644,0.5581608778437995,0.13060661209837657
18.199997,0.8551772063051305,0.6627311335160602,0.09237063619783047,-1.606295530282009,-0.08353381658131186,2.2874225492941043,1.7922876426888077,0.4171879906228163,0.561346788528445,0.1405148064463572
18.300014,0.8504684896503619,0.6659578304675762,0.09478721492055153,-1.5746864391337168,-0.0835365062353636,2.259350730799211,1.7825658865064558,0.42288985168515053,0.564308974214411,0.14971017792621694
18.400015,0.8469495753699132,0.6712839060195809,0.09686940097540257,-1.5423797006367153,-0.08353661877515361,2.2330965700574334,1.777377659766452,0.42811038860875633,0.5675959097892169,0.15802681096542065
18.500007,0.8436320662477836,0.67811213080182,0.09926078112215188,-1.5120376742121469,-0.08354074771504744,2.2073800595114563,1.7727385415254089,0.4323584175501604,0.5702088016004192,0.1645555640612092
18.599948,0.8404731679802704,0.6842360816852098,0.10158346873878356,-1.4846753441333038,-0.08353609447981872,2.180750162490977,1.770458054430836,0.43571880669651064,0.5717946874452075,0.1702256387595797
18.700016,0.8375333914475023,0.6900750119410619,0.10325879259140139,-1.4566724896630439,-0.08354806381240545,2.1566982917830204,1.7689878173465872,0.439700533676839,0.5736845082490196,0.17666942824884516
18.800004,0.8347781633511627,0.6943649756863863,0.10468231701094796,-1.4288256514184052,-0.08355757743389207,2.133154210213173,1.7666705282829107,0.443798732153222,0.5755917467716419,0.18426265177210513
18.90001,0.8328600802010082,0.6986824867173106,0.10557717090805284,-1.4005506599568023,-0.08355764524102482,2.11055924413636,1.7636824524846555,0.4477879784799521,0.5777279581652102,0.19216963157016798
18.999938,0.831563266252704,0.7021903062149447,0.10622116722915292,-1.3751243108905618,-0.08355780322362699,2.0888562556784835,1.762091779499278,0.4509779340939533,0.5794104241193883,0.19947824847463652
19.100034,0.830558829900373,0.7044883795780708,0.10726391832263911,-1.3517851902835516,-0.08355993568567047,2.0663039725175274,1.7611503828019428,0.45324246342717206,0.5807175574303515,0.20668638965894237
19.199994,0.829726186193182,0.7058707126187607,0.10863751944114385,-1.328504897720032,-0.08356450116825093,2.0460595758865083,1.7597449537595626,0.4554887018350701,0.5825508484185594,0.21480954267501856
19.300003,0.8289376580847784,0.7064533439293629,0.10983700764338271,-1.3054962906255445,-0.08356229992106208,2.0254707445859377,1.755868009213888,0.45765487213848277,0.5841281202031987,0.22340394713892062
19.400012,0.8280357688753068,0.7066274154805436,0.11020906467791405,-1.2838102176504946,-0.0835611315942034,2.0062478866436955,1.7497775683733399,0.4601116906322763,0.5851538643699439,0.23181226837118651
19.500012,0.826572906487908,0.7067079952438,0.1102407558883354,-1.263421062628214,-0.08356327329474748,1.98620304827174,1.7433909938249939,0.462605383309599,0.5852477416450264,0.23962032552476867
19.600007,0.8241397590268478,0.7067881871000339,0.11025958195636996,-1.2449467334076112,-0.08356370421060721,1.9680204829281234,1.7393615668019675,0.4654289216930694,0.584697310070346,0.2467133665928638
19.700017,0.8207116821697569,0.7067989897923214,0.11027272921216622,-1.2278422438439338,-0.08355887153701431,1.9489740400284152,1.7362761006313583,0.46838665262543056,0.5831677638864188,0.25314373421547687
19.800019,0.8163986438889602,0.7067780614951937,0.11038169281888115,-1.2133266476213873,-0.08355810075730172,1.9321324353813705,1.732533500268523,0.47152204853458235,0.5810549417423964,0.2585789178134042
19.900013,0.8112617565046981,0.7067478139686971,0.11089406479556854,-1.2009050209594536,-0.08355996843964185,1.915280524399422,1.7281767260678385,0.47448792957034935,0.5782541358164244,0.26304250341376734
20.000016,0.8058310550843065,0.7064427883725807,0.11147131273879086,-1.1918060927585752,-0.08355831261782924,1.9000961053246588,1.7235876511318569,0.47714272877993014,0.5749854597623392,0.2662831279993472
20.100003,0.8007773621238986,0.7043185053426099,0.11206771383902048,-1.1871297293279315,-0.08355919095907702,1.885574295697065,1.7212513954381856,0.4788732480070591,0.5712944011660662,0.26883563777482
20.199949,0.7961007744261143,0.7002441678462599,0.11334848905160902,-1.1855081243581236,-0.08355882235431625,1.8713516028802568,1.716944256914854,0.47958876882714363,0.5676461394540326,0.2714441257793281
20.299996,0.7919566773864074,0.6940596130799302,0.11508517381999211,-1.1855604056614386,-0.08355827890230547,1.8607227887306654,1.7115539611274044,0.4800027683303693,0.5648235138527027,0.2751507619262046
20.400016,0.7880649749915635,0.680965393678687,0.11714958306789772,-1.1884261829261114,-0.0835528043349029,1.850144099862509,1.7068637272468943,0.4798379052146729,0.5620317464883615,0.2826288468470183
20.500029,0.7840092303570483,0.6610993869049865,0.11911899435559357,-1.1957035682650612,-0.0835487882412832,1.8420630101810471,1.7050881334084684,0.4794679099221389,0.5589652704996304,0.29315875837564637
20.60002,0.7796819479618484,0.6361275077445122,0.12151626449538484,-1.2061697416835422,-0.08353534802753027,1.834091482475368,1.7041323141498486,0.4784771470711208,0.5554464993228755,0.3058490464509153
20.700017,0.7752506098236652,0.60899760187704,0.12448816645320719,-1.2197381114842984,-0.08352574155772738,1.8292169881951554,1.7037364452761896,0.4769850220953787,0.5520027241048768,0.31879448727789017
20.799964,0.7712658212063478,0.5837548998743697,0.12771491076907499,-1.2339000411029923,-0.08352002045056478,1.8250229241512708,1.7035405172444984,0.4749120009195894,0.5487205901903383,0.33001609953665345
20.900025,0.7679584837348098,0.5613527830377408,0.1307767494583108,-1.2488785865082916,-0.0824343163522227,1.8198258962008913,1.7033221746379137,0.4719766251630232,0.5454113270048326,0.338568358655289
21.000007,0.7649661776164178,0.5415635613130281,0.13336907242861334,-1.2645839620451516,-0.08027189408502615,1.8123077664061118,1.7029059228813805,0.46842330693188533,0.5416323828165358,0.3445604441565304
21.100004,0.7616861826975853,0.5240932327855448,0.13563260847079556,-1.2792382520005143,-0.07772589188163985,1.8050477578786737,1.7023307276108026,0.465272557664253,0.5377940499617571,0.3493366554006895
21.200015,0.7584712964160318,0.5104256186089959,0.13688052584390845,-1.28789317178915,-0.07623998565486484,1.7943487064639616,1.7011888862661502,0.4632192316946246,0.5337772279970413,0.3539127569836544
21.300013,0.7545875790897135,0.4948485742456155,0.1376898301866615,-1.2962952872755333,-0.07470938397528046,1.785306594021138,1.699038957181453,0.46188116730474543,0.529530331985272,0.36003555968469525
21.400005,0.7511180932906173,0.482620548453244,0.13808104534908527,-1.297320817419512,-0.07320158005857406,1.773594222756774,1.6953987367504044,0.4613333194510544,0.5259403439262104,0.3670591678742248
21.500034,0.7479710496741845,0.4701705043778255,0.13821135664108528,-1.2962957731634264,-0.07214625687758491,1.7599049130373963,1.6919863825081252,0.46076688176409847,0.5222452247679154,0.37500224176198543
21.600015,0.7451862671987806,0.4632465695449472,0.13831491085358208,-1.287521592410117,-0.07140250593060642,1.7441408645683159,1.6883861542467544,0.4610575114468122,0.5194726780863129,0.38262307399071094
21.700008,0.7426586019987099,0.4625825410969062,0.13833760691739233,-1.2710719150626961,-0.07063514351292068,1.7273501257149224,1.6831510218916408,0.4623960085855831,0.5177589851061924,0.38949451897142434
21.800003,0.7390869376492116,0.4625911240438932,0.1383520496158756,-1.2546843596135215,-0.07014902548986784,1.7075382115500655,1.6780981487526268,0.4638473334746268,0.5149687558460235,0.3956028281126084
21.900016,0.7344478761791431,0.4626317316669424,0.1383529500018664,-1.2354511702242121,-0.06981993393934895,1.687686654027204,1.6690934324454887,0.4661735138596538,0.511897771106134,0.4030380108447677
22.000017,0.7286793797187519,0.462600737931596,0.1383402007380555,-1.212075996291843,-0.06962409811230046,1.667266208987107,1.660808194661245,0.4694470197219108,0.5085078366838638,0.4124343521872644
22.099993,0.722548762403103,0.4625998057716772,0.13832321697256691,-1.1882599739578932,-0.06953970715099474,1.6478280883869163,1.6554038121624979,0.4729432336480288,0.5049549071476721,0.42208450749513116
22.200002,0.7165970096701204,0.4625831831269096,0.1383256688099617,-1.16666642055964,-0.0695062886760226,1.6280656538480207,1.6504883509464836,0.475855481120637,0.501049970067734,0.43063329686631924
22.29999,0.7107608812236752,0.4625375891229509,0.13835306982210197,-1.1494072824334356,-0.06948365777797783,1.609811157264229,1.64424631358392,0.4782499497653057,0.4969295083808643,0.43725120416262064
22.400001,0.7045799620925082,0.46240625426146914,0.1383504017032971,-1.1376611080694996,-0.06944436042539562,1.5918218403064777,1.6383354667399153,0.48011331883458946,0.4921314849221464,0.4413240044561254
22.500003,0.6975220552754593,0.45958769861280546,0.1383296050475163,-1.134798457082902,-0.06895383904354804,1.578154123578073,1.6278928817973326,0.4816439282056378,0.4867022842935871,0.4434187763946019
22.599995,0.6901090937256695,0.4508631860188558,0.1383377026335955,-1.136591926274274,-0.0674638930550006,1.564992030176632,1.6195957854893572,0.4821433518760809,0.48053602824395575,0.44739034806857836
22.699996,0.6821640368642258,0.4323811712167528,0.1383437699737529,-1.1453522705512509,-0.06360669440024688,1.5545780644886855,1.6121498870761017,0.4811620086386828,0.4736097829314076,0.4548847231624525
22.800032,0.6736767497150884,0.4052384523326332,0.13833061927761675,-1.159638291107084,-0.059186665020910696,1.5485060145015561,1.6058254519581459,0.4793606839211913,0.46602762930531444,0.46583467875232376
22.900016,0.6651763216485997,0.37181198599730514,0.13830932192805281,-1.1773374398114913,-0.05539720059881922,1.5417623755363505,1.6000476841372475,0.4762533617890457,0.4573686193231009,0.4790627619207102
23.000052,0.6572399937987286,0.33871316637310755,0.1383412049471957,-1.1934845733259918,-0.05087051489388221,1.5352200801246922,1.5889738875651167,0.47263222121626863,0.4491485320478746,0.49251789965309645
23.099999,0.6499327308901751,0.30846687801467854,0.13819921435247703,-1.2090400132132988,-0.04709115096292466,1.5275718862982908,1.580200420240225,0.4688508341178707,0.4410895299338038,0.5040142990053226
23.199951,0.6430130766484589,0.28260751381299787,0.13778223962503885,-1.2235281153697883,-0.04355345263397327,1.5180400935176126,1.5740015375725604,0.46521190251299077,0.43324433228113624,0.5127936773902164
23.300009,0.6366164551746447,0.2637657441738046,0.13710883036543,-1.2332943318690626,-0.04156276938049289,1.5082421257895868,1.5668894738589718,0.4628752867118244,0.4262674379219929,0.5191671847054463
23.400008,0.6300578843695708,0.25024613861858097,0.13644916351805925,-1.2382875708968137,-0.03873411418856643,1.4948725145662973,1.5610203971605159,0.46100079353000895,0.41968803690374484,0.5240350203503656
23.500012,0.6227858174498868,0.2395685158737339,0.13564435687891013,-1.238982871099158,-0.03711423935466911,1.4787024034039422,1.5501838812842694,0.45989435956698077,0.41268736214146795,0.5288445759983715
23.600013,0.616089887501716,0.23308598121192634,0.13400127730944633,-1.2324127543856915,-0.03665612701896078,1.4604512575635133,1.5417288399064746,0.45981149371577074,0.4059780371733458,0.5342148020646893
23.700009,0.6104153152060973,0.23301302381853803,0.13232848853788337,-1.2115831590219068,-0.036425158726800945,1.437835823953908,1.5352804920231933,0.46062704053762527,0.4004552452007511,0.5418189224045987
23.800013,0.6054266035644328,0.2339953028571312,0.13117947298900928,-1.1811035012839257,-0.036401049343670146,1.4132312515489318,1.5299273295918876,0.4613013131855294,0.3955461012622953,0.5529468356141495
23.900017,0.6010386467034614,0.23960906794604658,0.13088645460723147,-1.1368079063448329,-0.0363964603204605,1.385215238647002,1.5254168097455139,0.46220392758371553,0.39156187961129574,0.5671033936721088
23.99999,0.5974781913732432,0.25054281683684004,0.13082096632783433,-1.0849976468440767,-0.03640752676163301,1.3549615445335363,1.5201581783147438,0.46329558498216267,0.3882221997973297,0.5809952037392865
24.099995,0.5951972927706464,0.26875103778654813,0.13064144844367587,-1.0283562477828552,-0.036505581691463417,1.3236326929362787,1.5111097442770531,0.4650081753844942,0.385916979381223,0.5922479352449527
24.200021,0.593881689546115,0.2937630360988803,0.1300765203873619,-0.97005963206819,-0.036855077906360556,1.2896039477916008,1.5041258524043657,0.46722101605459393,0.3840988740478282,0.5995053550892925
24.300016,0.5928241372708689,0.3242117891789862,0.12894185733769886,-0.9101291675018781,-0.03774558044307676,1.2540658560248439,1.5001647850295605,0.47025893213451897,0.3823361684088734,0.6036316695461754
24.400015,0.5918341750330801,0.35624379670254547,0.12681599775014993,-0.8505447970983813,-0.0391719190575631,1.2178983094869846,1.495021965389574,0.4735692356414855,0.3799784824283561,0.6061417325332095
24.499997,0.5901449277227727,0.3860857147791402,0.12498228069665282,-0.7929626830235968,-0.041628080426359265,1.182754491463678,1.4879494250191296,0.476507700325609,0.37676071638985015,0.6088117316166863
24.599989,0.5874923428487282,0.4088006233346431,0.1230438051818145,-0.7431763275981469,-0.04415475652437707,1.1508884163988742,1.4805812919188064,0.4784051835606092,0.3723155726609582,0.612522861135289
24.699999,0.5825200901019001,0.41530281440976596,0.12174497320255533,-0.7169546185178954,-0.04450875389312392,1.1290988695954582,1.4699851753374005,0.4784209719026846,0.36674956512250534,0.617203526088203
24.800015,0.5751458173530031,0.41028943168725907,0.1213415594817068,-0.7129132543224347,-0.04450555192085295,1.1185266605938797,1.4620637636907718,0.47822054195859537,0.3607852172977007,0.6208847518738344
24.900012,0.5644269420249225,0.39306631540432,0.12122191948577622,-0.7330294473642284,-0.04446654908052266,1.117711741682898,1.4536875959142568,0.47798672428634786,0.3535159936507228,0.6230778293090844
25.000014,0.550344278333886,0.36186536527005525,0.12114422729054837,-0.7767193982186433,-0.04406185248521718,1.1201151180614106,1.4446914303314504,0.4760267417241422,0.3437049604109426,0.6243035263334454
25.100009,0.5351674456244488,0.32520851114717825,0.12110542636501233,-0.8261898641488075,-0.0428208999072519,1.126798302402436,1.433123854894257,0.4733649953112536,0.33334370878017067,0.6264461591202083
25.200017,0.5199647739880726,0.28487526481924513,0.12104930454532059,-0.8755785621449678,-0.03940703400955845,1.1387243484634093,1.423312278867789,0.46998284592242223,0.32340210352008986,0.6307380063434874
25.299994,0.5056150874114838,0.24570156696482767,0.12072890112795681,-0.9223312369657224,-0.035497648645822825,1.151696118388622,1.4141832660539895,0.46640863266088106,0.31405054930161913,0.6350487071348961
25.400016,0.49282249388220295,0.20805261381894657,0.12032456040779697,-0.9657571469569984,-0.03115392656815557,1.1663334269293657,1.404025006621263,0.4626550666570561,0.3058027917228535,0.6395621030115098
25.499993,0.4818995207581549,0.17600260530527873,0.11855496648922377,-1.0051726619241976,-0.02704981045013249,1.1776440453021817,1.3903870464279187,0.4593830551449195,0.2981490562391406,0.6419570074975419
25.600006,0.47229290528623535,0.15013673861019478,0.11608561619721955,-1.0400714846218295,-0.02388768617534608,1.1878579116083878,1.3779329352718919,0.45732113009271286,0.29129050587635563,0.6424705758954744
25.700016,0.46383366026234496,0.13172085764067948,0.11236442783761694,-1.0689924580287267,-0.02050335279770856,1.1977942453138697,1.3678436708877255,0.4570842490033534,0.28538033718938877,0.6412311632924336
25.800014,0.45690493992296977,0.12033972387250534,0.10734752762717382,-1.0920600738162607,-0.0183714192590727,1.2065151216377097,1.3573052820148812,0.458526581955278,0.2801008674986163,0.6384455009098328
25.900012,0.45083073119295086,0.11363389276268271,0.10255546071391579,-1.1110109478762333,-0.017359344905621795,1.214753685625679,1.3463506395691303,0.4609258848034504,0.2755654374955343,0.6347878726787218
26.000015,0.44452040647120683,0.1088217488704075,0.09924458327080474,-1.1278381288840253,-0.01675200674512541,1.2226736960251179,1.338500541171692,0.46344878308968146,0.27160987868527336,0.6309536195923502
26.099992,0.4388273646248198,0.10579507681013547,0.09644131846908535,-1.141934150987371,-0.01601093780802883,1.2324174001988943,1.3304018097181354,0.46643290630868417,0.26854785767689526,0.6274420109818134
26.199996,0.43425082327436293,0.10256422648919397,0.09348388102695016,-1.1567920465368218,-0.015422637344300239,1.2441253128440701,1.3230130186339009,0.4694196146846661,0.26603026089930587,0.6238561512637654
26.300015,0.4302654232560126,0.09801432807587665,0.09027303124590211,-1.1739792551677481,-0.014734569180905448,1.2560103303700252,1.3133786993360395,0.471899302934166,0.2634817178796935,0.6199704891782273
26.400015,0.42689734112144373,0.09385673380053677,0.08631233154460269,-1.1927147461524106,-0.013883190438691753,1.2695401335769585,1.3061470650445848,0.47469993083985823,0.26106019949259507,0.6153077287639144
26.500008,0.4230530832532,0.08554474386483066,0.08172082580706021,-1.2192143359289018,-0.012953160733996279,1.2868738237164052,1.2987814662012465,0.4771384285719844,0.25788341167251205,0.6098077335534191
26.600016,0.4183968379461938,0.07312371311532215,0.07664844648162814,-1.2503097583214415,-0.012023180261827839,1.3048441791098835,1.2908414198300178,0.47873055729347613,0.25351865688185077,0.6044999448345091
26.700003,0.4136159731061406,0.057797806697412094,0.07115156808627698,-1.2864534392884475,-0.011134162539685584,1.3267574257396482,1.2814806042938998,0.4801492582356215,0.2487450520897446,0.5987671238728147
26.799994,0.40922775629389446,0.037579716584429865,0.06531741454981457,-1.32974170073474,-0.009831194144132738,1.349896558926091,1.2698973538386955,0.4800598187451327,0.24338020347112652,0.592458103296013
26.899996,0.40622190263383146,0.013055152023865537,0.05823368561683892,-1.3795815762772976,-0.008129666647545863,1.3759752107208125,1.2613833795565708,0.4788634021956342,0.2376661022661574,0.5855582739709712
26.999999,0.4039690946832154,-0.014308024124268206,0.04993642251207611,-1.433061006254582,-0.006772404034478706,1.4032601042315633,1.2519871553047077,0.476893060505505,0.23118520885909616,0.5783450341192498
27.100013,0.4018528425520706,-0.04341190813430522,0.04073024526986747,-1.4881355902331,-0.005942200329455854,1.4298258743741243,1.2393603641502786,0.4742099544097221,0.22373898450244262,0.5709359236266136
27.200016,0.40006980787129026,-0.07281391412473144,0.030338675118853037,-1.5433596616283982,-0.0056210180001975895,1.4570569678081615,1.225829664842051,0.471487102961243,0.21562578053377554,0.5633220053167695
27.300038,0.39888042973728477,-0.10112772068860065,0.018808888108298866,-1.5970049765048189,-0.005566699952563713,1.4835321390944387,1.2142539516631956,0.4687818750283023,0.20713226644517976,0.5554647447259841
27.399992,0.3974627782480376,-0.127627311706703,0.006850452011721138,-1.647780439794489,-0.005569099679753573,1.507626219239306,1.202223109306662,0.46604608284748245,0.19828208268610226,0.5474889379243681
27.499995,0.3966889359267168,-0.15175441696550052,-0.0050672874684285305,-1.694835514432646,-0.005573148480982631,1.5309449771762818,1.1889843638938773,0.46353494342466955,0.18998909430703162,0.5397018451464777
27.600009,0.3958553786206756,-0.17248372979700402,-0.016797673937975655,-1.7370760657047983,-0.005592035243533825,1.5520191014608495,1.1791507297843573,0.46143342200608134,0.18203760162909446,0.5320469516575302
27.700008,0.3956837437767461,-0.19064882770098648,-0.02825357306135425,-1.7737158819042078,-0.0057353477765917284,1.571111667761935,1.1682003423340532,0.4596532938150878,0.17479807393099972,0.5254045560154339
27.799997,0.39533558285949927,-0.20418146407757895,-0.039350515979617445,-1.8034779969910195,-0.006117665866709793,1.5871667467039083,1.1553131078757946,0.4587338644868754,0.168045211826789,0.5193388118432335
27.900009,0.39516378770511246,-0.2132404902138307,-0.04953861671819946,-1.8257813186700902,-0.006803320731060084,1.6014621759149064,1.1455191104419515,0.4588902541528638,0.16229445481150934,0.5143865643538382
28.000046,0.39501488785549776,-0.21695487773245853,-0.059248904088097624,-1.8407219607046659,-0.008046712490626043,1.612865993975588,1.1376360673415897,0.4602158782481288,0.15716965785808787,0.5100335559291748
28.100016,0.3948480236328302,-0.2172301304544141,-0.06875841318497494,-1.851733703024866,-0.009336920136727489,1.6224962556883107,1.1293560805524505,0.46218323139589496,0.15239400140049142,0.5057005777903526
28.200013,0.3948140382592865,-0.2171906562468057,-0.07754455265594314,-1.8600196576440664,-0.010746106627230426,1.632150658832669,1.1188905454767375,0.46439645696732795,0.1481280066574997,0.5024996791046384
28.300066,0.3947538826892366,-0.2171765438586774,-0.08589383391047106,-1.8625136016805903,-0.01192439469953359,1.6394592151828375,1.1102114881758807,0.46687971981354326,0.1441686888330828,0.5018558151674803
28.400008,0.39466213883856527,-0.21715970005815355,-0.09348799174634223,-1.8645408823089324,-0.012727399980095718,1.6468245091384448,1.1044405159035322,0.4692770632710015,0.14063263282039254,0.5014430238294085
28.500003,0.3946489108895232,-0.21673317827294267,-0.10038274873612622,-1.868034938637085,-0.013536852363139201,1.654121139638445,1.0986493929252483,0.47135314443594667,0.13742043795913647,0.5001299005980209
28.599997,0.394651381094662,-0.21559050572824215,-0.1072266990222951,-1.873056169284716,-0.014392090820990655,1.6619739646071199,1.0929283449851952,0.4733739988807849,0.13423837866405494,0.4977819779906386
28.700033,0.39462986512968923,-0.21428227130978392,-0.11358589148737623,-1.8798836773163687,-0.015350597666599464,1.6732943232925337,1.086152459745523,0.4757307378014474,0.13139867700408595,0.4947962801224217
28.799996,0.39462824184678696,-0.21386786302611893,-0.11904072343185569,-1.8897206929030703,-0.016467700487129158,1.6834573545394924,1.0784441293929536,0.4770621205941983,0.1287431477653215,0.4907067056750412
28.899992,0.39463143279387336,-0.21390920974626362,-0.12402851926222622,-1.9046409263837885,-0.017782689253006852,1.6969535845101775,1.0739074703847635,0.4780248017308932,0.12625925040061445,0.48469523754705407
29.000015,0.39462850780271064,-0.2143152585499407,-0.12909195496353726,-1.926299207835743,-0.019168048997784373,1.7138096667881033,1.0710403193577795,0.47832674784516876,0.12363559734153654,0.4759128475089383
29.100016,0.3946285077908218,-0.215606944474761,-0.13403659583247593,-1.952846204661352,-0.020935271045777536,1.731095226226453,1.0684037267035917,0.4774870563641143,0.12077599993693507,0.4652482171269752
29.200012,0.39462175817708417,-0.21858403149073802,-0.13831237276170308,-1.9829976590078777,-0.023989492075336277,1.7504006082944572,1.065785714694488,0.4758511778681189,0.11787249154381872,0.4538598427720675
29.299999,0.39461567351953475,-0.2249309402275021,-0.1416064679246799,-2.0152785179090658,-0.027187770622798948,1.7703345444052054,1.0645422529850583,0.473121262249135,0.11520976299116935,0.4431526768578786
29.400012,0.3946241108434606,-0.23702581404250087,-0.14469217147614688,-2.04786204303852,-0.029188348105501284,1.791404728614565,1.0633702728263559,0.46965270700571005,0.11269948461181882,0.4351378146427507
29.500001,0.3946227630252811,-0.24969174678985964,-0.14819290484914152,-2.0766615764952365,-0.0316215388472363,1.8121685854303087,1.0625800504760514,0.46681699114100955,0.11006810292975067,0.4291138934848318
29.600007,0.3946130265031608,-0.2622575625832425,-0.15208398282705737,-2.1035910657356225,-0.03385808301830557,1.8343938613905502,1.0620812887449815,0.464631990226436,0.10749252054747571,0.42400454912444
29.699994,0.3946166940167871,-0.2701987256432428,-0.15561849895385968,-2.1285996654371657,-0.03593519280240266,1.8539679723035076,1.0616010837206993,0.462569559199909,0.10525860260148065,0.4173898448921728
29.800014,0.39461595948842115,-0.272112063185531,-0.15817053829118496,-2.1511693691845553,-0.03776449568284442,1.87388987426477,1.061115610237457,0.4613593425373789,0.10384710403355567,0.4091731098910407
29.900012,0.39462347908843337,-0.272087880145662,-0.159182815388227,-2.1718147197713082,-0.03840577654472094,1.8898847901553617,1.0609399603457577,0.45956929275879127,0.10326457866436524,0.400686055751052
29.999961,0.3946499015491578,-0.2720337375647962,-0.15934646415636045,-2.186461394672998,-0.03858301151684387,1.9042502906238516,1.0609167815588627,0.4587463117054609,0.10330247587389707,0.3949315092790369
30.100018,0.3946864991735502,-0.27144747221242643,-0.1593386404103065,-2.193084935541518,-0.03858557077523634,1.9166468136658812,1.0609078182510763,0.4595709366310003,0.10369862807464371,0.392580378682574
30.200007,0.3947592609673917,-0.2692941445039247,-0.1593216894772285,-2.1939645606845137,-0.03858661377210853,1.927447180392456,1.0609141846750916,0.46165153665831105,0.10431746783590212,0.39210192373453273
30.299961,0.3948747071849172,-0.2641156006822582,-0.15923468499730592,-2.193966668982704,-0.03857001143534427,1.9364268047955124,1.0609110713864711,0.4637356938347151,0.10500083429638132,0.3904761375937665
30.4,0.39513427928217637,-0.2538854083159986,-0.1588634161446337,-2.193588424456193,-0.03853445448642788,1.946753734705149,1.0609060576191454,0.46639345444158903,0.10607844647236146,0.38677480169130346
30.499951,0.39565176004627955,-0.23995409211159532,-0.15793393837400851,-2.191365883392101,-0.038312520697587005,1.9535000418547253,1.0609096705821937,0.46886418769690086,0.10752716211991324,0.38186155197573096
30.600014,0.3964057969025986,-0.22416271274046504,-0.15644003037924198,-2.1889728397938626,-0.03797886781322513,1.9599123969973453,1.0609027452417972,0.47124279681924713,0.1093774152007226,0.3760727801362215
30.700054,0.3973245886509705,-0.21129705674229532,-0.15497364020949078,-2.1858574526500454,-0.037414511897047045,1.9671691245391725,1.0609097850114098,0.4737970157292556,0.11135337291241924,0.37203822669055164
30.800015,0.3980666939630704,-0.20152986648706925,-0.1533122158095842,-2.184865595349347,-0.0368055804660906,1.9751841540564679,1.060907512159829,0.4757534414012775,0.1132196336776594,0.3685208117500324
30.900007,0.39873107180017753,-0.19514815072126399,-0.1521578245003152,-2.1847917118465823,-0.03598312108871703,1.9872318839097647,1.0609036158382337,0.47818985545202264,0.1149639079299418,0.3665269364242029
31.000022,0.39897772339041077,-0.18920357321802744,-0.1519190946016769,-2.1857723261845727,-0.035104666294786285,1.9994800799876074,1.0609113002502688,0.48048160061728273,0.11602163331782475,0.3642486698195443
31.100013,0.3989852836117548,-0.18604779404873376,-0.15191943693993226,-2.1933970040757464,-0.03462381979789402,2.0151451342875943,1.0609054296830478,0.48150714690715424,0.11653667088685508,0.3604991192305204
31.200015,0.3989771924344756,-0.1854487102335914,-0.15197910968968456,-2.2077653013371,-0.03454846106709222,2.0337078883236606,1.0609035014063712,0.4810442274395049,0.11665934198447929,0.35509249842185064
31.300013,0.3989772208361983,-0.18529700345518593,-0.1523026870020392,-2.227276868982928,-0.03454472183148931,2.0523661807208895,1.0609099128089103,0.4789799701286085,0.11630339278184042,0.3475156229041187
31.400034,0.3989621066834596,-0.18501559050802124,-0.15330068273181016,-2.2496929545243662,-0.03454734690689119,2.0739137567929755,1.0609156170949994,0.4765286640992276,0.11555712389843353,0.33880900394679186
31.500016,0.3989305267954151,-0.18480816705844935,-0.15548492544863052,-2.273350083460525,-0.034550040539979676,2.095432583284234,1.060906239461752,0.47361619292692864,0.11412621756427965,0.3296003854929842
31.600006,0.39880551633542705,-0.18474047880688202,-0.15899850589950795,-2.297182144744249,-0.03456661875901677,2.1183695224071153,1.0608829916748566,0.47087761496900227,0.11207100570802306,0.3205538440925324
31.700009,0.3985769991884905,-0.1847292677118338,-0.16311500462343226,-2.3201993092739155,-0.03460469220519052,2.1409567288403126,1.0608648912225733,0.4682032578539135,0.10970897500696232,0.3119399592962474
31.800016,0.398530187200556,-0.18465298243605968,-0.16708377949251343,-2.341916652271465,-0.03473596752162692,2.1626112240845092,1.0608220460270117,0.4655518873084875,0.10751877224826281,0.303877116899707
31.900017,0.39852661472666384,-0.18434334451540596,-0.17065635273647772,-2.361840161388477,-0.034817537392738844,2.1838437541793048,1.0573921354434495,0.4632158532784533,0.10562562028965969,0.2965508941138765
32.000013,0.39852160684644844,-0.1835264587856695,-0.1736744575357433,-2.3789095202673702,-0.03494771632200719,2.2026791057367974,1.0542864767295892,0.46119768893245333,0.10403300533601334,0.2901252043788389
32.100058,0.3985173518604855,-0.18033073025727372,-0.1758347129266152,-2.391507070426673,-0.03496705063937143,2.219455645217528,1.0536507330652585,0.46009333534164487,0.10298881634362227,0.28447064390397997
32.200017,0.3985260560556716,-0.17623826852630425,-0.17650754469223529,-2.40156200685706,-0.03497316594600939,2.233078316714647,1.0535486335942672,0.4590157706445233,0.10259550529590192,0.2793077011045184
32.300049,0.39854868898283813,-0.17151698902891951,-0.17651041799757874,-2.4079706457876044,-0.03496449676725796,2.2438457905086744,1.0535388485134598,0.4585627902519222,0.10259139087688635,0.2752470253130269
32.399961,0.3985781133827216,-0.16332281197841764,-0.176478705919773,-2.4086618106991993,-0.03494738272453871,2.2543675954105336,1.0535337997252305,0.4599889565276724,0.10291817796792675,0.27208667002856735
32.500018,0.39899545085497945,-0.153428047592944,-0.1761773366313686,-2.4087550523050894,-0.034927466355842374,2.2637818576806663,1.0535388148544653,0.4612231534539426,0.10348032461319116,0.26829475284593995
32.600005,0.3997892138317245,-0.14403489616331566,-0.17527767384963688,-2.4086829780341286,-0.034627977623105266,2.2701201067050105,1.053531641302865,0.46178539101680105,0.10436867987199872,0.26452839016302715
32.699998,0.4012863141321832,-0.13281298667524322,-0.174085300577574,-2.407468124398417,-0.03322991164975373,2.277246864126766,1.0535293285703171,0.4626657658940919,0.10589457637290776,0.26046435787270333
32.799999,0.4033583083181015,-0.11730967663259623,-0.17269291174830298,-2.403144732484248,-0.030560477862793554,2.2832546086170677,1.05353716727459,0.46407736464415045,0.1079623757404412,0.25561486284696155
32.900018,0.40543896735478996,-0.09873748624914269,-0.17098351909734164,-2.393992511499925,-0.02645908647089605,2.2910295011738975,1.0535394395007769,0.4673979854931236,0.11072299696872137,0.251488442723551
33.000018,0.4069746575656129,-0.07841019827408988,-0.16942627131283844,-2.382029382926396,-0.022241067097677713,2.3013349372954,1.0535370572753688,0.47223206705934856,0.11350686423695135,0.247846612018298
33.099999,0.40776376634984307,-0.056055887001900104,-0.1687682925854073,-2.3684110611373748,-0.01594035269501445,2.3104922853126224,1.0535368302756658,0.47741000309414133,0.11574183030022149,0.24370353070135445
33.200016,0.40776063758706904,-0.030268018899687433,-0.16877424211925932,-2.353195443685506,-0.010655298625110388,2.3222819410140225,1.0535270750755334,0.4836101115690515,0.11733351015667458,0.23864152134950606
33.299932,0.40774630341563445,-0.0005114104414331018,-0.16875959733739818,-2.336853578271194,-0.00457161077075557,2.336170356125972,1.0527380568020002,0.4902367005093137,0.11902462679870092,0.23208290919932084
33.400015,0.40742426641167917,0.03300854021271504,-0.16877337246209403,-2.31901854327133,0.0032426651712922855,2.350229845713219,1.0430636407343785,0.4970253498210162,0.12063875219601819,0.22403034850970874
33.500016,0.4060509631524653,0.06842235258181412,-0.16883072691155696,-2.3001793946845805,0.011001872379400587,2.363654814876368,1.0282297717175857,0.5038716853310645,0.12159703167844912,0.21507815556305787
33.600002,0.40272719861575357,0.10463413954296885,-0.16902920088629175,-2.2803098860008926,0.020341373651602736,2.3788514642198537,1.0154522559005634,0.511459779720788,0.12165674581730007,0.20596988624810747
33.700007,0.3964296207722193,0.14134300678007572,-0.16906781023504058,-2.258886619591189,0.029157929583036108,2.391021874318319,1.000694661778367,0.5191698097225507,0.12007170043169434,0.19663488221264436
33.80001,0.38747260570603353,0.1765500255350781,-0.16909959895064178,-2.2363527976762927,0.037508902676257776,2.4026409088309033,0.9858427430652636,0.5275449604940016,0.11705492623519877,0.1881547691345556
33.900003,0.37740572318727017,0.21021437611387406,-0.16909609525310512,-2.2135732768206924,0.046098293514274385,2.414278341252541,0.9729782666675061,0.5361559871159655,0.11338717978735284,0.18028194295261557
34.000008,0.36695402267768185,0.2422745197093233,-0.16904664150520177,-2.1909667495536556,0.05231340606103909,2.42348662382032,0.9582181327844068,0.5442840854105735,0.10913875629359247,0.17270827568629055
34.100014,0.35651305126063637,0.2715644930973576,-0.1690073505895665,-2.1691673296479292,0.05961154496085322,2.4297059121235383,0.9472704101056428,0.5516510372081719,0.10475692760645376,0.16581717779715327
34.200045,0.3466983500353727,0.2974454125728837,-0.1686372463748418,-2.149485682897886,0.0656029915395997,2.4349036615229838,0.9375957331375944,0.558157408021325,0.10061609718834799,0.15967056132892843
34.299997,0.3373252648310499,0.31926222164544715,-0.16672976930535546,-2.131355316919553,0.0686232558935786,2.4376734625562255,0.9268580346537665,0.5638165425655397,0.09731719614782312,0.15477324852301663
34.400018,0.3287200103602759,0.3367132245864794,-0.16422993637808136,-2.1153115609208055,0.07094038059841454,2.4393683291893793,0.9164272872154596,0.5688391820670302,0.09470475401430678,0.15129226514069488
34.499997,0.3205956647363458,0.35035626261820574,-0.1610257417369998,-2.102878227461361,0.07246491126005909,2.440884229262917,0.9102177949663962,0.5727061670044754,0.09254841794327386,0.14844216745888889
34.599996,0.31228537161699826,0.3604829445002089,-0.15676652125410231,-2.091870844003612,0.07293758575320879,2.442772213716966,0.9054136444877973,0.5765107488068292,0.09089073880297865,0.146998969025073
34.699995,0.3033528315697862,0.3690958626887343,-0.1527887181841804,-2.084196139914306,0.07312083726429865,2.445389678383678,0.8989649355328763,0.5793188899592089,0.08844430546484104,0.14515730763012652
34.800016,0.294198085144041,0.3753634236080867,-0.15001865248785154,-2.0799508691754154,0.07320952294550337,2.449880461344132,0.892803270503363,0.5815312153243692,0.0849601439446818,0.1435048681795859
34.900009,0.2840486747745882,0.3798495899052517,-0.1469684269692012,-2.078914777824699,0.07325897561899473,2.4565117899632734,0.8838851047419536,0.5831077975231918,0.08089499952682438,0.14179296939168892
35.000017,0.2738547533260489,0.3861929391549869,-0.14489974753914187,-2.078747416644799,0.07330230616837245,2.4633355860755435,0.8768831009795536,0.5840431480716131,0.07601855826219829,0.13870279307558675
35.100024,0.2627394311316821,0.3933301815567045,-0.14177895089354625,-2.0803121663192012,0.07333662118341176,2.4728165172371472,0.8708184929964753,0.5845142840055483,0.07109889472838876,0.13467108613683973
35.200015,0.2497282854010473,0.39840711512800814,-0.13646108210106758,-2.0861526822163996,0.07335350834543919,2.4866862204034668,0.8629100330148457,0.5842300400995004,0.06625313211144694,0.130501218236723
35.299996,0.2353194211354715,0.4027330834779234,-0.1307054798371887,-2.0958860948216436,0.0733597454625349,2.5050917485720237,0.8530394324190341,0.5832200159536399,0.06068403285307447,0.12568462028192515
35.400005,0.21918195412411026,0.4094886415223209,-0.12445520559646342,-2.1070281302569533,0.07356403254782971,2.5266977492343288,0.8387576796535783,0.5816570852904739,0.054280710048322314,0.1192500282903739
35.500034,0.2012799036680462,0.42108719961721625,-0.11810528445881914,-2.1212648823788585,0.07398695170167074,2.551153030126878,0.8247293038472863,0.5780681823477613,0.046587573187501084,0.1091905973602108
35.600013,0.18073991743216639,0.4357995792932774,-0.11083251395695079,-2.136976392374256,0.07417081413966348,2.5778351671762616,0.8108246401586855,0.5732400995978998,0.037840187286561626,0.09713301271526392
35.700008,0.1581890780336836,0.452647770303419,-0.10278325801799686,-2.1523459222437578,0.07420771366463302,2.6042393586471215,0.7952914125487373,0.5675825135137879,0.028526214770372198,0.08415170131787775
35.800004,0.1353645114124378,0.4687858737226073,-0.0946997322685699,-2.1671946568085603,0.0742155525822913,2.6328623031549916,0.78200120676917,0.5623432978710499,0.01934511957473488,0.0721783140952686
35.900018,0.11183575025634865,0.4857201663539228,-0.08569495645416327,-2.179448854532863,0.07421665816206667,2.661045491749399,0.7681384712662146,0.5576542352803235,0.01062653783228151,0.060801265861716594
36.000031,0.0886715649458663,0.5016862608977656,-0.07691679164874222,-2.189437750997783,0.07421974292171901,2.688342853164413,0.754379282281643,0.5538174372141006,0.0022733966107814367,0.05082640331319738
36.100018,0.06734988538536978,0.517152178301716,-0.0692238809219106,-2.197913593512912,0.07422542839937586,2.7137570115505825,0.7435958196907616,0.5501961284386696,-0.0054973767428966695,0.041626428041271826
36.200013,0.04795267384364265,0.5334924075680848,-0.06253376047542607,-2.203716884136292,0.0741725045956043,2.7375475220107632,0.7323318130479972,0.547115101244404,-0.012644921929032321,0.03279983026015236
36.300018,0.03131286983196411,0.5458321573115532,-0.056764521585186384,-2.209024513857982,0.07404330746161517,2.7583934892597672,0.7205929131145814,0.544691387583952,-0.018640145084105452,0.026156576980073024
36.400015,0.02500673852556313,0.5465740833885125,-0.054490666061303025,-2.2096968916464923,0.07374136092946365,2.764743976937347,0.7176451942809912,0.5453349511950785,-0.02077638994028922,0.026071702600042657
36.500016,0.02397136157481908,0.5465830427002635,-0.053676874294640395,-2.2097491334873722,0.0736244607193054,2.7654481616587128,0.7175565227311281,0.5454409800597039,-0.020844752645221717,0.026099639099847805
36.600018,0.02381686518801456,0.5465868698593634,-0.0529406439437067,-2.209759244026985,0.07306207979079335,2.7659171970773384,0.7175374605822995,0.545539465513751,-0.020474731966717463,0.026123868486471635
36.700196,0.02378798069850086,0.5465851573978416,-0.05254761866841971,-2.2097667081519643,0.07297530423191664,2.7660924459599476,0.7175264634242194,0.5455910367151737,-0.020132289274509073,0.026132145165176535
36.800018,0.02371275664382346,0.5465898773284066,-0.05206842120697859,-2.2097692461948606,0.07290463032951816,2.766206912334648,0.7175215951564637,0.5456033533346545,-0.019990555038365235,0.026130249151912685
36.899995,0.023672088211055473,0.5465868698950292,-0.05197682864072687,-2.2097747813613613,0.07288987677745776,2.7662333527923337,0.7175247193242461,0.5456072430179059,-0.019955829237405454,0.026130990061656728
37.000018,0.02363426195934798,0.546586869889305,-0.05193026064331722,-2.2097720175528757,0.07288104630932889,2.766251844190961,0.7175147014474936,0.5456124438528568,-0.01994764367610138,0.026132726158990996
37.100016,0.02360251201007477,0.5465868689200168,-0.05189077567660434,-2.2097684397721298,0.07287386491419261,2.7662599436445814,0.7175175698672696,0.5456159393144147,-0.019940391520322346,0.026133898219605906
37.200011,0.023583180406712596,0.5465844515218741,-0.05186681975141235,-2.2097736307734985,0.07287018735042985,2.766263414635272,0.7175140359509089,0.5456145646025997,-0.019935968176188125,0.026133506048866523
37.300011,0.023554346279189252,0.5465831474988286,-0.051847869331915646,-2.2097737366286228,0.07286667172286718,2.7662678167095334,0.717513095619772,0.5456155043248325,-0.01993990064925863,0.026134258738875815
37.399994,0.023544833767821283,0.5466416839533937,-0.051523307804615774,-2.2102514104238167,0.07286591198904611,2.7662616475336743,0.7175136877602497,0.5453450211607025,-0.01974110507175637,0.025947757675142
37.499998,0.023545964118908302,0.5466597111057991,-0.05106729900949184,-2.210947546198806,0.07286304019060351,2.7662577511941224,0.7175112266548419,0.5449723798187359,-0.019453586032735906,0.0257136697930785
37.599994,0.02354700521956816,0.546659709730958,-0.050803682115235095,-2.2110938852983444,0.07286286824019556,2.7662548197196415,0.7175064157317319,0.544896889472362,-0.019287782804936107,0.02566357284702063
37.700019,0.023545229498008375,0.5466588390553737,-0.05061311531482433,-2.2111171036330393,0.07285783394690255,2.7662593688472534,0.7175069771205367,0.5448880688480825,-0.019169604585616114,0.025654075798887246
37.800013,0.023541337431698672,0.5466561347326669,-0.050480562247613533,-2.2111258361618873,0.07285641447062935,2.7662553168098887,0.7175081961824898,0.5448849768441677,-0.0190887314144154,0.025650271149874504
37.900008,0.023541671849478907,0.5466606663628448,-0.05038618203213032,-2.2111339498623757,0.07285380089575468,2.7662577468511937,0.7175151223304149,0.5448809408324603,-0.01902958843928387,0.02564394157415671
38.000001,0.02354084317936457,0.5466589538674494,-0.0503103957522888,-2.2111311585653124,0.07285135967692791,2.7662577497558454,0.7175112266368958,0.5448838913931427,-0.018982640553653764,0.025644486266021047
38.099998,0.023534932178602985,0.5466552438910924,-0.050231492430233185,-2.211139689275366,0.07284900339303577,2.7662581541612483,0.7175127418909331,0.544881422916382,-0.01893648056904569,0.025642591284502664
38.200007,0.023538775525804235,0.5466552444402614,-0.05015811371646628,-2.2111398082918288,0.07284764539638224,2.7662555763286414,0.7175134988630087,0.5448818038897768,-0.01888845578075016,0.025641111512738055
38.300011,0.02353582477067161,0.5466591932654306,-0.05008538801776875,-2.2111405535536335,0.07284713206547977,2.7662569935760457,0.7175110675631778,0.5448813308800705,-0.018844645383686055,0.025637660736657894
38.400017,0.023534448073838237,0.546656956400602,-0.05001637504235858,-2.211139164695998,0.07284864722941493,2.7662583518440815,0.7175104689649627,0.544883868330539,-0.018802266912925938,0.025638296418075288
38.499954,0.023527257347631357,0.5466573037262771,-0.04997473420621815,-2.2111338259066247,0.07284695435539969,2.766256992137782,0.7175127418369598,0.5448867109641305,-0.01878013216357615,0.02563895747643799
38.599998,0.0235295436475917,0.5466613816567227,-0.04994902599073797,-2.2111431688082783,0.0728436180609041,2.766257397999369,0.7175078760651584,0.5448809050471692,-0.018762814020484773,0.02563345311367174
38.700014,0.023527066875476243,0.54665896269603,-0.04993399996837877,-2.2111419328225823,0.07284902820642811,2.766259361597458,0.71750814503845,0.5448828549528909,-0.018754815795229654,0.025635083472643247
38.800016,0.023472999877825588,0.5466814818311052,-0.04988801066272236,-2.211141340165084,0.07284451752454234,2.766318209003101,0.7175057006678308,0.544888087079833,-0.01875674030516303,0.0256275563738685
38.900009,0.020110592423519858,0.548894649556605,-0.047678242838683306,-2.2116557125799425,0.07284496211194627,2.7757656943257194,0.716853032351105,0.5458653008839967,-0.01939533556632317,0.025083884074750054
39.000014,0.012342996582980449,0.5566599143783315,-0.045056254279703854,-2.2124502210961583,0.07283538066799398,2.7868404204527795,0.7107425450324608,0.5452159002208283,-0.02223688032931492,0.021579536358376103
39.100008,0.0031135765301531842,0.5681198513664462,-0.04459992560065772,-2.2143399741203846,0.07283297102739378,2.7950933736346366,0.7027834152267514,0.5420922608737073,-0.027149772929988505,0.015521235143319878
39.200018,-0.005912612558008645,0.5791940506485577,-0.04460289633084618,-2.2185217765742062,0.07282859400352672,2.7991863487186963,0.697984242545488,0.5368584812635077,-0.03205044682207728,0.008661929229343918
39.300012,-0.011718343949036907,0.584460990790683,-0.04462354772396078,-2.222111098728567,0.07281272606887537,2.8010443544507955,0.6956002830407118,0.5333771087409188,-0.03513514844742906,0.004952390212880589
39.400008,-0.012744493521965786,0.5844697609484995,-0.04455410281428369,-2.2223423896084045,0.07276795905153115,2.8020567597761508,0.6952100115333778,0.5334257277440799,-0.03565894025861763,0.0049675186903186674
39.500043,-0.01273059821050988,0.5844074161962481,-0.043897507831006544,-2.2223381989009483,0.07073761887165544,2.802062725954949,0.695169660016033,0.5334741934105616,-0.035215056342308294,0.004992148739427299
39.599998,-0.012224832973958334,0.584050611698248,-0.04350642844275492,-2.222292486945756,0.06929645980619062,2.8009610777790344,0.6951665559950064,0.5334176018393315,-0.034658019790365674,0.005093751352314449
39.700001,-0.010513450170785811,0.5818002256789132,-0.04351562487118347,-2.2221005354440293,0.06902154510152013,2.79588578637518,0.6951634567268032,0.5332544030921103,-0.03363958534074915,0.005910039012935284
39.800006,-0.005421909063315887,0.5759827702443147,-0.043611408983793724,-2.221243607510703,0.06899008824642087,2.7863282227099093,0.6951610591341407,0.5337727437125858,-0.03079275163668454,0.00844266467523537
39.900017,0.004909023184607603,0.5665280390388905,-0.044033761645038465,-2.218991907706759,0.06898617132477836,2.772520969881264,0.6951901826208354,0.5354211321960122,-0.02526693877441665,0.012984019304413591
40.000006,0.021135903433712827,0.5546739691506032,-0.04617236032644654,-2.214881950156036,0.06899670227722786,2.7592430207410636,0.6960220560483406,0.5389185064734185,-0.01760907419111112,0.019472473405915486
40.100013,0.04178702957294286,0.5403877284261647,-0.050138602940415326,-2.2091066959278347,0.06908366836311321,2.74293757182444,0.6985108836765114,0.5432515317052923,-0.008498127930066475,0.027613390980477118
40.200007,0.06427421891222938,0.5261130085361411,-0.05541977715911808,-2.203024005502709,0.06948507423690505,2.7257065703029095,0.7035216746998202,0.5472661184061246,0.0009849255244562044,0.03587458760799797
40.300016,0.08622919973610459,0.5127635021345256,-0.06086071108045803,-2.1963674247444755,0.0703126650976857,2.707107036876041,0.7101059667319574,0.5507250444366195,0.010256075514837508,0.04378567598114906
40.400011,0.10801816018582386,0.49965786800540063,-0.06743152663278937,-2.1906506276422437,0.07120730178907865,2.687092128271004,0.7215181840872,0.5530739232730925,0.018852968604077244,0.051236884069616975
40.500023,0.129243190101515,0.4868376406312633,-0.07439607144847202,-2.1851605226476325,0.07174521594334196,2.6674154959837093,0.7330606751249669,0.5550695958271455,0.026984320036911227,0.05856591702648177
40.600034,0.14908841218828991,0.47297854285154456,-0.08101753056698266,-2.180419313225231,0.07220150167976319,2.647233489750392,0.7455754963028257,0.5566405113699048,0.034657125179627574,0.06623397371919676
40.699996,0.16777383457630776,0.45812274773864625,-0.08700543598365415,-2.176904869648904,0.07232092539320496,2.62773381900165,0.760854609133059,0.557764842063994,0.04211583703029091,0.07413844494440039
40.800016,0.18514068409279621,0.44111309155738443,-0.09171948721579659,-2.1735929055743535,0.07232084762188604,2.60848048876415,0.7759943274940433,0.5591136354517812,0.04975488784694943,0.08321195345410143
40.900017,0.20201002132456983,0.423724880524585,-0.09594489918616358,-2.1722300205296348,0.0723229014578088,2.59138874449464,0.788723302461944,0.5597637127658897,0.05736317058815037,0.09202310849127565
41.000014,0.21837793776439365,0.40535664793350373,-0.10100337074314043,-2.1722495422252472,0.07231585662495524,2.5742101220857685,0.8020476814315408,0.5597811724338784,0.06415335878570852,0.1009136366037308
41.100017,0.23333297972061734,0.3856518153562618,-0.10597257576341082,-2.173441890270316,0.07228809220445144,2.5601039974548088,0.8130198157721416,0.5600152704594867,0.07023731618491344,0.11039408777322746
41.200015,0.24670479478897678,0.3639921928868,-0.11050990240944608,-2.178224379646827,0.07212649926576938,2.546955844937421,0.8236758894770017,0.558994767394462,0.07551228231142988,0.11969192100415882
41.300006,0.2594257121485965,0.34007995980078526,-0.11576519011770713,-2.1890252713763427,0.07170610593834262,2.533924795938578,0.8345480815540743,0.5555242274940756,0.07956917987755106,0.12793995883153345
41.399996,0.27099531441987945,0.31713602527817575,-0.12037079879280171,-2.2009354540791093,0.07051396221614381,2.5224731864032193,0.8467188156882581,0.5515319291215817,0.08316518084085385,0.13523632984999107
41.500016,0.2820871807326153,0.29419151399416293,-0.12508664552275103,-2.2135669760989662,0.06858681135308449,2.511517621308824,0.8558466290940783,0.5472104865533564,0.08628691996381097,0.1421796841276246
41.600005,0.2924038445638727,0.27026244576112507,-0.1293855434823449,-2.2274083292006415,0.0656737794814301,2.4986183007750435,0.8653926795841588,0.5419934441709817,0.0890094570862199,0.1488811723099034
41.70006,0.30114637877105505,0.24587969084615502,-0.13197305966237752,-2.2407768153516154,0.061691742287649884,2.4886838175195356,0.8763252421670882,0.5375240636597435,0.09185696014975701,0.15609808975729128
41.80002,0.30913559887553327,0.22048027798040612,-0.13417504662073848,-2.2541787040836576,0.056916506458088996,2.4764709594866923,0.8867697747966059,0.5326250028525218,0.09437909167340605,0.1634912088128352
41.900015,0.3161555470510197,0.1948502161912247,-0.13490608823385436,-2.266509475905858,0.0496938834974411,2.464061665123872,0.89601801552608,0.5280148738586988,0.09705645228019227,0.17123335485331184
42.000011,0.32237165526873923,0.16954485270095193,-0.1348893109201988,-2.278367257433581,0.04322949491636081,2.4516026226187284,0.9063829027618119,0.5234020349603415,0.09967588314288683,0.17882876907086015
42.099998,0.32769709967487753,0.14546456971581928,-0.13487382904470038,-2.2873536202522917,0.037253868491196176,2.438124601252386,0.9199832294636656,0.5196107952862377,0.10192562709913017,0.1867006876975367
42.200017,0.3324034493017792,0.12124104797572606,-0.13466121288837712,-2.296507975826344,0.03093126464783655,2.422804237351513,0.931005818585013,0.5152935595011107,0.1037519824930421,0.1942940234722829
42.300017,0.337440958068367,0.09836742342519113,-0.13398588716577875,-2.3039178381061753,0.027007463649457955,2.4082968191550935,0.9410042993343208,0.5114741701091572,0.10618683252028861,0.20185025063749915
42.399991,0.341664005172103,0.07670792843096001,-0.13206195774193324,-2.3088415734816294,0.02306257969251692,2.3926416662965755,0.9508749779167428,0.5081445366968044,0.10888457491809125,0.2095972742260152
42.499998,0.34470280351411886,0.05436743715526256,-0.12877018619566596,-2.3149661175352905,0.01813089932441965,2.37586408367595,0.9618494336618103,0.5040153698350084,0.11135696703178978,0.21701103878792108
42.599963,0.34666225538012924,0.0329481365754009,-0.12475743930945966,-2.3200898107415635,0.014035018825417054,2.3591513859784197,0.9693344930588672,0.500117946707217,0.11365146270570224,0.2242944022431286
42.700001,0.34787936324054713,0.012279404660338195,-0.12060665838528724,-2.323679840492536,0.010870486806248629,2.3413454016180526,0.9773992653183758,0.49648075341186243,0.11567186928911678,0.2316749973384234
42.800004,0.34804742293349644,-0.008438836939321246,-0.11620641207527332,-2.3264872023496017,0.007247111673971484,2.3245611488786477,0.9839595356030797,0.49335203684339535,0.1172636166477499,0.23944266576798318
42.899992,0.34804520620368606,-0.029778388672329254,-0.11180235096933372,-2.328810583090436,0.004504485722356892,2.30627139278221,0.9912131161798494,0.490030874885266,0.1187359420516447,0.24753569299156009
43.000017,0.34804424675283907,-0.050993056031116375,-0.10757691834589635,-2.331086598781327,0.0019364816212305294,2.2890591876212834,0.9971407459116116,0.4868158360431552,0.12008119890100737,0.2556192465687034
43.100029,0.34803540004712424,-0.07237829381619149,-0.10457417354208497,-2.3334055014340267,-0.00038244024662582843,2.270823189147415,0.9988651967051437,0.4833900984862933,0.1207066872949377,0.263605299165744
43.200016,0.34792862546063796,-0.09441118511111798,-0.10360236329696844,-2.337603851653599,-0.0035470928421383182,2.252947170056307,0.9990595814462028,0.479510393819375,0.12000712620371143,0.27102712040278315
43.300016,0.3473566934674531,-0.11593260915316894,-0.10361549772003963,-2.3419494595778447,-0.006732532940854542,2.2339520175114713,0.9990771034062775,0.47537209115110635,0.11847130859526885,0.27792962933793885
43.400015,0.3457476239118124,-0.13688688655505715,-0.10365808617570438,-2.3445963516899715,-0.009640258034462397,2.214884013276764,0.999077803244344,0.47181271750426135,0.11653692966093515,0.2852120528886995
43.499991,0.34228746863087367,-0.15665467909444905,-0.10385932747037617,-2.3453596227723237,-0.012178971022853032,2.1960095983899084,0.9990738934165567,0.46900969175445234,0.1137986518062594,0.29270167171926076
43.599991,0.33706757761960865,-0.17599600168285995,-0.10458007896469325,-2.345471846994523,-0.014174463886578153,2.1764999027070924,0.9990835676225368,0.4663827367681028,0.11004185193247627,0.30015103292638423
43.700014,0.3314287473881928,-0.19472481615596438,-0.1062527330935052,-2.345367803361402,-0.01645488268981624,2.157273267897697,0.9990831903167033,0.4638629534459838,0.10562912625536781,0.307356809114281
43.800017,0.3262954664852407,-0.21161649620245526,-0.10893243966724873,-2.3443369058768866,-0.018933014109441433,2.13716371941649,0.9990827296518101,0.4613320330650696,0.1009701479852224,0.31396766928519587
43.899951,0.32150117434524805,-0.22386188930217235,-0.11198898861771955,-2.3400844876324944,-0.020872333059120535,2.1171720516737427,0.9990632459441056,0.45967525417207517,0.09654575451711399,0.3198443682613367
44.000015,0.3169783675769991,-0.23442423732341358,-0.11551950346750765,-2.3321589283990027,-0.023588974669294153,2.096788934083906,0.9985264775111058,0.45903994927577463,0.09210406790584978,0.3265735807097228
44.100014,0.3128431643233425,-0.2421540598058283,-0.11995565698173344,-2.3199651247620423,-0.026256390790965988,2.0768322250938653,0.9970923886054909,0.4597531083681942,0.08763850446981147,0.3339892788065018
44.200011,0.31048908139253956,-0.24635103952244553,-0.12596848897010227,-2.3045625477565452,-0.027626948829792417,2.0572208734976845,0.9951932736672447,0.46134047329559225,0.08357104628726537,0.341283740935906
44.299991,0.3090639770150084,-0.2472459347763261,-0.13198063489233516,-2.2867034147716945,-0.028871631294382465,2.037682339212028,0.9923789295906896,0.46350267784974675,0.07999515338846554,0.3482215315034434
44.400025,0.30842985470475087,-0.24725840461586726,-0.13758168159200557,-2.2679817915389457,-0.030321945098939714,2.0178972456963695,0.9886097407108313,0.4656558792249823,0.0768952308222712,0.3551652048907774
44.500012,0.3082182654968559,-0.2472521389225327,-0.14239853662141683,-2.247810497586834,-0.03153079355861807,1.9978612449748112,0.9852811112453432,0.4679446370992212,0.07435784829840208,0.362801290674611
44.600014,0.3082132886221445,-0.24724655922532474,-0.14738219508554234,-2.225869834084375,-0.03247554879772587,1.9784745145846316,0.9808070000604787,0.47070578244033184,0.07188888024545284,0.371357525634869
44.700014,0.3082003625088954,-0.2472407213568769,-0.15344850837946566,-2.2032262065160393,-0.033364883542829564,1.959280901980807,0.9745628825695171,0.4735889201366444,0.06886186282646958,0.38027763340358955
44.800014,0.3081709835742647,-0.2472177937447246,-0.16041386371114974,-2.1807078311483994,-0.03425153742381708,1.9397993040395993,0.9667569105397976,0.47623386954062114,0.06529596469739174,0.3891173895592967
44.900005,0.30780327052330925,-0.24717205372666864,-0.1671452675252214,-2.1592989098882773,-0.03548999858470287,1.9203887941189366,0.9569615137411287,0.4784077057044203,0.06150927982847796,0.39745046268093925
45.000016,0.30746720507545927,-0.24716406889219858,-0.1739625038898424,-2.139383169301381,-0.03714689525743446,1.900904301459486,0.951261418850321,0.48000135201109556,0.057516494068528774,0.4050934940519132
45.100014,0.307338307155611,-0.24716145143410434,-0.18186459575625044,-2.1209381475501754,-0.03893344911572503,1.8815153849788877,0.9457047280053555,0.4811281425394242,0.05298891084899941,0.4120265727649513
45.200018,0.3069065561408114,-0.2471994991482724,-0.19100694093432977,-2.1044617128657874,-0.04207096769244781,1.8619180013536676,0.9363270781783264,0.48168035936851994,0.04738971924606831,0.41798754475580946
45.300015,0.30574611476080715,-0.24759812272163292,-0.2008445239330127,-2.090748409966773,-0.04638826399333824,1.8423303221207434,0.9232530946960972,0.4814789612830898,0.04081388245160547,0.4227760647283041
45.400004,0.3045754562155114,-0.2514191161269923,-0.21122056400455475,-2.080684848557076,-0.05043815212782205,1.82183461725647,0.9115845413791547,0.4797899947315765,0.03386388415378247,0.42733178910787695
45.500035,0.3027345436276317,-0.26216507609361733,-0.22196385994495796,-2.0719489011737253,-0.05484981936867325,1.8013932677114388,0.9009622222243411,0.4770255868081172,0.02614207700350839,0.4344449160466739
45.599978,0.30085876733148265,-0.2751448827153711,-0.23348268321816024,-2.0595755393040545,-0.06031555193060985,1.7814093095806185,0.8882690036262518,0.4747156663674209,0.017704996819287038,0.44425436814762853
45.700007,0.2989223071177958,-0.2895703600876146,-0.24581918154495688,-2.0459711757165993,-0.06483816314553427,1.7618904083528237,0.8738450672196965,0.4722405368816719,0.008883545787688948,0.4552135417131737
45.800007,0.296761577280573,-0.3007697365029864,-0.2581130460464677,-2.0315662302412623,-0.06955559212856931,1.7421758120122623,0.8630101877888051,0.4698773744892365,-4.00499932652989e-05,0.46495848011598717
45.900005,0.2950763058632878,-0.30876737091060574,-0.2703303213014152,-2.017498925638473,-0.07526639063986423,1.7226229294639839,0.85135219465116,0.467560239552995,-0.008817802868224606,0.4730223306053546
45.999993,0.2935385475767731,-0.31274313995679837,-0.28216777983530394,-2.0027235642159846,-0.07971049550980867,1.7025021183982605,0.8367263357609424,0.46550788631675216,-0.01699739961121369,0.47953480984702884
46.100017,0.2924906077319943,-0.3130224372358345,-0.2929622514075067,-1.986098680214165,-0.08319937088926282,1.6826138961134327,0.8245656714159141,0.46413625016107524,-0.024186444633951188,0.4853309597145277
46.199995,0.2912634667368508,-0.31302483499967154,-0.3023581091962677,-1.9679478398998005,-0.08492320221815516,1.663217801715258,0.8134979724673104,0.4629750544647281,-0.030492070313776404,0.4918164445742817
46.300017,0.2910194978543779,-0.3129373466232974,-0.31064932165093356,-1.9450889430603058,-0.08591547139054609,1.6446537443321887,0.8011102732091526,0.4626065313575036,-0.035880598556209696,0.5005966767540835
46.400001,0.29098495807344577,-0.31202307377966393,-0.31836882464450006,-1.9181288170303965,-0.08620048102689647,1.626614666102947,0.7915306925680903,0.46286572526159325,-0.0409327105537624,0.5110063571564376
46.499972,0.29096183942523984,-0.3081991141414868,-0.3256293667478628,-1.8878124279916793,-0.08622001830230895,1.6092089211394036,0.7833215871401461,0.46394446223866603,-0.04574150212750611,0.5217976586728386
46.600043,0.2909681320898903,-0.29953998075058813,-0.332647315129379,-1.8553415276799865,-0.08621936669082439,1.5907009000821273,0.7748581486359751,0.46567674913107165,-0.05025091185104926,0.5313972235288615
46.700017,0.29097255831379537,-0.28451890002173014,-0.3401502187329401,-1.8223218456474966,-0.0861882880067208,1.5737176356997786,0.7649763546055023,0.46877250266287557,-0.05463755581902472,0.5385712347287264
46.800012,0.29096996986220747,-0.26599595056957476,-0.3469469481945851,-1.7903143223305782,-0.0860004971770125,1.55402751905006,0.7562912719839391,0.471758419005128,-0.058289857854971046,0.5434720316057287
46.900017,0.2909809930338274,-0.24584772381501727,-0.35274996823035054,-1.758136797830308,-0.08523460246703324,1.5348251301513411,0.7488741063690217,0.4751376411955302,-0.061127963388452,0.5477644416735601
47.000012,0.2910164881913793,-0.22711472755472378,-0.3581343854708034,-1.7232828941499965,-0.08340050112934028,1.513793595833603,0.7396109148498049,0.47805438012457313,-0.06358246189826075,0.5536982415548356
47.100008,0.29101105095997876,-0.21120980509325785,-0.3646896873514692,-1.6871208672997111,-0.08113570146481176,1.4930987709218235,0.7271484006991241,0.48036628519770064,-0.06667633961064118,0.5613752848178627
47.200008,0.2909881479125171,-0.19699597208072728,-0.3728444592572966,-1.6497276964303604,-0.07806547848259526,1.4709515935897004,0.7147449911948306,0.4818326129270332,-0.07043731592861194,0.5700881862605489
47.300011,0.2909990024994966,-0.18506357505609022,-0.3829969534216954,-1.6108367247459583,-0.07572136371429555,1.4478016994344987,0.7028639771388078,0.4822876386596488,-0.07543046504769313,0.5802434538019496
47.399992,0.2909681277953337,-0.17354492833796575,-0.3948529655917953,-1.5730186918767408,-0.07312073214480934,1.4231919093644003,0.6876579625266385,0.48182844569809147,-0.08107599478737568,0.589802099997953
47.500014,0.29020535020651145,-0.16258326806991943,-0.4091441510533541,-1.5341878420819486,-0.07147035295590469,1.3966415917556938,0.671276613678787,0.48028063109392666,-0.08839317634847223,0.5997096106370677
47.59994,0.28924893332467744,-0.15072636227887842,-0.424651915828902,-1.4963939872931948,-0.06947985419643164,1.3708385340207236,0.6549469481495901,0.47857394239952805,-0.09605197545727644,0.6086928712163134
47.700017,0.2867370954588658,-0.13912289557669588,-0.4412396967160074,-1.458174164278357,-0.06625653394035046,1.3438320844225309,0.6344359091203274,0.47597665398518135,-0.10447720855513266,0.6177437006317267
47.800018,0.2833975913270367,-0.1262361897449739,-0.45865210274199963,-1.4193894303308963,-0.0632287581474504,1.3173845682437881,0.6148316778213847,0.4732805419044901,-0.11338882375064364,0.6264363209969621
47.899994,0.2801975065682182,-0.11381405079749636,-0.47653705416969194,-1.3811724261304565,-0.05926922743193292,1.2921250835076106,0.5924858322481565,0.47028328099636874,-0.12199897640264347,0.6350865548015835
48.0,0.2758766741917829,-0.09987800719463323,-0.49490433806578493,-1.3427779595177476,-0.053923950568744244,1.2681889194483116,0.5701126379790258,0.46748647004821914,-0.1306457399199742,0.6432098180031739
48.100055,0.27085042254537,-0.08534168291413079,-0.5130164835500435,-1.3057135586314865,-0.046176267601351975,1.245513700376912,0.548175537559927,0.4648375407363503,-0.13856682157961173,0.6505684149426484
48.200035,0.26450192833413594,-0.06889381662506366,-0.529869062477506,-1.2709198368686607,-0.038716163438412984,1.225589263856633,0.5256860027882511,0.46301875579098195,-0.14612609488060416,0.6564061226039133
48.300009,0.2561173109933735,-0.05221177720290382,-0.5454247293036872,-1.2392541582815626,-0.02999615386588428,1.2080742817462153,0.5056112424504124,0.46152246651539947,-0.15347456519033978,0.6610390182518876
