SnyprDragun/scots_vcz_franka/recorded motion/joint_ee_log_2.csv
elapsed_time,joint_1,joint_2,joint_3,joint_4,joint_5,joint_6,joint_7,ee_x,ee_y,ee_z
0.0,-0.0021084123266787327,-0.782458645895285,0.0003605257257756569,-2.3531731606537747,0.0072863826362204,1.5657505919130124,0.797194793455735,0.3067284199883564,0.0010069329593722699,0.48711191787547437
0.099971,-0.002023255510144439,-0.7859612203617765,0.0004326178982996463,-2.3592982983097275,0.0072690796415895206,1.5688997624093657,0.7972042878548168,0.30530726218796445,0.0012686519348224464,0.4845305624107082
0.199991,-0.0017161165719080703,-0.7868715047656243,0.005789989273429133,-2.3619936458678414,0.008099852966130845,1.5681834994064534,0.7971965909565817,0.3061866799587833,0.004302266770943433,0.48562841366615106
0.299988,-0.0010824440513264855,-0.7715182840985817,0.019295888635374462,-2.337271878088896,0.01512842351259549,1.5644671947426896,0.7972369234818598,0.31240983342871154,0.011690364059264697,0.49434147247087473
0.399954,-0.001058365509318764,-0.7437047433256213,0.0389048637288345,-2.2950258766636513,0.024960005075446205,1.5600100786933044,0.7983231688407317,0.3210730163381923,0.02138852864694753,0.5044644164408439
0.499983,-0.0012750935769865323,-0.7142193661993738,0.05863013674827708,-2.2553510070149883,0.03294974339907822,1.554404013270672,0.8010853119564435,0.3289012764302512,0.030534263131392455,0.5121746511330677
0.599994,-0.0021318235119769983,-0.68419301806495,0.0764887563663817,-2.217595943400623,0.04087107484836499,1.5459778467886314,0.8056971604049922,0.33641222092029077,0.03901239647848949,0.5185008414308833
0.699993,-0.004991018549053475,-0.6521192421783398,0.09224438704201449,-2.177525237569435,0.048774565932198984,1.534758290679032,0.8098971702198581,0.34422582368801813,0.04661109543790262,0.5253536882847115
0.799991,-0.00970815960071823,-0.6190110325697188,0.10761862905549342,-2.13406935190494,0.055050885932395,1.523858159506862,0.8174474561836306,0.35253360072890816,0.05366375179919024,0.5331727868030792
0.89999,-0.014133323174042194,-0.5853465994471773,0.12310093231546751,-2.08778531902733,0.06165549619290263,1.5122821904739128,0.8268631476111921,0.36114498374819387,0.06141639447694543,0.5414159126280979
0.999993,-0.018261553951219384,-0.5518920104083626,0.1385086214950686,-2.03990029938035,0.06464556954788102,1.5003702396095073,0.8397371960686038,0.36972201643049435,0.06880525780202953,0.5497915669332034
1.099979,-0.02126838527909614,-0.5168422968835432,0.15404266757458857,-1.989863089503716,0.06622976578460446,1.486528513713323,0.8533612835788678,0.3783312904888148,0.07618412279878889,0.5582706112039064
1.199984,-0.024251880897329485,-0.48063030630175047,0.16838583550757774,-1.9380858780458967,0.06720320251523877,1.47184984111081,0.8673304144892855,0.3871488112151984,0.08362027436224129,0.5668183234965146
1.29997,-0.026499234085936605,-0.4438685764008849,0.18227592252379948,-1.8846804318640125,0.06753384755814963,1.4565571270653679,0.8828664621654556,0.39589340534536355,0.09080424144674429,0.5747498389759483
1.399988,-0.02778926035699645,-0.4055568813846645,0.19579153311395647,-1.829947741945197,0.06757777671175966,1.4391956944785014,0.8971203392529289,0.4043561798071027,0.09825511378701261,0.5828763813824663
1.499913,-0.028424415412512692,-0.3673365188506087,0.20914739744754413,-1.7736615119178,0.06757802715411881,1.4226539986622593,0.9135416875971067,0.41310763406534845,0.10614550699531414,0.5905926472949147
1.599995,-0.028533397565968184,-0.32816829358212457,0.22307042577034003,-1.7168904572296138,0.06758359178519052,1.404057374671372,0.931308165105126,0.4209474416618477,0.11427828451766568,0.5986580403536623
1.69999,-0.028633823457614536,-0.28933376935211785,0.23727455575386636,-1.657977834502111,0.06754660224640063,1.3849134374990797,0.9474075274635473,0.42907553573330015,0.12250067466266118,0.6062077325530972
1.799914,-0.02865290083058245,-0.24934583500313426,0.25249484497884045,-1.5980475694126086,0.06695867106326123,1.3642401200992418,0.9658586710379512,0.4362556802938282,0.13072654542320772,0.6138742738198626
1.899985,-0.02863217580816912,-0.21069018926832528,0.26777477928347876,-1.5376841848972858,0.06388968223240922,1.343574978065311,0.9826315465120445,0.4436213918025941,0.1381766919169865,0.6208646345339304
1.999991,-0.028535114257008342,-0.17025223807917167,0.2846399770336569,-1.476456823898429,0.05759171466281374,1.3211702782836574,1.0026203702901424,0.4502317465296617,0.1453048500303075,0.6282714514481091
2.099986,-0.027771990588050816,-0.13084468972573077,0.3011436093974547,-1.4142927312544606,0.04936185408569775,1.298890247149153,1.0212674078746329,0.45698041603578765,0.15200432815694132,0.63454991547247
2.19999,-0.025963302252774316,-0.09050955737504686,0.3181037682564177,-1.352850817786847,0.03827241780137095,1.2752472942999236,1.0422990040291944,0.462806049874218,0.1579274584116325,0.641074569547797
2.299992,-0.021036377746521718,-0.05041415939638659,0.3347485299366319,-1.2902135797877687,0.02501864450872459,1.2508133958538366,1.0614029008715093,0.46837952403911826,0.16450196055493704,0.6462976843885672
2.399987,-0.012148297596852235,-0.010042785035827027,0.3500562296781984,-1.228739309401384,0.010503214596163902,1.2268178889102148,1.083583045140439,0.47296252082989104,0.17159978276250393,0.6516052282577887
2.499972,0.0017026992837610672,0.02824990273222005,0.36292569047922346,-1.168814655306218,-0.004827753436027721,1.202188769573922,1.104736797000125,0.4768767562685555,0.17914196732102375,0.6557555818605884
2.599987,0.0194591505154659,0.06580781893724678,0.3741873648966785,-1.1115434743481387,-0.01995159233125846,1.1794698013994922,1.1265459693575923,0.4795828228761947,0.18746616121177892,0.6600435683161798
2.699987,0.04064589668586026,0.10023833704617656,0.38211198164788307,-1.056905245134218,-0.03493288234921278,1.1573340365582103,1.1474942010403444,0.4816152794919174,0.19569715112775318,0.6631815208754273
2.799933,0.06334484867375274,0.13120485489392997,0.3874564843951822,-1.0082886839209968,-0.04940263947243162,1.1384196693768815,1.1682329180747926,0.4831261149399115,0.20355936676071198,0.6654902862523011
2.899989,0.086454346526929,0.15760235634507316,0.3897387710211551,-0.9676598885428923,-0.06021553441034124,1.1217883427005289,1.186519005092149,0.48387027432089114,0.21113495316743427,0.6667357440404463
2.999984,0.10852154307424401,0.17856425803276263,0.38992166750729323,-0.93791140846448,-0.06770868765673278,1.1125525681459554,1.2043955273116473,0.4839920988030538,0.21909204781057146,0.6668751450928365
3.099924,0.12832407943396934,0.1922395588262462,0.38988893169357075,-0.9232054013899149,-0.07281132168214395,1.1081120452629796,1.2187649567063026,0.48316451125317667,0.22689082966778995,0.6650536955313188
3.199989,0.1441571912054536,0.19686206192122777,0.38989106567998183,-0.9224333046332435,-0.07369285882618896,1.1082297975111208,1.2343727450781226,0.48091431546236696,0.23451282580214486,0.663076518684499
3.299987,0.1570657998992782,0.1966456312097541,0.3899165397122946,-0.9306083357650057,-0.07370100355496673,1.1149497576315612,1.2471896632455877,0.4797284477064159,0.24170234802880125,0.6598108425651044
3.399983,0.1651433677146387,0.18989587219003845,0.3899063224860507,-0.9593519201179903,-0.07347356008658974,1.1343891062321592,1.2588271910511668,0.4795022080106423,0.2480227516475893,0.652228554867575
3.500036,0.16915688707282303,0.17813012312303028,0.38990244474636715,-1.0032973488128305,-0.07165126727361257,1.1590489429237985,1.2717697474809906,0.4794249029074871,0.2539825521208702,0.6420545805395521
3.599989,0.1721427365548751,0.16536141392244827,0.3899088043706275,-1.0516879396164118,-0.066597199746983,1.187556127932227,1.2818402221075766,0.4786231689099708,0.2601290649887595,0.6316477421249151
3.699984,0.17525057083991072,0.1495969165830393,0.3899488930537425,-1.1011208778531971,-0.05974222282420708,1.2180353514926079,1.292220610778594,0.477021978333038,0.26663217364442576,0.621981240510442
3.799989,0.18026050185450918,0.13310833443516423,0.3902814056222808,-1.1469613113532477,-0.052911197555173664,1.2491267303824267,1.3030655635475838,0.47413223239548535,0.27375795061363084,0.6142431275732089
3.900002,0.18596576074264448,0.11799878902598608,0.3927917804972439,-1.1874611659060308,-0.04786310424282923,1.277212418369394,1.316137286207503,0.47102730887730637,0.2813291131348693,0.6074333815118964
3.999989,0.19251582946358625,0.10376813631758051,0.3965812568587169,-1.2242733389473874,-0.04399259216966638,1.305928221061194,1.3264936454056473,0.4677774382672512,0.28906877347699783,0.6011538736060729
4.09999,0.20024007792085688,0.09557966650361996,0.40067729982909706,-1.2545672876355538,-0.041946701635775616,1.332502316299377,1.3373171575601712,0.46572317752291886,0.29753506762495197,0.5942488601702176
4.200001,0.20934202869534252,0.09431438194746812,0.40456248246772997,-1.278132323148125,-0.04127050406249156,1.356014236699079,1.3505533588116898,0.464508117272469,0.30584606817915433,0.5862482504355866
4.299994,0.21762267866720958,0.0950687370023561,0.40830378407968293,-1.298002022281524,-0.04126520822940447,1.374677150112734,1.3607569739998424,0.4631397727931732,0.31300376310521655,0.5795162528587952
4.399987,0.22667328638558126,0.09901238157394425,0.41154602663937373,-1.305127300137421,-0.041338726583805344,1.3880995446443185,1.3726005279413676,0.46253285897080376,0.32060669412090875,0.5764727675497681
4.499966,0.237253319600607,0.10673483336024037,0.4141738757676503,-1.3041387387978545,-0.04267957101365489,1.4007932569216375,1.3872578244663623,0.46245952639028837,0.328449992991854,0.5738107078211628
4.599958,0.2505007628740681,0.12148307076460418,0.4172224010742971,-1.2944265607818835,-0.04739253617733932,1.4061419320890771,1.4011416608245684,0.4630620127945223,0.3371971452253216,0.571125705144711
4.699998,0.26629379584007185,0.1433354482344722,0.41852888179189446,-1.2767835311750768,-0.054825795150241115,1.4098936209840172,1.41451690704935,0.46536235350403354,0.34588496343312275,0.5672382628907419
4.799986,0.2827926687542634,0.16915492897767115,0.4189082832380911,-1.2562769438385857,-0.06383591346379938,1.410765158396205,1.4286473722238244,0.4685056493279928,0.35414288702327684,0.562460699006643
4.89997,0.2983606434478792,0.19692374119736428,0.41890594625106625,-1.233161744875905,-0.07318846054690321,1.4108125392816997,1.4397130400366778,0.47201338069963444,0.36213955019168026,0.5579021805778546
4.999968,0.3137962701440213,0.22418488983572418,0.41845772551186616,-1.2085099135129702,-0.08281592114224666,1.4107924398081721,1.4507113540119883,0.47558725960444526,0.3697053088562203,0.5540214560199643
5.099976,0.3293117775585696,0.24897689574592474,0.4182001012710641,-1.1844180057225733,-0.09151670126995634,1.4107210798549372,1.4633299393036598,0.4779004532885878,0.3776730140488509,0.550855863479648
5.199987,0.3450180487359485,0.27086957152142016,0.41736105091335385,-1.1621653671082022,-0.09834072471402841,1.4106220913991336,1.4755891070573226,0.47908042418991603,0.38547712511062054,0.5478478143685388
5.299981,0.3611439764360668,0.2885630820057115,0.41616072200132104,-1.1451895735588427,-0.10498732408677354,1.4107002134683915,1.4842969974049127,0.4790818641451625,0.3928396823400196,0.5448694954111137
5.39998,0.3763580312731345,0.3023375055740787,0.4142216236925625,-1.1369232288759448,-0.10862634232439031,1.4138468255116547,1.4942779657182643,0.4778587300008803,0.40062092318798254,0.540612658700783
5.500007,0.3906154750260355,0.3122116577224349,0.412333155854289,-1.1359807155636383,-0.11055833438488942,1.4223224566721733,1.5070769952894167,0.4764315656539421,0.40825217897839944,0.5355632976712561
5.599987,0.4036355288527543,0.3192635632749893,0.4100100802851391,-1.1407985883738125,-0.11136261284430995,1.4378700182729007,1.516853616497213,0.4752313418693233,0.4158968797508223,0.5303342879231848
5.699989,0.41541834990028925,0.32123190741521457,0.40641811913896425,-1.1538440568212895,-0.11160997049019289,1.4552214739176002,1.5267450084850462,0.4732359359314203,0.4223988171601241,0.5244054667520637
5.799993,0.42698759592702024,0.32133315525356715,0.40311838532275146,-1.1710707443560013,-0.11165298810250966,1.4757062654349442,1.5388714126035654,0.4707337325414729,0.42951580884927437,0.517704705831899
5.899989,0.4394983045726106,0.3223469994166036,0.3998975160892167,-1.1895848977292873,-0.11167022753217057,1.496529774382732,1.5527405847592033,0.46779687621022786,0.43664701045316173,0.5100174331950741
5.999922,0.45225222084021416,0.32409729151273686,0.39641116422743844,-1.2076651802702212,-0.11168096819850662,1.5167538428571663,1.5626272435674307,0.4647480694515543,0.44430125130911774,0.5021701936580079
6.09999,0.4667572351900641,0.32926069147839576,0.39242073156937723,-1.2213687183882787,-0.11169390393314517,1.5363393913602488,1.574127063663822,0.4620209395990121,0.45233914616685766,0.4939435582315089
6.199989,0.48202737603500484,0.3389375979038008,0.3884123889258742,-1.2304887248635887,-0.11172328247610504,1.5547188620293402,1.5874813062124893,0.4597129547696899,0.46112701574491205,0.48467347141174266
6.299983,0.49774758293708304,0.35267584827855164,0.38360666784267594,-1.2341053258277714,-0.1132898472526383,1.5686869487240322,1.59685302144443,0.45830458942723856,0.4691060437251485,0.4757240882199086
6.399991,0.513774907215281,0.36743244971868433,0.3784244117655606,-1.233915633729874,-0.1177166864909712,1.5793357801660648,1.606676317708715,0.4569639928378453,0.4762817398296503,0.46676779267110335
6.49999,0.5316021773340077,0.3869616050153636,0.37141939695185294,-1.2248267718754866,-0.124316276770452,1.5853571988361315,1.616891998942466,0.4570162208887362,0.4841506255379199,0.45931764319835566
6.59999,0.5509983849667095,0.41335385319095114,0.3638868705987345,-1.2020487282708445,-0.13008575347304563,1.5874703898407563,1.627879951788555,0.4583374744798442,0.49287845363794724,0.4534799855350342
6.699986,0.570597133940189,0.4436388993215483,0.356333062214028,-1.1684213364305034,-0.13514072762747378,1.5873367378036878,1.6351998234101286,0.46109126594266525,0.5020660870731265,0.44910594643743784
6.799986,0.5914024956075831,0.4761782995112052,0.3461078095297948,-1.1266953761148206,-0.1405465197703967,1.5834468697258681,1.6404577181383964,0.46422595318845417,0.5109749674097762,0.4464215278086813
6.899989,0.613869276734422,0.511199280999707,0.33318758062648635,-1.0766283189316759,-0.1446130557411677,1.572888559709149,1.6459218286376025,0.46727104887970256,0.5196165092102436,0.44476492384209987
6.999979,0.6366072398240165,0.5479307394599287,0.3196671350092542,-1.020587896843139,-0.1482453481457219,1.5578565598468608,1.6489718730488225,0.47037464334654777,0.5272232373149411,0.44265083255825244
7.099992,0.6604085217202682,0.5875012522488988,0.30447921845103515,-0.9606386325796098,-0.15098850282531426,1.5411080582147119,1.6499136393684624,0.4731962800736213,0.5349623849678468,0.44093427645360994
7.199989,0.6844187109297987,0.6285480000527214,0.2885784743301978,-0.8970553162491525,-0.1517270867921574,1.5211472874175105,1.6502260699159734,0.47584281847112303,0.5421778627339955,0.4377374138405093
7.299988,0.7078216043371068,0.6711285239028257,0.27154821626733094,-0.8330293295942832,-0.15187973142404676,1.502178467334266,1.6503084611968821,0.47815674440919936,0.5491683578933357,0.43420369282910953
7.399987,0.7302371426861397,0.7129729962569369,0.2551326845877275,-0.7711729431736243,-0.1518964372546217,1.4827458106794686,1.6503256293663335,0.48005871555768936,0.5551688937277807,0.42918701340196064
7.499926,0.7492219494117843,0.7507840161539023,0.24072667168388695,-0.7186036753750444,-0.1518945042178613,1.468527106917216,1.6503381621584041,0.4811850735872443,0.5610084274762043,0.42322664503613805
7.599964,0.7630255282990756,0.7754907602653088,0.228799091432265,-0.6927481590743206,-0.15185571133645645,1.4656051714889549,1.65034911780539,0.48106632620599493,0.5650944739844608,0.4154363549391926
7.699987,0.7716788579140728,0.7863487211622013,0.22181409689243672,-0.6922773059284661,-0.1516616698255836,1.4675517442922836,1.650374179170549,0.4795110545502814,0.5678795716972962,0.40757112813520036
7.799996,0.7761454199098125,0.7860172988733005,0.21787831216168638,-0.7118765316738827,-0.15095784063781265,1.4840713108881578,1.6506219858841695,0.4783265894687151,0.5711795954416107,0.3998997244737297
7.899983,0.7775952470914516,0.7778628250157622,0.21556655267192892,-0.7522081314424436,-0.14968743443525484,1.5123152582735153,1.659651911584606,0.47648834639579296,0.5740374876338119,0.3884210720848883
7.999996,0.7778124398164259,0.7664948513724125,0.21405181193826808,-0.8044251806973224,-0.14833078986933176,1.5447151906321812,1.6706308965668286,0.47351810651725684,0.5761129605392526,0.375305086918564
8.099988,0.7778844718025201,0.7532307133142557,0.2136973237488122,-0.857920311682476,-0.14686464523361464,1.5776776906914067,1.6772173423079393,0.46981516078326885,0.5780570668670335,0.3630567494894049
8.199989,0.7780795545387621,0.740417453601881,0.21339385114751058,-0.9077567740578744,-0.14432488267444324,1.6106235888261544,1.6836221247601666,0.4662042335707517,0.5796422711189735,0.3531088771426417
8.299989,0.7782214194029553,0.7256606541579285,0.21299244875926976,-0.9541653070360847,-0.14256226449393253,1.6417720113201077,1.6893101148387177,0.46312066765645354,0.5808239728523379,0.3456293141512512
8.399987,0.7782249770069883,0.7110875222429593,0.21220595078647095,-0.9945623183664655,-0.14113320449076192,1.6710747804277353,1.6936151537372215,0.4605150633488041,0.5814760244009421,0.34066740701202974
8.499982,0.7781362633649677,0.6974301485364319,0.2113136486091919,-1.0292799744382408,-0.13923255712056876,1.6964256621221492,1.6969850088028136,0.45842312446281464,0.5819486144139084,0.33655981883178876
8.600035,0.778046721460059,0.6859458037278855,0.209608841186713,-1.0586979500825735,-0.13672761032055675,1.7195006782476354,1.698560468015044,0.45708597987980704,0.5818726518806053,0.3330060258404185
8.699924,0.7777366515960523,0.6774132571870339,0.20708976596278286,-1.0818647674569444,-0.13501287696912553,1.7358250749802826,1.6987294383920042,0.45657972717031914,0.5811150454234497,0.3292581135718581
8.799992,0.776619687848713,0.6735029805746082,0.2046382688778568,-1.0998664002814982,-0.1322642030906112,1.7523389920926364,1.698735667710713,0.45708440639908315,0.5806198690872517,0.3244347807207498
8.899982,0.774512117342767,0.6726674311636958,0.2022720238862671,-1.1155469244115968,-0.13011672659338405,1.7643467982789953,1.6987339402864834,0.4580297402286969,0.5786367114369365,0.3182227364865643
8.999989,0.7711099887007837,0.6726104279795059,0.19946405487148605,-1.1300486877738396,-0.1291518964373426,1.7732323428937982,1.6987391004546328,0.46006027715416586,0.5755251886748108,0.3123635756639178
9.099989,0.7659699757689147,0.6725360368488301,0.1972268489387606,-1.1408638632511856,-0.12851322239427124,1.7820431319642975,1.6987427283831675,0.4635129645326608,0.5725184498653126,0.30844714552708835
9.199991,0.7591577700399242,0.6725095904740053,0.19651350639025436,-1.148902840371985,-0.12828396673548026,1.7912326554294984,1.6987401639785251,0.46746678174561146,0.5694741896234329,0.30573795010249394
9.299939,0.7518020798839915,0.672502997744857,0.19629956830117806,-1.1541030084940433,-0.12826956451319663,1.7978058379353044,1.6987404649337925,0.4716869206092278,0.5664295896775454,0.3040420689317633
9.39997,0.7448887912645933,0.6723058271293739,0.1962294859832214,-1.1594116146365694,-0.12827044734490664,1.8061243569202998,1.6987459394579634,0.4753566920369487,0.5639497694463519,0.3020346157396244
9.499986,0.7395858837409324,0.6721964004564778,0.1962214010178731,-1.167228359493868,-0.12827135282993146,1.813684338760267,1.6987457516096902,0.4773882815338253,0.5618076110615217,0.2987821189673838
9.599989,0.7364714922476486,0.6722162515183346,0.19622148126083108,-1.1761051636554054,-0.12827415930637873,1.8239704649602473,1.6987449938219954,0.4785980596754327,0.5613626561033711,0.29558701105643237
9.700013,0.7353959658742356,0.6722088518103831,0.19623022541980972,-1.1839234873065185,-0.12827756322602496,1.8359898075215058,1.6987403399577072,0.4789217308737937,0.5619278491299725,0.29296879140802906
9.799989,0.735448930798893,0.6722163728090026,0.19626246417390364,-1.1934177441780003,-0.12828679528123,1.8500022425866096,1.6987391774966012,0.47860713444462655,0.5628288662952416,0.28917162730814844
9.899998,0.7355461695022197,0.6725297560412746,0.19623699259158675,-1.2053491085070789,-0.12829894338873615,1.8651570764572776,1.6987377766923613,0.47818798035072146,0.5638668835963232,0.2845930881748071
9.999981,0.7363158366745568,0.6729896906743469,0.19623268040306432,-1.2169886986299427,-0.12833429764933924,1.881384501309658,1.6987309643303137,0.47728728414212807,0.5652566144148751,0.2800886466389225
10.099966,0.738452361114214,0.6751175505157908,0.19618178665031946,-1.2270142445725707,-0.12847850895772317,1.8974700397395543,1.6987343318955421,0.47588012471396834,0.5676820074855324,0.27491753928452467
10.199984,0.7431183541895947,0.6797742001304287,0.19521044545776983,-1.2358660660843972,-0.1285225932716061,1.9156736200715687,1.6987283390215697,0.4735093338215334,0.5709304575933875,0.26846854737779335
10.299988,0.7499585978986888,0.6846349584812228,0.19260729601443033,-1.2469978309282115,-0.12853125928654988,1.932183200437982,1.6987301294848625,0.4702490118883305,0.5738164860561024,0.26053707825203454
10.39999,0.7585394968031139,0.6922200683223491,0.1882790374794341,-1.2565521911440962,-0.12852557556049812,1.9497072306800818,1.698741831536344,0.46708073904615505,0.5771009738752745,0.25145628323331304
10.499987,0.7668940707482758,0.7014722692500175,0.1839971655015539,-1.2643066670982575,-0.1285207701571851,1.9653693433209518,1.698764020356509,0.463958885209883,0.5796310147968193,0.24187468650936123
10.599927,0.7736541760390057,0.7090048161373937,0.1795489313459347,-1.2761702206388494,-0.12850480079553692,1.9789453824329226,1.6987925161520014,0.46116090710499885,0.5803981411977096,0.23184219609650675
10.699957,0.7784283745242692,0.7165161716948701,0.17525348067552385,-1.2842453497307658,-0.12849611833297636,1.9920721675294244,1.6988073354634037,0.46009536592447037,0.5808334241274176,0.22418040815326762
10.799982,0.7810523813566199,0.720510618105341,0.17139443504480004,-1.2917423482676316,-0.1284808984225791,2.0039446609598195,1.6988205669732055,0.4601818339889491,0.580450613512378,0.21931706709750787
10.899967,0.7814259577474425,0.7216756589648443,0.16821450188124282,-1.2992829922193103,-0.12845842390243417,2.0134768379608556,1.6988213245912933,0.4612394390367733,0.5793850181424938,0.21602164450432623
11.0,0.781391668351499,0.7222240888637433,0.1644471532720547,-1.3056091036040243,-0.12749073585025822,2.0250482442217894,1.6988236399971592,0.46290128712074946,0.5784685440458788,0.2135748338009391
11.099996,0.7811254368447612,0.7228626409017409,0.16059730006712375,-1.3105841525969304,-0.12625927381254937,2.0327124168600275,1.6988209874963405,0.46450709032913734,0.5770935811258276,0.21128868563706216
11.199999,0.7802600149147265,0.7230150094065146,0.1571430580115458,-1.3165635713302133,-0.12447053311464046,2.0402152031776204,1.6988251940793093,0.46592773522151243,0.5753671266388936,0.2086699370916475
11.29999,0.7783997572991272,0.723380357706128,0.15464589773113074,-1.3236563888871187,-0.12284654677545082,2.0466419678123136,1.6988273319299902,0.4671785454023366,0.5730681816302273,0.20545834362400703
11.399947,0.7756542478325364,0.7248423336399074,0.15288634978130292,-1.328903423591368,-0.12194296847164936,2.0525991179954506,1.6988297428793324,0.469117072023576,0.5710283632786954,0.20247237329928153
11.499981,0.7715969062113816,0.7273631577104719,0.15240693668553723,-1.332066113213243,-0.1217933042481273,2.060362958882442,1.698829153903458,0.47182374164790775,0.5694519349930889,0.19992485725581646
11.599987,0.7671003812322146,0.730577761116915,0.15204757587532564,-1.3332764889122808,-0.12178625190997724,2.0662795101093208,1.698826766617262,0.4746069568041956,0.5675611858605261,0.1975629089222184
11.699992,0.7627073963449768,0.733647002245509,0.15191723853599087,-1.3341201118473285,-0.12178553208748914,2.0720790345185445,1.6988304402837788,0.4774410854662023,0.5661292589472501,0.1953970913774964
11.799993,0.7590660135837656,0.7388409065857616,0.1518033248895632,-1.3340825912358831,-0.12178732300083281,2.080122100079426,1.6988257863361202,0.47974262356822234,0.5653657157071033,0.1916242191634722
11.89997,0.7575375936002764,0.7476118987307073,0.1513052408310255,-1.3338740152922435,-0.12180195764237745,2.0882136640110285,1.6988299977599304,0.48059407198441173,0.5652355809550711,0.1851969288699707
11.999967,0.7577580883522205,0.761313468020789,0.15115635052496104,-1.3326626137979203,-0.1218237076756453,2.098228316267386,1.6988290263895738,0.48025824413521334,0.5658481882737157,0.17540365410219563
12.09997,0.7587304230728018,0.7783474327083254,0.1510334852892414,-1.3319606184470512,-0.12196008145708775,2.1088125709302257,1.6988234556778454,0.4791268419176875,0.5662005539754368,0.16407442770000258
12.199973,0.7615341477915406,0.7958556050921648,0.1493379430503669,-1.3318228293467198,-0.12211131054690606,2.1189723240426854,1.6988209343765674,0.47744041590029684,0.5666361881708286,0.15228034124109047
12.299993,0.7668049310444462,0.8108753044516505,0.14629044973459615,-1.3319185822591566,-0.12214896037455546,2.1303808231508974,1.6988227188472098,0.47512157477401334,0.568188761346231,0.14243192527080445
12.399991,0.774621917560591,0.822660678694715,0.142288374142439,-1.3329908328587035,-0.12215599542670194,2.1453596445848784,1.6988186002101777,0.47240490639155536,0.5712073476770904,0.13520231160584734
12.499974,0.7848674299438131,0.8294741862894663,0.13740491491773763,-1.3364258791518338,-0.12214701833937765,2.160740364931919,1.6988173138377989,0.4686900848975329,0.5751415351674781,0.13019456937113083
12.599986,0.796675209065866,0.8315770103232004,0.1326693933894566,-1.3471548696524995,-0.12212428349603256,2.1801661332525155,1.6988477123816195,0.46278837219878627,0.578754323210647,0.12492382725419639
12.699988,0.8090437824514305,0.8315946041574112,0.12765665076530314,-1.3653812224571944,-0.12208106725703598,2.200570407759349,1.7024988076746808,0.45534553664413213,0.5808491228598934,0.11768738584952877
12.799993,0.8201983827393386,0.8315184744131997,0.12480713091825373,-1.390260174165024,-0.1212749229199746,2.224107534138345,1.710335751210925,0.44587129716446466,0.5817317735068346,0.10771314447267305
12.89998,0.830365856144151,0.8309892299939224,0.12234777610017501,-1.4233407101146733,-0.12046131258235923,2.2484368466921802,1.719325891547727,0.43499503986073457,0.5796096763568157,0.09489971346033396
13.00001,0.8395736794937281,0.8279840150170448,0.11942741378632783,-1.4659495020487316,-0.11936981953325296,2.2754610216229962,1.7300279612335756,0.42273377225507636,0.5746979839018462,0.08070409954764649
13.099988,0.8475809972521782,0.8192460359655402,0.11706618779041765,-1.5150408652766476,-0.11793702848760304,2.302658000427097,1.741146619090776,0.4101435050195837,0.5684728944462135,0.06942342419315536
13.200009,0.8552801273946553,0.8037220113673619,0.11465215749415417,-1.5650948739549067,-0.11694176539851384,2.3295667977661827,1.749210380663604,0.3994894797435695,0.56317805566322,0.06311673724570808
13.299989,0.8639553375728003,0.7823160081550595,0.11091957733238557,-1.6129898083825716,-0.11533833111407986,2.359122024380801,1.7552964364636094,0.3902733999133702,0.5592168298280691,0.061825587900804196
13.399983,0.8732933317515813,0.7563484259196329,0.10687846462739155,-1.659201755704043,-0.11108464352570367,2.3878118564093898,1.7639628516963408,0.3818657303637102,0.5568120475583631,0.06398350687430199
13.499986,0.883394996358843,0.7295896756439534,0.10237434896516046,-1.7024736102720168,-0.10747339263258306,2.4160043996167055,1.77292519706546,0.374004468320707,0.5546934753885884,0.06675434108023348
13.599986,0.8934954936618592,0.7059555490132532,0.09882464222471701,-1.7428760051335777,-0.10332477523820338,2.4422042181764647,1.7832957418320556,0.3651483311372945,0.5522896648085768,0.06796153649270684
13.69998,0.903870841019289,0.6879124353845637,0.09607793822536924,-1.7813869725129927,-0.09926270436633536,2.4661147226689777,1.7898502521866382,0.3554940753303276,0.5490630067324687,0.06592983369774875
13.799989,0.9154555874667394,0.6749077627856126,0.09092643196544138,-1.817076394951147,-0.0930873554678302,2.4861893257669445,1.7921574016959818,0.34628190639737016,0.5443767138303462,0.06134589838786915
13.900028,0.9273102274912347,0.6689195800186132,0.08524975222395645,-1.8469891519270278,-0.08800562404606155,2.505023997228733,1.7951437952465994,0.33768909568612826,0.5396121504636133,0.05491056650541776
13.999979,0.9389290071423776,0.6650012021914415,0.07800133500694267,-1.8722987627432823,-0.08271552348282331,2.5186348325830106,1.7979544855673015,0.33098518845242914,0.5347280011256225,0.04941334769673758
14.099997,0.948672605174069,0.6599048084428845,0.07153127962699987,-1.8885595166144067,-0.07575098953341014,2.5332207362111387,1.8011733500532632,0.3283718890362978,0.5347425487432339,0.04963449046417259
14.199994,0.9566523507064569,0.6526093553112271,0.06559439820897489,-1.8974688782966653,-0.06986839041287428,2.5413331495573273,1.8032037518739579,0.3268438154895575,0.534538139906565,0.0511245013443626
14.300019,0.9640737297810243,0.6494305567205821,0.05977161460950129,-1.9029322794128667,-0.06460678828269617,2.5467306470873505,1.8035706488932497,0.3256006500948033,0.5347170609855391,0.050904724582867836
14.399996,0.97110333533556,0.649501482111683,0.05425917208222329,-1.9057505377937292,-0.05847056971538232,2.5494578271418873,1.8035925597909706,0.3243425116995777,0.5344278436902505,0.05002491096639555
14.499988,0.9759684972285694,0.6495169443278223,0.04999650297462919,-1.9062085669121227,-0.053057277769870265,2.549953413061525,1.80358961035543,0.3241656729277258,0.5345612331956134,0.04997420389338465
14.59997,0.977973960559951,0.6495911960058516,0.04739517507919536,-1.905358791695786,-0.0504279113326163,2.549931626297661,1.8035888510635736,0.3251518141050802,0.5348566311789386,0.05047663442670318
14.699992,0.9782830652429928,0.6498538821039409,0.045093755067090124,-1.8997221648635108,-0.04918402443912679,2.547786920379689,1.8035917671060206,0.3279868898713244,0.5365418773995747,0.052779863147707065
14.799971,0.9782608166426142,0.6501860686712121,0.04273892044520718,-1.8877444488064459,-0.04777840564803216,2.5417112790348897,1.8035928146975877,0.33192378564594555,0.5397486912299148,0.05697350101216131
14.900002,0.97820070251773,0.6503808950109463,0.041015198663957766,-1.871937298804554,-0.04640839157590964,2.5326216994452633,1.803593696664592,0.3359649503467689,0.5438930762949244,0.062111620679734095
14.999993,0.9779520680617708,0.6503351874243523,0.04008175351819097,-1.8573196799676885,-0.04479141753875601,2.5251125954841354,1.8036011474354354,0.3391433118315228,0.5475023290466511,0.06639918077099334
15.099985,0.9777994390021236,0.6504040347744774,0.039641941203800705,-1.8537162111508843,-0.0438601274896629,2.5244132921959577,1.803598008731928,0.3394618876968684,0.5475370768669423,0.0666070090757835
15.199986,0.9777990722652186,0.6504517729176271,0.03955391897214485,-1.8542368242278195,-0.04368750144879604,2.5219498509223857,1.80359725111384,0.3391771848552025,0.5470238607560375,0.06627858324052602
15.299989,0.9777993468368229,0.6504540345994809,0.03953235890581584,-1.8542806206544367,-0.04362732940611426,2.521482262978171,1.8036011474354343,0.33916625643544296,0.5469720037714915,0.06625494719314501
15.399984,0.9777952827556586,0.6504503285182806,0.03951612676012247,-1.8542806138259307,-0.043602999221374956,2.5213974550184504,1.8036026626716113,0.33915984366831636,0.5469466640175756,0.06623850649653426
15.499986,0.9777922927262531,0.6504495652802232,0.03949947151576107,-1.8542820434948486,-0.04358821685409704,2.521357075070559,1.8036030670769894,0.33916233997246614,0.5469407434355701,0.06623764404320714
15.599991,0.9777978973043979,0.650453427525546,0.03949872209594766,-1.8542862176615558,-0.04358200209841096,2.5213441446959246,1.8035988745810976,0.3391627217526066,0.5469363141249655,0.06623743052439536
15.699966,0.9777975401334472,0.6504520686632232,0.039497981636823346,-1.8542808776004756,-0.04357447076714916,2.52134032154874,1.8035972511136187,0.33916403268355877,0.5469346392480605,0.06623681495124513
15.799988,0.9777894850715454,0.6504554907262764,0.039490918459361035,-1.854282392286076,-0.04357043064176684,2.521333929691449,1.8036026626716104,0.3391648207423891,0.5469377448307239,0.06623973912927994
15.899991,0.9777895925639695,0.6504606869892219,0.03948288727571478,-1.8542926902792793,-0.04356519406564405,2.521323749780252,1.80359987380701,0.3391694035080686,0.5469240709082127,0.06622809144647485
15.999938,0.9777874866749742,0.6504545707563388,0.03948237705943848,-1.8542983471500651,-0.04356200546482326,2.521318742972145,1.8036034157675431,0.3391692850384476,0.5469182200034662,0.06622493821743036
16.099914,0.9777928834752174,0.6504587123205327,0.03948311933074958,-1.8542973168304793,-0.043563135684477276,2.5213147322186513,1.8035971716032677,0.3391691428790219,0.5469183178968579,0.0662272333190592
16.199987,0.9777908560485039,0.6504624227309834,0.039476338295159695,-1.8543055564252653,-0.04355827661927462,2.521308904208973,1.8035979685210468,0.3391699594041218,0.5469136578416675,0.0662218920424922
16.299984,0.9777863515431781,0.6504590532148944,0.039475983156631554,-1.8542998508506072,-0.04355893171010663,2.5213083894724475,1.8036019050535232,0.3391647545630544,0.5469123042609201,0.06621820978846663
16.39999,0.9777880381939333,0.6504631556726468,0.03947673810319824,-1.854300575886707,-0.043555728860605755,2.5213076167717867,1.8035996321992593,0.33916898175653665,0.5469109396889887,0.06621988588366538
16.499988,0.9777897492525993,0.6504635225959831,0.03948132672420512,-1.8543018828989597,-0.0435583413982191,2.5213055509588584,1.8035967801628956,0.33916700351943024,0.5469091458846139,0.06621726519541758
16.599986,0.9777918536784196,0.6504638692800455,0.039476364656379166,-1.8543018917414404,-0.04355743413986047,2.5212997087496185,1.8035995929527382,0.3391684139774295,0.5469084943760905,0.06621706790597381
16.699987,0.9777880467061921,0.6504618712960261,0.039474573267357774,-1.854309013494764,-0.04355200639566866,2.5213004271039052,1.8035964934957494,0.33916814212021723,0.5469067211946891,0.06621678002181332
16.799988,0.9777934580582152,0.6504638692800458,0.03947488855925766,-1.8543058420752199,-0.04355276401375664,2.521301292953148,1.8036033808823373,0.33916734022257927,0.5469073399681401,0.06621529961125387
16.899977,0.9777897505365685,0.6504618713667064,0.03947635588059412,-1.8543026260809587,-0.043557434121817264,2.521298898785038,1.8036019029532862,0.3391669267103458,0.5469092124336423,0.06621899300875528
17.000015,0.9777897158572891,0.650460170667724,0.0394720794657245,-1.8543079237805327,-0.04355670476851634,2.5212967359933933,1.8036003898173447,0.33916722710145286,0.5469073395670075,0.0662168045877958
17.100005,0.9777880117178591,0.6504638692094359,0.039476346775637466,-1.8543067919547773,-0.04355449976364815,2.5212971893207325,1.8035988745811686,0.33916937613634196,0.5469067035592775,0.06621834872241243
17.200052,0.9777876441689446,0.6504640439520719,0.039472431086461736,-1.8543122232060962,-0.043557469459530776,2.521294901114235,1.8035958250195432,0.3391698300387994,0.5469029168751804,0.06621347534463938
17.299931,0.9777875664887243,0.6504602476451002,0.03947410406349906,-1.8543072433924042,-0.04355352112062054,2.521296642319136,1.8036009597475426,0.3391677208864237,0.5469055604222025,0.06621416180001377
17.400038,0.9777896724279901,0.6504650860927154,0.0394713736411515,-1.8543086668643536,-0.043555914817221056,2.52129636759814,1.8036026568567458,0.33916722455186354,0.546904508181767,0.06621468508923607
17.499982,0.9777274234461285,0.6505760771096675,0.03948192865377942,-1.8533167627280083,-0.043555132936980614,2.517374302218225,1.803605572897864,0.33910850777987545,0.5463993879845969,0.06626550975410968
17.59999,0.9763069673178248,0.6530952590103395,0.039524790907667,-1.8415032106509288,-0.0435541809815486,2.4999654459857132,1.8035973283442697,0.3418416324292428,0.5475888243824582,0.06854305887298454
17.699989,0.9714782252667793,0.6557695192749937,0.03956647973765623,-1.8203252657449682,-0.043551856606029414,2.481310867459528,1.8035497773054,0.3485661789893387,0.55027228448289,0.07438340090043749
17.799989,0.9624353145744922,0.6559758553782715,0.039574748062314785,-1.7951870972530484,-0.043551049469828934,2.45930322017398,1.8021029174756436,0.35839181645960655,0.5525055535512369,0.08271142313412064
17.899992,0.9501031857214037,0.6559831755044269,0.039668642901624286,-1.7683894053437073,-0.04354878469777915,2.436966836514361,1.7999888431789233,0.3696986940718443,0.553577695702498,0.09144183147442417
17.999993,0.9367239387849629,0.6560050454045587,0.04032583926278708,-1.7414236945443151,-0.043551332152463915,2.4116064583019337,1.795332234520517,0.3807232464296968,0.553822489574071,0.10013618714581396
18.099989,0.9239408595360069,0.6560401602063005,0.04049624277622909,-1.7140402772661796,-0.04355223677727527,2.384509184850437,1.788534843680507,0.39136087684610954,0.5538946698285695,0.10923027878845275
18.200019,0.9127001039241976,0.6562215095422012,0.04194698565910438,-1.6847262918869537,-0.04356354247326402,2.3568520769132184,1.7830689098437646,0.4007142649301052,0.555601454146151,0.11927249373745547
18.299984,0.9037165151825857,0.6571686107559462,0.04387886038324748,-1.6535898171064771,-0.043572944649680825,2.3293208297881685,1.7785117648698623,0.40889719431683463,0.5583560211811612,0.12965117267049722
18.399976,0.8965878397788387,0.6592451252539085,0.0462860598077256,-1.6209234815061977,-0.04358033923669977,2.3007423649087686,1.7715380253047568,0.4154203410046442,0.5615600475204587,0.1393913141638896
18.499985,0.8904536496389552,0.6624423513836679,0.049923762990607516,-1.5891516654379247,-0.043595359803052035,2.2735935812257337,1.7651229730697888,0.4207603322276991,0.5648740491267712,0.14843632616425573
18.599999,0.8857931930316252,0.666320926101197,0.052056679483461446,-1.5581777191790176,-0.04359778257478587,2.246244703028697,1.7607668473279294,0.4259425715634233,0.5676670795980516,0.15686027802145616
18.69999,0.8819929151133103,0.6720378215517069,0.05306977826983612,-1.526285368135648,-0.04360059449616867,2.2193560987615215,1.7573080191454555,0.43133881737294283,0.5703319661838426,0.1644541079029627
18.799975,0.8788298784176857,0.6786802241191936,0.053329914852324044,-1.4968569557394737,-0.04360420545770848,2.1948385630736214,1.7519645391174674,0.43570068607535806,0.5718625098771944,0.17047051452283632
18.899984,0.8763286455428759,0.6844474449709259,0.05336188840234648,-1.4698065185404627,-0.04360290977001364,2.1693987373643377,1.7462578236754498,0.4395317368355055,0.5733611167015533,0.17645749366190744
18.999991,0.8746831666362754,0.6900037949335893,0.053368281377841026,-1.4416429720982147,-0.0436049359843429,2.1445559175942788,1.743671031412128,0.4430426315222494,0.5754613365147215,0.1833834788782986
19.099991,0.8736912693328663,0.6936412054578177,0.053422566295981994,-1.414786337314103,-0.04360604847084997,2.1220384832175854,1.7421938843655653,0.4462700379890471,0.5778410385561027,0.19130828368293437
19.199985,0.872663959117824,0.6972561124635238,0.053892066622626855,-1.3870748918802016,-0.043609992884560335,2.0997337112126107,1.7410689951130391,0.44943955790495066,0.5803822994249723,0.19936881699507575
19.299992,0.8713290018882844,0.7008624583420828,0.05468616784497035,-1.3615823477209301,-0.04360720883764147,2.078758098088891,1.739615250986843,0.45195263791918716,0.5820790212389242,0.2065006307801171
19.399991,0.8698977943282152,0.7035488157034127,0.05551069963545991,-1.3387557683148466,-0.04360569360213388,2.0572207806629006,1.738062443911071,0.4542047133884913,0.5832357637673974,0.21341303819978555
19.499912,0.8680825793308253,0.7050509157833194,0.05631807605646754,-1.3168400942998313,-0.04361222487742712,2.0362924913425804,1.7361553350505103,0.45654347967030257,0.5839413732426901,0.22086902471104952
19.599965,0.8656104172093083,0.7055785741453967,0.05710897741010031,-1.295020770776009,-0.043609589436859816,2.0161632914966443,1.7334378007290892,0.4594941604400135,0.5845362824342164,0.229142213917359
19.69997,0.862630602022689,0.7056557159972205,0.05753737693260765,-1.2733931267177994,-0.04360958990798617,1.9964921693507136,1.7306591384076808,0.4626926016452783,0.5845012293245347,0.23741426977488667
19.799992,0.8592064079034188,0.7056593909457722,0.05770619769586931,-1.2533879194701671,-0.04360883230593794,1.9775491842081252,1.7267970909906876,0.46597382144534943,0.5838962561907304,0.24492983111904176
19.899991,0.8557874626417512,0.7056631371394838,0.0577372331480188,-1.2359751061238116,-0.0436116156465806,1.958897970208789,1.7231890042591527,0.46869699745064247,0.5826604043181883,0.25144206678163417
19.999988,0.8522818370778045,0.7056749228805755,0.057801145628990754,-1.2200493997693396,-0.04360773618077041,1.9408305365041894,1.7201055719788623,0.47120052732099005,0.5811082938472086,0.2570447471651532
20.099977,0.8486503361787978,0.7056494247199402,0.05789026101680103,-1.2068914326338926,-0.04361051535533528,1.9236599797550689,1.7140206605504205,0.473329770689731,0.5790138126658955,0.2616160534662717
20.199986,0.8449962928156246,0.705476186355993,0.05792920451227476,-1.1959216186828603,-0.04360939013340683,1.906626481997896,1.706661873546284,0.4751247217440431,0.576522623393244,0.2650441726795426
20.299983,0.8411826831891828,0.7047810504255199,0.05796162503824736,-1.1885062721056567,-0.04360855107157921,1.8927917304805466,1.7029637859924718,0.47659056270161493,0.573482827981828,0.26762435262085704
20.399987,0.8367232887886799,0.7017317803654747,0.05824024936469328,-1.1860958049614327,-0.043612446905987125,1.878770455708742,1.7001719277866918,0.4776757535102438,0.5695867288433643,0.2698547185851639
20.499991,0.8320011456517991,0.6970653321250616,0.058545969466249584,-1.1856203504680998,-0.04360994470283331,1.8657096961594837,1.696738294945631,0.4789193996992927,0.5658091789423141,0.272940209145804
20.599988,0.8277789066787586,0.6879153874102053,0.058702719614365434,-1.1864862326924879,-0.04361261491779443,1.8553532797226955,1.6935977968649067,0.4797562715651921,0.5623592425782175,0.2796898876732469
20.700071,0.8242552301865066,0.6709170009334962,0.05920807041658655,-1.1919902259044601,-0.04361468818618903,1.8462858956518124,1.69203526275495,0.4797757744998845,0.559162890362798,0.289785400051433
20.799941,0.8213976233662101,0.6475776653687673,0.06010302099335761,-1.2014289271695433,-0.04361092255183964,1.839002185789948,1.6908634880211342,0.4786055276392127,0.5559329818194392,0.30233335906341385
20.900015,0.8189242819032534,0.62120511584381,0.061889414975941526,-1.2127555160060084,-0.04360830247444677,1.8320783282714153,1.6895762958933707,0.4767091453893201,0.5529972407842775,0.3155199658922434
20.99995,0.8167073437136504,0.5940356481393106,0.06400935812204057,-1.2277019575682298,-0.0436072537506734,1.8275386335498898,1.6881600850291318,0.47416747466733433,0.5500703055156273,0.3271205493926843
21.099999,0.814463456370778,0.5701528562822695,0.06631245827677658,-1.2416745226161796,-0.043605473207519334,1.8237055690670165,1.6871621783257846,0.47157922114967105,0.5468447817643112,0.3363439131892996
21.199987,0.8122417952046544,0.54877931138488,0.06786994817657213,-1.257720144094733,-0.04360424756481339,1.8168017312023648,1.6864216356227024,0.4686330155857806,0.5425036928379893,0.34283707477905945
21.299966,0.8091475653843188,0.531247239068828,0.06986620560982765,-1.272380869026367,-0.0435984800339059,1.8090511030044674,1.6859516857446355,0.4660018258506119,0.5382697971851209,0.3475328320579104
21.399988,0.8062240702627874,0.5157690861154255,0.07155741030575527,-1.2847947105229536,-0.04360237629505978,1.8000254055447926,1.6856203584165084,0.4638142769071816,0.5342204968200149,0.3516649089742069
21.499988,0.8032703677154344,0.5022275624023761,0.07318151812345038,-1.2926339182429043,-0.04359757978576171,1.790385431531709,1.6851548766002296,0.4618135944062254,0.5304107684126614,0.35720389828397475
21.599985,0.800190167504999,0.4883634823988507,0.07503543436260224,-1.2976190199786453,-0.043591522860686245,1.7798769107445902,1.684273690601916,0.46060683520417034,0.527223183951358,0.3640192196402925
21.699987,0.7971510744058281,0.4758598792866847,0.07618949148774273,-1.2975870414234898,-0.04358723914351771,1.7673114585632472,1.6827432516745084,0.4597671234765151,0.5238045071030587,0.37205482437915455
21.799991,0.7935962645565109,0.4651818217360318,0.07728324742533954,-1.293207868390444,-0.04359001763562564,1.751268291758752,1.6794716922417776,0.45971476269136224,0.5206765714292777,0.37999188488855207
21.899989,0.7893618383942645,0.4619640221238186,0.07849006504392368,-1.278828186500128,-0.04358471751639099,1.7359008295402183,1.6716359473530418,0.46153726795556393,0.5186351410328262,0.3873919719469894
21.999988,0.7845078841106787,0.4619067963850675,0.07882919086290324,-1.262806392815537,-0.04358076454729454,1.7176651323929573,1.6633252879139615,0.46369285736275423,0.5153745935061506,0.3934034235908352
22.100009,0.7787102407108654,0.4619824374591185,0.07881750024678807,-1.2451477086061375,-0.04358008451226999,1.6979047037473043,1.6580810091867573,0.46647391006068417,0.5117380680551825,0.40049240112211776
22.200007,0.7726406553402649,0.4619660273921742,0.0788181983726954,-1.2232592166335121,-0.043582014975536,1.6767563872073317,1.6533772377206262,0.46955485338481967,0.5083200664768602,0.4096096658706324
22.299964,0.7668277294749873,0.46193362727983955,0.07881876773108895,-1.1996158661350307,-0.04358230804753658,1.657672653793102,1.647762922362994,0.47272590352542393,0.5052286732573557,0.4193465967315425
22.399926,0.7612388943984122,0.46191091205258034,0.07886700984153941,-1.176711006662511,-0.043583184526736915,1.637340363481387,1.6432947282316657,0.47534201820251515,0.5017425191739834,0.4281553451959955
22.499992,0.7550372761217271,0.46189500632182035,0.07891288598270507,-1.157587930396941,-0.043579528742069926,1.6190921246854066,1.6367743960204182,0.4779554494839782,0.49764471311152697,0.43509890020901826
22.599977,0.7485751919847824,0.4618711534591911,0.07891432074591247,-1.1426240211271204,-0.04357992484889697,1.600737749023162,1.6261413190790175,0.4799586665575889,0.49296153475016125,0.43982574496835336
22.699991,0.7421133337264652,0.46084152409561957,0.07891000996666167,-1.1348949114683746,-0.04357902690519746,1.5854833828632098,1.6186945919291529,0.48151568909329256,0.48796605293475254,0.44230884267906295
22.799989,0.7356066951016063,0.4553128340932925,0.07891821276991665,-1.134961859806946,-0.043573461946096084,1.5708569553551601,1.6115310671304135,0.4819206764669285,0.4820531358238425,0.44568208441161683
22.89999,0.7283631524476658,0.4411251920205113,0.07892037293512202,-1.140315947202961,-0.04354522129422911,1.5589259329688525,1.6059538639047277,0.48163984755208034,0.4749324469797455,0.4524541884189258
22.99999,0.7200906038798375,0.41823665012561406,0.07890546261120038,-1.1523319550262583,-0.03978048363777456,1.5513468071014078,1.6010261474208447,0.480184265286814,0.46733641865479797,0.4624965106289448
23.09999,0.7121380322975446,0.3879721694344473,0.07891853607008857,-1.1688847090557244,-0.036919397970891825,1.545434079462093,1.5909364130750248,0.47746728777574626,0.4589475635513928,0.4748904647356697
23.199972,0.7052748292198535,0.355680244692054,0.07891314305208295,-1.1852080430628502,-0.03433782560829593,1.5379007428981808,1.582136440150644,0.4738603746355813,0.45058423911560574,0.4885133770451384
23.299987,0.698757396458541,0.32318877874440377,0.07886667788940785,-1.2019991304474087,-0.032260862367661874,1.5317857775348516,1.5767342322015134,0.47013434350403926,0.44238789850395493,0.5007885099635654
23.400114,0.6926847071668839,0.2947668518416184,0.07877894954644822,-1.2166506173823854,-0.030278459695038396,1.523080844452954,1.5705172187554013,0.4663098549522652,0.4345224584413678,0.5104342032292659
23.500007,0.6867292420772246,0.2719256257065437,0.07860096449511525,-1.2295404756971184,-0.02824511159303709,1.5126524508839936,1.5650890067237322,0.4634463230310674,0.42753561206736207,0.5173126037962466
23.599911,0.6801193797696632,0.25549040235687204,0.0785150804550856,-1.2363269589220593,-0.02633281635202449,1.5018858036496043,1.5580218768620875,0.46161722559856216,0.4208442352867265,0.5227557824781216
23.69993,0.6729348681285876,0.24408179650008147,0.07788183267027893,-1.23891533303215,-0.02530156884659259,1.4872483294226264,1.5467879473116037,0.46064849752436554,0.4137617425115053,0.5273564681937994
23.799989,0.6662949011741666,0.23525902119044467,0.076468462318356,-1.2374680045849198,-0.024701390903240174,1.4701897961255088,1.5397868217152895,0.46025201926552445,0.40701831952641726,0.5321338465103198
23.900077,0.6601912885591917,0.2330863890329354,0.07510789540746426,-1.223059490053692,-0.024372345961043033,1.4495399213232756,1.5335774577639734,0.4606833787440966,0.40283529830099596,0.5371232476580636
24.000035,0.6599666718028423,0.23308450488560295,0.07508660309205767,-1.2223237497099242,-0.02436662947401578,1.448711798801273,1.5333978021531547,0.4606833787440966,0.40283529830099596,0.5371232476580636
24.100143,0.6599666718028423,0.23308450488560295,0.07508660309205767,-1.2223237497099242,-0.02436662947401578,1.448711798801273,1.5333978021531547,0.4606833787440966,0.40283529830099596,0.5371232476580636
24.200031,0.6599666718028423,0.23308450488560295,0.07508660309205767,-1.2223237497099242,-0.02436662947401578,1.448711798801273,1.5333978021531547,0.4606833787440966,0.40283529830099596,0.5371232476580636
24.300042,0.6599666718028423,0.23308450488560295,0.07508660309205767,-1.2223237497099242,-0.02436662947401578,1.448711798801273,1.5333978021531547,0.4606833787440966,0.40283529830099596,0.5371232476580636
24.400046,0.6599666718028423,0.23308450488560295,0.07508660309205767,-1.2223237497099242,-0.02436662947401578,1.448711798801273,1.5333978021531547,0.4606833787440966,0.40283529830099596,0.5371232476580636
24.500033,0.6599666718028423,0.23308450488560295,0.07508660309205767,-1.2223237497099242,-0.02436662947401578,1.448711798801273,1.5333978021531547,0.4606833787440966,0.40283529830099596,0.5371232476580636
24.600037,0.6599666718028423,0.23308450488560295,0.07508660309205767,-1.2223237497099242,-0.02436662947401578,1.448711798801273,1.5333978021531547,0.4606833787440966,0.40283529830099596,0.5371232476580636
24.700041,0.6599666718028423,0.23308450488560295,0.07508660309205767,-1.2223237497099242,-0.02436662947401578,1.448711798801273,1.5333978021531547,0.4606833787440966,0.40283529830099596,0.5371232476580636
24.800057,0.6599666718028423,0.23308450488560295,0.07508660309205767,-1.2223237497099242,-0.02436662947401578,1.448711798801273,1.5333978021531547,0.4606833787440966,0.40283529830099596,0.5371232476580636
24.900043,0.6599666718028423,0.23308450488560295,0.07508660309205767,-1.2223237497099242,-0.02436662947401578,1.448711798801273,1.5333978021531547,0.4606833787440966,0.40283529830099596,0.5371232476580636
25.000084,0.6599666718028423,0.23308450488560295,0.07508660309205767,-1.2223237497099242,-0.02436662947401578,1.448711798801273,1.5333978021531547,0.4606833787440966,0.40283529830099596,0.5371232476580636
25.100071,0.6599666718028423,0.23308450488560295,0.07508660309205767,-1.2223237497099242,-0.02436662947401578,1.448711798801273,1.5333978021531547,0.4606833787440966,0.40283529830099596,0.5371232476580636
25.200262,0.6599666718028423,0.23308450488560295,0.07508660309205767,-1.2223237497099242,-0.02436662947401578,1.448711798801273,1.5333978021531547,0.4606833787440966,0.40283529830099596,0.5371232476580636
25.300357,0.6599666718028423,0.23308450488560295,0.07508660309205767,-1.2223237497099242,-0.02436662947401578,1.448711798801273,1.5333978021531547,0.4606833787440966,0.40283529830099596,0.5371232476580636
25.400231,0.6599666718028423,0.23308450488560295,0.07508660309205767,-1.2223237497099242,-0.02436662947401578,1.448711798801273,1.5333978021531547,0.4606833787440966,0.40283529830099596,0.5371232476580636
25.5002,0.6599666718028423,0.23308450488560295,0.07508660309205767,-1.2223237497099242,-0.02436662947401578,1.448711798801273,1.5333978021531547,0.4606833787440966,0.40283529830099596,0.5371232476580636
25.600264,0.6599666718028423,0.23308450488560295,0.07508660309205767,-1.2223237497099242,-0.02436662947401578,1.448711798801273,1.5333978021531547,0.4606833787440966,0.40283529830099596,0.5371232476580636
25.700129,0.6599666718028423,0.23308450488560295,0.07508660309205767,-1.2223237497099242,-0.02436662947401578,1.448711798801273,1.5333978021531547,0.4606833787440966,0.40283529830099596,0.5371232476580636
25.800074,0.6599666718028423,0.23308450488560295,0.07508660309205767,-1.2223237497099242,-0.02436662947401578,1.448711798801273,1.5333978021531547,0.4606833787440966,0.40283529830099596,0.5371232476580636
25.900255,0.6599666718028423,0.23308450488560295,0.07508660309205767,-1.2223237497099242,-0.02436662947401578,1.448711798801273,1.5333978021531547,0.4606833787440966,0.40283529830099596,0.5371232476580636
26.000243,0.6599666718028423,0.23308450488560295,0.07508660309205767,-1.2223237497099242,-0.02436662947401578,1.448711798801273,1.5333978021531547,0.4606833787440966,0.40283529830099596,0.5371232476580636
26.100132,0.6599666718028423,0.23308450488560295,0.07508660309205767,-1.2223237497099242,-0.02436662947401578,1.448711798801273,1.5333978021531547,0.4606833787440966,0.40283529830099596,0.5371232476580636
26.200267,0.6599666718028423,0.23308450488560295,0.07508660309205767,-1.2223237497099242,-0.02436662947401578,1.448711798801273,1.5333978021531547,0.4606833787440966,0.40283529830099596,0.5371232476580636
26.300258,0.6599666718028423,0.23308450488560295,0.07508660309205767,-1.2223237497099242,-0.02436662947401578,1.448711798801273,1.5333978021531547,0.4606833787440966,0.40283529830099596,0.5371232476580636
26.400354,0.6599666718028423,0.23308450488560295,0.07508660309205767,-1.2223237497099242,-0.02436662947401578,1.448711798801273,1.5333978021531547,0.4606833787440966,0.40283529830099596,0.5371232476580636
26.500282,0.6599666718028423,0.23308450488560295,0.07508660309205767,-1.2223237497099242,-0.02436662947401578,1.448711798801273,1.5333978021531547,0.4606833787440966,0.40283529830099596,0.5371232476580636
26.600356,0.6599666718028423,0.23308450488560295,0.07508660309205767,-1.2223237497099242,-0.02436662947401578,1.448711798801273,1.5333978021531547,0.4606833787440966,0.40283529830099596,0.5371232476580636
26.700269,0.6599666718028423,0.23308450488560295,0.07508660309205767,-1.2223237497099242,-0.02436662947401578,1.448711798801273,1.5333978021531547,0.4606833787440966,0.40283529830099596,0.5371232476580636
26.80027,0.6599666718028423,0.23308450488560295,0.07508660309205767,-1.2223237497099242,-0.02436662947401578,1.448711798801273,1.5333978021531547,0.4606833787440966,0.40283529830099596,0.5371232476580636
26.90027,0.6599666718028423,0.23308450488560295,0.07508660309205767,-1.2223237497099242,-0.02436662947401578,1.448711798801273,1.5333978021531547,0.4606833787440966,0.40283529830099596,0.5371232476580636
27.000268,0.6599666718028423,0.23308450488560295,0.07508660309205767,-1.2223237497099242,-0.02436662947401578,1.448711798801273,1.5333978021531547,0.4606833787440966,0.40283529830099596,0.5371232476580636
27.100137,0.6599666718028423,0.23308450488560295,0.07508660309205767,-1.2223237497099242,-0.02436662947401578,1.448711798801273,1.5333978021531547,0.4606833787440966,0.40283529830099596,0.5371232476580636
27.200145,0.6599666718028423,0.23308450488560295,0.07508660309205767,-1.2223237497099242,-0.02436662947401578,1.448711798801273,1.5333978021531547,0.4606833787440966,0.40283529830099596,0.5371232476580636
27.30028,0.6599666718028423,0.23308450488560295,0.07508660309205767,-1.2223237497099242,-0.02436662947401578,1.448711798801273,1.5333978021531547,0.4606833787440966,0.40283529830099596,0.5371232476580636
27.400135,0.6599666718028423,0.23308450488560295,0.07508660309205767,-1.2223237497099242,-0.02436662947401578,1.448711798801273,1.5333978021531547,0.4606833787440966,0.40283529830099596,0.5371232476580636
27.50027,0.6599666718028423,0.23308450488560295,0.07508660309205767,-1.2223237497099242,-0.02436662947401578,1.448711798801273,1.5333978021531547,0.4606833787440966,0.40283529830099596,0.5371232476580636
27.600274,0.6599666718028423,0.23308450488560295,0.07508660309205767,-1.2223237497099242,-0.02436662947401578,1.448711798801273,1.5333978021531547,0.4606833787440966,0.40283529830099596,0.5371232476580636
27.70013,0.6599666718028423,0.23308450488560295,0.07508660309205767,-1.2223237497099242,-0.02436662947401578,1.448711798801273,1.5333978021531547,0.4606833787440966,0.40283529830099596,0.5371232476580636
27.800262,0.6599666718028423,0.23308450488560295,0.07508660309205767,-1.2223237497099242,-0.02436662947401578,1.448711798801273,1.5333978021531547,0.4606833787440966,0.40283529830099596,0.5371232476580636
27.900254,0.6599666718028423,0.23308450488560295,0.07508660309205767,-1.2223237497099242,-0.02436662947401578,1.448711798801273,1.5333978021531547,0.4606833787440966,0.40283529830099596,0.5371232476580636
28.000258,0.6599666718028423,0.23308450488560295,0.07508660309205767,-1.2223237497099242,-0.02436662947401578,1.448711798801273,1.5333978021531547,0.4606833787440966,0.40283529830099596,0.5371232476580636
28.100137,0.6599666718028423,0.23308450488560295,0.07508660309205767,-1.2223237497099242,-0.02436662947401578,1.448711798801273,1.5333978021531547,0.4606833787440966,0.40283529830099596,0.5371232476580636
28.20027,0.6599666718028423,0.23308450488560295,0.07508660309205767,-1.2223237497099242,-0.02436662947401578,1.448711798801273,1.5333978021531547,0.4606833787440966,0.40283529830099596,0.5371232476580636
28.300306,0.6599666718028423,0.23308450488560295,0.07508660309205767,-1.2223237497099242,-0.02436662947401578,1.448711798801273,1.5333978021531547,0.4606833787440966,0.40283529830099596,0.5371232476580636
28.400363,0.6599666718028423,0.23308450488560295,0.07508660309205767,-1.2223237497099242,-0.02436662947401578,1.448711798801273,1.5333978021531547,0.4606833787440966,0.40283529830099596,0.5371232476580636
28.500281,0.6599666718028423,0.23308450488560295,0.07508660309205767,-1.2223237497099242,-0.02436662947401578,1.448711798801273,1.5333978021531547,0.4606833787440966,0.40283529830099596,0.5371232476580636
28.600262,0.6599666718028423,0.23308450488560295,0.07508660309205767,-1.2223237497099242,-0.02436662947401578,1.448711798801273,1.5333978021531547,0.4606833787440966,0.40283529830099596,0.5371232476580636
28.700306,0.6599666718028423,0.23308450488560295,0.07508660309205767,-1.2223237497099242,-0.02436662947401578,1.448711798801273,1.5333978021531547,0.4606833787440966,0.40283529830099596,0.5371232476580636
28.800276,0.6599666718028423,0.23308450488560295,0.07508660309205767,-1.2223237497099242,-0.02436662947401578,1.448711798801273,1.5333978021531547,0.4606833787440966,0.40283529830099596,0.5371232476580636
28.900259,0.6599666718028423,0.23308450488560295,0.07508660309205767,-1.2223237497099242,-0.02436662947401578,1.448711798801273,1.5333978021531547,0.4606833787440966,0.40283529830099596,0.5371232476580636
29.000264,0.6599666718028423,0.23308450488560295,0.07508660309205767,-1.2223237497099242,-0.02436662947401578,1.448711798801273,1.5333978021531547,0.4606833787440966,0.40283529830099596,0.5371232476580636
29.10018,0.6599666718028423,0.23308450488560295,0.07508660309205767,-1.2223237497099242,-0.02436662947401578,1.448711798801273,1.5333978021531547,0.4606833787440966,0.40283529830099596,0.5371232476580636
29.200269,0.6599666718028423,0.23308450488560295,0.07508660309205767,-1.2223237497099242,-0.02436662947401578,1.448711798801273,1.5333978021531547,0.4606833787440966,0.40283529830099596,0.5371232476580636
29.300267,0.6599666718028423,0.23308450488560295,0.07508660309205767,-1.2223237497099242,-0.02436662947401578,1.448711798801273,1.5333978021531547,0.4606833787440966,0.40283529830099596,0.5371232476580636
29.400361,0.6599666718028423,0.23308450488560295,0.07508660309205767,-1.2223237497099242,-0.02436662947401578,1.448711798801273,1.5333978021531547,0.4606833787440966,0.40283529830099596,0.5371232476580636
29.500268,0.6599666718028423,0.23308450488560295,0.07508660309205767,-1.2223237497099242,-0.02436662947401578,1.448711798801273,1.5333978021531547,0.4606833787440966,0.40283529830099596,0.5371232476580636
29.600254,0.6599666718028423,0.23308450488560295,0.07508660309205767,-1.2223237497099242,-0.02436662947401578,1.448711798801273,1.5333978021531547,0.4606833787440966,0.40283529830099596,0.5371232476580636
29.70025,0.6599666718028423,0.23308450488560295,0.07508660309205767,-1.2223237497099242,-0.02436662947401578,1.448711798801273,1.5333978021531547,0.4606833787440966,0.40283529830099596,0.5371232476580636
29.800283,0.6599666718028423,0.23308450488560295,0.07508660309205767,-1.2223237497099242,-0.02436662947401578,1.448711798801273,1.5333978021531547,0.4606833787440966,0.40283529830099596,0.5371232476580636
29.900275,0.6599666718028423,0.23308450488560295,0.07508660309205767,-1.2223237497099242,-0.02436662947401578,1.448711798801273,1.5333978021531547,0.4606833787440966,0.40283529830099596,0.5371232476580636
30.000262,0.6599666718028423,0.23308450488560295,0.07508660309205767,-1.2223237497099242,-0.02436662947401578,1.448711798801273,1.5333978021531547,0.4606833787440966,0.40283529830099596,0.5371232476580636
30.100226,0.6599666718028423,0.23308450488560295,0.07508660309205767,-1.2223237497099242,-0.02436662947401578,1.448711798801273,1.5333978021531547,0.4606833787440966,0.40283529830099596,0.5371232476580636
30.200368,0.6599666718028423,0.23308450488560295,0.07508660309205767,-1.2223237497099242,-0.02436662947401578,1.448711798801273,1.5333978021531547,0.4606833787440966,0.40283529830099596,0.5371232476580636
30.300287,0.6599666718028423,0.23308450488560295,0.07508660309205767,-1.2223237497099242,-0.02436662947401578,1.448711798801273,1.5333978021531547,0.4606833787440966,0.40283529830099596,0.5371232476580636
30.40044,0.6599666718028423,0.23308450488560295,0.07508660309205767,-1.2223237497099242,-0.02436662947401578,1.448711798801273,1.5333978021531547,0.4606833787440966,0.40283529830099596,0.5371232476580636
30.500374,0.6599666718028423,0.23308450488560295,0.07508660309205767,-1.2223237497099242,-0.02436662947401578,1.448711798801273,1.5333978021531547,0.4606833787440966,0.40283529830099596,0.5371232476580636
30.600287,0.6599666718028423,0.23308450488560295,0.07508660309205767,-1.2223237497099242,-0.02436662947401578,1.448711798801273,1.5333978021531547,0.4606833787440966,0.40283529830099596,0.5371232476580636
30.700355,0.6599666718028423,0.23308450488560295,0.07508660309205767,-1.2223237497099242,-0.02436662947401578,1.448711798801273,1.5333978021531547,0.4606833787440966,0.40283529830099596,0.5371232476580636
30.800471,0.6599666718028423,0.23308450488560295,0.07508660309205767,-1.2223237497099242,-0.02436662947401578,1.448711798801273,1.5333978021531547,0.4606833787440966,0.40283529830099596,0.5371232476580636
30.900265,0.6599666718028423,0.23308450488560295,0.07508660309205767,-1.2223237497099242,-0.02436662947401578,1.448711798801273,1.5333978021531547,0.4606833787440966,0.40283529830099596,0.5371232476580636
31.000273,0.6599666718028423,0.23308450488560295,0.07508660309205767,-1.2223237497099242,-0.02436662947401578,1.448711798801273,1.5333978021531547,0.4606833787440966,0.40283529830099596,0.5371232476580636
31.100282,0.6599666718028423,0.23308450488560295,0.07508660309205767,-1.2223237497099242,-0.02436662947401578,1.448711798801273,1.5333978021531547,0.4606833787440966,0.40283529830099596,0.5371232476580636
31.200341,0.6599666718028423,0.23308450488560295,0.07508660309205767,-1.2223237497099242,-0.02436662947401578,1.448711798801273,1.5333978021531547,0.4606833787440966,0.40283529830099596,0.5371232476580636
31.300353,0.6599666718028423,0.23308450488560295,0.07508660309205767,-1.2223237497099242,-0.02436662947401578,1.448711798801273,1.5333978021531547,0.4606833787440966,0.40283529830099596,0.5371232476580636
31.400253,0.6599666718028423,0.23308450488560295,0.07508660309205767,-1.2223237497099242,-0.02436662947401578,1.448711798801273,1.5333978021531547,0.4606833787440966,0.40283529830099596,0.5371232476580636
31.500296,0.6599666718028423,0.23308450488560295,0.07508660309205767,-1.2223237497099242,-0.02436662947401578,1.448711798801273,1.5333978021531547,0.4606833787440966,0.40283529830099596,0.5371232476580636
31.600282,0.6599666718028423,0.23308450488560295,0.07508660309205767,-1.2223237497099242,-0.02436662947401578,1.448711798801273,1.5333978021531547,0.4606833787440966,0.40283529830099596,0.5371232476580636
31.70018,0.6599666718028423,0.23308450488560295,0.07508660309205767,-1.2223237497099242,-0.02436662947401578,1.448711798801273,1.5333978021531547,0.4606833787440966,0.40283529830099596,0.5371232476580636
31.800262,0.6599666718028423,0.23308450488560295,0.07508660309205767,-1.2223237497099242,-0.02436662947401578,1.448711798801273,1.5333978021531547,0.4606833787440966,0.40283529830099596,0.5371232476580636
31.900269,0.6599666718028423,0.23308450488560295,0.07508660309205767,-1.2223237497099242,-0.02436662947401578,1.448711798801273,1.5333978021531547,0.4606833787440966,0.40283529830099596,0.5371232476580636
32.000248,0.6599666718028423,0.23308450488560295,0.07508660309205767,-1.2223237497099242,-0.02436662947401578,1.448711798801273,1.5333978021531547,0.4606833787440966,0.40283529830099596,0.5371232476580636
32.100353,0.6599666718028423,0.23308450488560295,0.07508660309205767,-1.2223237497099242,-0.02436662947401578,1.448711798801273,1.5333978021531547,0.4606833787440966,0.40283529830099596,0.5371232476580636
32.200256,0.6599666718028423,0.23308450488560295,0.07508660309205767,-1.2223237497099242,-0.02436662947401578,1.448711798801273,1.5333978021531547,0.4606833787440966,0.40283529830099596,0.5371232476580636
32.300277,0.6599666718028423,0.23308450488560295,0.07508660309205767,-1.2223237497099242,-0.02436662947401578,1.448711798801273,1.5333978021531547,0.4606833787440966,0.40283529830099596,0.5371232476580636
32.400264,0.6599666718028423,0.23308450488560295,0.07508660309205767,-1.2223237497099242,-0.02436662947401578,1.448711798801273,1.5333978021531547,0.4606833787440966,0.40283529830099596,0.5371232476580636
32.500371,0.6599666718028423,0.23308450488560295,0.07508660309205767,-1.2223237497099242,-0.02436662947401578,1.448711798801273,1.5333978021531547,0.4606833787440966,0.40283529830099596,0.5371232476580636
32.600261,0.6599666718028423,0.23308450488560295,0.07508660309205767,-1.2223237497099242,-0.02436662947401578,1.448711798801273,1.5333978021531547,0.4606833787440966,0.40283529830099596,0.5371232476580636
32.700271,0.6599666718028423,0.23308450488560295,0.07508660309205767,-1.2223237497099242,-0.02436662947401578,1.448711798801273,1.5333978021531547,0.4606833787440966,0.40283529830099596,0.5371232476580636
32.800266,0.6599666718028423,0.23308450488560295,0.07508660309205767,-1.2223237497099242,-0.02436662947401578,1.448711798801273,1.5333978021531547,0.4606833787440966,0.40283529830099596,0.5371232476580636
32.900328,0.6599666718028423,0.23308450488560295,0.07508660309205767,-1.2223237497099242,-0.02436662947401578,1.448711798801273,1.5333978021531547,0.4606833787440966,0.40283529830099596,0.5371232476580636
33.000257,0.6599666718028423,0.23308450488560295,0.07508660309205767,-1.2223237497099242,-0.02436662947401578,1.448711798801273,1.5333978021531547,0.4606833787440966,0.40283529830099596,0.5371232476580636
33.100274,0.6599666718028423,0.23308450488560295,0.07508660309205767,-1.2223237497099242,-0.02436662947401578,1.448711798801273,1.5333978021531547,0.4606833787440966,0.40283529830099596,0.5371232476580636
33.200266,0.6599666718028423,0.23308450488560295,0.07508660309205767,-1.2223237497099242,-0.02436662947401578,1.448711798801273,1.5333978021531547,0.4606833787440966,0.40283529830099596,0.5371232476580636
33.300265,0.6599666718028423,0.23308450488560295,0.07508660309205767,-1.2223237497099242,-0.02436662947401578,1.448711798801273,1.5333978021531547,0.4606833787440966,0.40283529830099596,0.5371232476580636
33.400277,0.6599666718028423,0.23308450488560295,0.07508660309205767,-1.2223237497099242,-0.02436662947401578,1.448711798801273,1.5333978021531547,0.4606833787440966,0.40283529830099596,0.5371232476580636
33.500281,0.6599666718028423,0.23308450488560295,0.07508660309205767,-1.2223237497099242,-0.02436662947401578,1.448711798801273,1.5333978021531547,0.4606833787440966,0.40283529830099596,0.5371232476580636
33.600268,0.6599666718028423,0.23308450488560295,0.07508660309205767,-1.2223237497099242,-0.02436662947401578,1.448711798801273,1.5333978021531547,0.4606833787440966,0.40283529830099596,0.5371232476580636
33.700273,0.6599666718028423,0.23308450488560295,0.07508660309205767,-1.2223237497099242,-0.02436662947401578,1.448711798801273,1.5333978021531547,0.4606833787440966,0.40283529830099596,0.5371232476580636
33.800275,0.6599666718028423,0.23308450488560295,0.07508660309205767,-1.2223237497099242,-0.02436662947401578,1.448711798801273,1.5333978021531547,0.4606833787440966,0.40283529830099596,0.5371232476580636
33.90017,0.6599666718028423,0.23308450488560295,0.07508660309205767,-1.2223237497099242,-0.02436662947401578,1.448711798801273,1.5333978021531547,0.4606833787440966,0.40283529830099596,0.5371232476580636
34.000247,0.6599666718028423,0.23308450488560295,0.07508660309205767,-1.2223237497099242,-0.02436662947401578,1.448711798801273,1.5333978021531547,0.4606833787440966,0.40283529830099596,0.5371232476580636
34.100294,0.6599666718028423,0.23308450488560295,0.07508660309205767,-1.2223237497099242,-0.02436662947401578,1.448711798801273,1.5333978021531547,0.4606833787440966,0.40283529830099596,0.5371232476580636
34.20026,0.6599666718028423,0.23308450488560295,0.07508660309205767,-1.2223237497099242,-0.02436662947401578,1.448711798801273,1.5333978021531547,0.4606833787440966,0.40283529830099596,0.5371232476580636
34.300276,0.6599666718028423,0.23308450488560295,0.07508660309205767,-1.2223237497099242,-0.02436662947401578,1.448711798801273,1.5333978021531547,0.4606833787440966,0.40283529830099596,0.5371232476580636
34.400267,0.6599666718028423,0.23308450488560295,0.07508660309205767,-1.2223237497099242,-0.02436662947401578,1.448711798801273,1.5333978021531547,0.4606833787440966,0.40283529830099596,0.5371232476580636
34.500259,0.6599666718028423,0.23308450488560295,0.07508660309205767,-1.2223237497099242,-0.02436662947401578,1.448711798801273,1.5333978021531547,0.4606833787440966,0.40283529830099596,0.5371232476580636
34.600264,0.6599666718028423,0.23308450488560295,0.07508660309205767,-1.2223237497099242,-0.02436662947401578,1.448711798801273,1.5333978021531547,0.4606833787440966,0.40283529830099596,0.5371232476580636
34.700399,0.6599666718028423,0.23308450488560295,0.07508660309205767,-1.2223237497099242,-0.02436662947401578,1.448711798801273,1.5333978021531547,0.4606833787440966,0.40283529830099596,0.5371232476580636
34.800138,0.6599666718028423,0.23308450488560295,0.07508660309205767,-1.2223237497099242,-0.02436662947401578,1.448711798801273,1.5333978021531547,0.4606833787440966,0.40283529830099596,0.5371232476580636
34.900283,0.6599666718028423,0.23308450488560295,0.07508660309205767,-1.2223237497099242,-0.02436662947401578,1.448711798801273,1.5333978021531547,0.4606833787440966,0.40283529830099596,0.5371232476580636
35.000267,0.6599666718028423,0.23308450488560295,0.07508660309205767,-1.2223237497099242,-0.02436662947401578,1.448711798801273,1.5333978021531547,0.4606833787440966,0.40283529830099596,0.5371232476580636
35.100266,0.6599666718028423,0.23308450488560295,0.07508660309205767,-1.2223237497099242,-0.02436662947401578,1.448711798801273,1.5333978021531547,0.4606833787440966,0.40283529830099596,0.5371232476580636
35.200267,0.6599666718028423,0.23308450488560295,0.07508660309205767,-1.2223237497099242,-0.02436662947401578,1.448711798801273,1.5333978021531547,0.4606833787440966,0.40283529830099596,0.5371232476580636
35.300152,0.6599666718028423,0.23308450488560295,0.07508660309205767,-1.2223237497099242,-0.02436662947401578,1.448711798801273,1.5333978021531547,0.4606833787440966,0.40283529830099596,0.5371232476580636
35.400156,0.6599666718028423,0.23308450488560295,0.07508660309205767,-1.2223237497099242,-0.02436662947401578,1.448711798801273,1.5333978021531547,0.4606833787440966,0.40283529830099596,0.5371232476580636
35.500154,0.6599666718028423,0.23308450488560295,0.07508660309205767,-1.2223237497099242,-0.02436662947401578,1.448711798801273,1.5333978021531547,0.4606833787440966,0.40283529830099596,0.5371232476580636
35.600142,0.6599666718028423,0.23308450488560295,0.07508660309205767,-1.2223237497099242,-0.02436662947401578,1.448711798801273,1.5333978021531547,0.4606833787440966,0.40283529830099596,0.5371232476580636
35.700082,0.6599666718028423,0.23308450488560295,0.07508660309205767,-1.2223237497099242,-0.02436662947401578,1.448711798801273,1.5333978021531547,0.4606833787440966,0.40283529830099596,0.5371232476580636
35.800116,0.6599666718028423,0.23308450488560295,0.07508660309205767,-1.2223237497099242,-0.02436662947401578,1.448711798801273,1.5333978021531547,0.4606833787440966,0.40283529830099596,0.5371232476580636
35.900059,0.6599666718028423,0.23308450488560295,0.07508660309205767,-1.2223237497099242,-0.02436662947401578,1.448711798801273,1.5333978021531547,0.4606833787440966,0.40283529830099596,0.5371232476580636
36.000011,0.6567693233699413,0.23370293270227724,0.07489257809904608,-1.2112817374499367,-0.02440726820347052,1.4372842879762042,1.5310814935487553,0.4611253455414621,0.40030030172572917,0.5408340721323438
36.099993,0.6554998351904587,0.23317202384851696,0.0745452421997525,-1.2126834503618371,-0.024397626620291737,1.4394945209447982,1.531091990748176,0.4620748545356159,0.3994614299805983,0.540601467582248
36.199994,0.6457449233105886,0.2277827779606784,0.07433486167302304,-1.2224577032623465,-0.024387331103255812,1.4423656732211696,1.5276512423970199,0.46527225708130615,0.3932592880703584,0.5396849731094517
36.300005,0.6253987254455902,0.21034791026085214,0.07159381827615129,-1.2418883386586586,-0.024388504197682064,1.4457434769358537,1.5110073328251303,0.47045725800636884,0.3792408438900352,0.5422321052301735
36.399987,0.6014112554503058,0.18014355403713797,0.06686409100853334,-1.2688331682735101,-0.024391508664405148,1.4497798814194387,1.4894113727437488,0.4742667729209308,0.36132757598661414,0.5484624117613863
36.499988,0.5795955613502709,0.1434945740629464,0.06380676932671396,-1.3024789629982025,-0.02436365032106113,1.4540328481017821,1.4659021349776056,0.4743973878088542,0.3443911170387008,0.5550453788931181
36.599971,0.5600002712072797,0.10631222035489477,0.06250698405914731,-1.3409460994859885,-0.024146442076844507,1.4574353299147866,1.4421469178657493,0.47245997903144005,0.32886851515528914,0.5588888610828197
36.699992,0.5399946555222451,0.07238197820980541,0.06115266720339277,-1.3813925952491162,-0.023837072916270966,1.4613352823907901,1.418055193822695,0.4707480307734594,0.31351123797272873,0.5593616080259426
36.799991,0.5187770290567872,0.0401216924845382,0.05868408272776885,-1.4220013881023659,-0.02313252391415225,1.4650928185526668,1.3938641774916856,0.4692834536290222,0.2973970284244561,0.559330659022928
36.899961,0.49732118144324255,0.005337770976777166,0.055974360271922326,-1.4623978364393448,-0.022227256933907813,1.4696288197271026,1.3699927036942474,0.467010099754373,0.2810391495991141,0.5603093290342076
36.999983,0.47648538399330753,-0.03002974185198467,0.053568735007640554,-1.5018973592625298,-0.021264069153748413,1.4741719429059588,1.3457194540040172,0.46389535969934154,0.26539449689332995,0.5614288724311305
37.099974,0.45590641008070065,-0.06492507341845367,0.05175653627344276,-1.5418222898098812,-0.020405119241147178,1.4778403638244089,1.3217816637456974,0.4599692321078672,0.25004904726198807,0.561724976230058
37.199994,0.43515062673147226,-0.09978763907895274,0.049721252809084765,-1.5818078487429246,-0.019633852790179474,1.481652887571052,1.2974784286651182,0.4556894751048912,0.23490499459438538,0.561640769456549
37.299977,0.41405023675286756,-0.13434370239070897,0.04767033712400146,-1.622005184795906,-0.01898419678513868,1.4853844468368709,1.2730426470129401,0.4510231228181253,0.2198146250387593,0.5606568005157985
37.399985,0.39314701769265425,-0.1684438220805621,0.045520455309642015,-1.6620081916790412,-0.018313969616603334,1.4891384452716874,1.2497056722289297,0.4460110506373889,0.20505189929775097,0.5595367254137156
37.499992,0.3723798945757545,-0.20367480993498738,0.043179884548619464,-1.7022522364367694,-0.017719926297029075,1.4931849281311838,1.2253352404796265,0.44031344926949423,0.19040006025735678,0.5583489850538897
37.599897,0.351553479752869,-0.2385113039919284,0.04108386532582456,-1.741876536414626,-0.01709004141146668,1.4967073341724098,1.2011256095616967,0.4341844027220609,0.17625063394418392,0.5566691376284101
37.699971,0.3307508846312708,-0.2728486957921927,0.039005935430136834,-1.7821814434004781,-0.016415469464314277,1.5003380070012462,1.1774059668088626,0.42775119118982224,0.1624981127207003,0.5541617660136169
37.799965,0.3100460448345503,-0.3072755246775055,0.03680117895558365,-1.8216748809494105,-0.01566068383866948,1.5045332775312354,1.1531370879641958,0.4209300802193173,0.14900610804233658,0.5518485054079041
37.899942,0.2890522682370295,-0.3420632994086772,0.03440132976165996,-1.8618115108125752,-0.014890026980240587,1.5086846203790591,1.129554709999775,0.41391950950572587,0.1359235787995229,0.5488658277560949
37.999944,0.26830839924517824,-0.3765811026518022,0.03212498208265182,-1.901677581044634,-0.014240912007573936,1.513529074340092,1.1053744623676396,0.4066078005314512,0.12327213101607618,0.5454638127995471
38.099982,0.24746294635527827,-0.4113038465859334,0.029913054993988216,-1.9418037776654031,-0.013653063419879367,1.516678163733812,1.081111596255921,0.3985381095623321,0.1108245989752666,0.5418060363065419
38.199968,0.22648995989103277,-0.44624420099803436,0.027713993372609002,-1.981607057679133,-0.01292992017422753,1.5206303332235347,1.0572727364209116,0.3903474001578556,0.0989377638395052,0.5377414672158844
38.299965,0.20561405418485554,-0.4807632329600611,0.02555670605606385,-2.0218733335746712,-0.012279334128124505,1.5241908653853269,1.03292467099393,0.3819657523235249,0.08746766202123932,0.5329471468283656
38.399972,0.18486788779797783,-0.515389523831735,0.023334630220699502,-2.061757441518068,-0.011636353532021597,1.5282964871756448,1.009257474465364,0.37321402867166403,0.07643058090744308,0.5281720421494486
38.499971,0.16396697910505992,-0.5502190399127961,0.021144187163513194,-2.1018225070323395,-0.011068796908161725,1.5322744990703958,0.9848787284244511,0.3644333838481654,0.06588561895583468,0.5229265993467878
38.599992,0.14317407573848176,-0.5849836044319217,0.019325138142885574,-2.141782377607879,-0.010358860061376917,1.5359591793553482,0.9605365243336341,0.35528249149313645,0.05591106466534709,0.5170434400244104
38.699978,0.12221141364397954,-0.6194027186842196,0.017095757539288447,-2.181865275790531,-0.009620473652786574,1.5394939303996995,0.937259756820735,0.34601507452757757,0.04624846503044331,0.5111285818948935
38.799971,0.10138545341706637,-0.6543467561342542,0.01482057744467485,-2.221873240006463,-0.008933573691783407,1.5437065839922781,0.9129074911605164,0.3367412259260553,0.03702097121987605,0.5046354451523548
38.899968,0.0804940147657954,-0.6888403662519673,0.012659144601455315,-2.261424439423208,-0.0083252707595236,1.547891965804506,0.8889766057628882,0.3275760465852552,0.028394821923432116,0.49808243548454734
38.999967,0.05978026598765728,-0.722147838774753,0.01047165900149159,-2.2971623126006184,-0.0077221099473261225,1.5523018055844278,0.8652468624127901,0.31903107153945387,0.020279552545733583,0.49293546712599623
39.099988,0.038896846348879355,-0.7512528922592498,0.008248701010666378,-2.3247061263558817,-0.007021373979589908,1.5555583027249138,0.8409285604044138,0.31217220811833835,0.0126361216529354,0.48970652131417863
39.199979,0.01926814026082087,-0.7708297049559399,0.005670197234869147,-2.3423956569696815,-0.006224438413850278,1.5595577143773618,0.8193289864986064,0.3082045161287577,0.005833476345232,0.4878923748643367
39.299969,0.006573862413320801,-0.78066939387668,0.002907513994137666,-2.3515038924191973,-0.005714817270044702,1.563124379535032,0.803853278033084,0.3066224999750562,0.0014391146967922895,0.4870445278994325
39.399986,0.002404997620456185,-0.7821089127674172,0.0011285108377631441,-2.3537779331090034,-0.005230706280883215,1.5663991713956178,0.7973480920392656,0.30685397310309703,-2.7149518353335807e-05,0.48675763482680695
39.499909,0.002482896694838446,-0.7817109283856893,0.0010694268657677013,-2.353745674648578,-0.0053069835825114535,1.5662095580528381,0.7973392254828954,0.3068623645276534,3.842066281154171e-06,0.4866479464503838
39.59995,0.0024974821133774915,-0.7817174074824178,0.0011286075747578683,-2.3537289255931673,-0.005315031950991333,1.566173786652016,0.7973456005074796,0.3068607140581808,1.677216656168325e-05,0.4866562969731808
39.699955,0.0025004395947284493,-0.7817135493613738,0.0011501195305747946,-2.3537240558796557,-0.005317111785406169,1.5661716955289953,0.797340554511771,0.30686023919634553,1.8431553962121468e-05,0.48665686648887224
39.79996,0.0025038999847180766,-0.7817091245309142,0.0011612264944546467,-2.353721275015862,-0.005316861162199981,1.5661665222635308,0.7973414218946004,0.3068597614214626,2.3181530600683772e-05,0.4866573904437317
39.900001,0.0024984430284000947,-0.7817145494049532,0.001147992763226155,-2.353721185571326,-0.005323714997855437,1.5661617550371096,0.7973394563793934,0.3068581375308977,1.875084117358586e-05,0.4866605436770974
39.999967,0.002504401190207137,-0.7817175201787187,0.0011469597422227543,-2.3537209923411577,-0.005321347063468618,1.5661587701534991,0.7973430297226843,0.3068599535320556,1.929811819777671e-05,0.4866589137868197
40.099977,0.002501505195927165,-0.7817106489529018,0.0011506042748843472,-2.353722653122751,-0.005317858460654088,1.566157626130302,0.7973376135939432,0.3068581605489823,2.0457821181636996e-05,0.4866580816557026
40.199981,0.0025031795526560627,-0.781712202101783,0.0011483944831003515,-2.353719521302802,-0.005321773361442266,1.5661575720898608,0.7973366618370157,0.30685790382394285,2.062356015048773e-05,0.48665844664711894
40.299969,0.002499609691001171,-0.7817114235215595,0.0011449588946077043,-2.353721749249029,-0.005326140823873258,1.5661514600100002,0.7973378892641583,0.30685701495662393,1.6452075859217587e-05,0.48665684065631404
40.399968,0.002504217070503744,-0.7817106120393497,0.001152386600403557,-2.353719929822857,-0.0053242180915223526,1.5661537621082138,0.7973353107319361,0.306857791254812,2.1878220607541373e-05,0.4866563153263302
40.499989,0.002501401111021554,-0.7817097831742312,0.0011523865810568461,-2.353719649338389,-0.005326141040395718,1.5661517964099518,0.7973386797461064,0.3068573788059323,2.0997466771608807e-05,0.4866577320418555
40.599966,0.0025012871187214797,-0.7817161779080541,0.0011432510230762552,-2.3537158354350707,-0.005327101205320012,1.566154475154762,0.7973441392650459,0.3068571107967004,1.885975475304476e-05,0.4866582719757844
40.699987,0.002501637512814014,-0.7817106120512113,0.001144908096685022,-2.353711758483823,-0.005327764513744628,1.566151340811905,0.797338121832198,0.3068582240253866,1.8419979976675967e-05,0.48666004037839716
40.799988,0.0025045581812076145,-0.7817134948846164,0.0011523869231595896,-2.3537147570609807,-0.0053329490985496416,1.5661505386023469,0.7973409060848184,0.3068577234665294,1.822469519535382e-05,0.486664232851703
40.899975,0.002505269340601853,-0.7817154784657511,0.0011485834376500405,-2.3537096069480663,-0.005329309731045793,1.566153668113003,0.7973415680515339,0.30685777044656337,1.8238667227102627e-05,0.4866619919598495
40.999972,0.0025009870460927595,-0.7816890570087913,0.0011481070623364355,-2.3537082859643044,-0.005339912716057285,1.5661282518126376,0.7973383358491933,0.3068607600462847,1.611225411908134e-05,0.486656603160474
41.100044,0.0025084291275411837,-0.7816874938558936,0.001152386593086293,-2.353703236232929,-0.00533841726611477,1.566132265853858,0.7973370095666854,0.30686014810708334,1.7640904361758847e-05,0.4866542165325794
41.19998,0.002505880771320353,-0.7816853480827002,0.0011498926323762447,-2.3536953291200766,-0.005342092926547096,1.5661325520371494,0.7973406038494245,0.3068595285824868,1.7838453808606742e-05,0.48665656312195227
41.299987,0.002504700705937242,-0.7816918380743394,0.0011481111033726154,-2.353703199250327,-0.005341160812361721,1.566133545614882,0.7973418135984565,0.30685962236138814,1.5655193378785693e-05,0.4866570707421474
41.399966,0.002509309663052626,-0.7816872724118957,0.0011540626275550192,-2.3537031987981036,-0.00534127967331528,1.5661304713561233,0.7973362664682256,0.3068599442639385,1.924282902922617e-05,0.48665486805589664
41.499997,0.002510015917628824,-0.7816890854243281,0.0011448964057882945,-2.353704973721673,-0.0053412789544359995,1.5661345292017073,0.7973406634604648,0.30686014793791105,1.982844668990398e-05,0.486657101665313
41.60001,0.0025098385221962822,-0.7816873773988813,0.0011488179291687494,-2.353704240112996,-0.005339601492200892,1.5661326037116754,0.7973400177504744,0.3068595502088089,2.0398103383392156e-05,0.48665673330789017
41.699994,0.0025046922629160116,-0.781687263567671,0.001144616520485674,-2.353695315715417,-0.0053412781664688115,1.5661331163506464,0.7973344477794198,0.306858870632454,1.6044380924016503e-05,0.48665633645443784
41.799999,0.002503006221183922,-0.7816879788597539,0.0011506039132864786,-2.3537029509274867,-0.005340201250839923,1.5661329057314959,0.7973375754946012,0.3068592984396034,1.8815599548510382e-05,0.4866551317943526
41.899972,0.0025061097107992292,-0.7816894122426559,0.0011488212988282173,-2.353702336948548,-0.00534127968203711,1.5661294204390002,0.7973344484732958,0.30685945963791006,1.955509947524042e-05,0.4866565952297178
41.999985,0.0025085440834836776,-0.7816854014927402,0.0011463284526696427,-2.35370308482279,-0.005342903146695955,1.5661344730959363,0.7973367125347247,0.30685976480457516,1.6231926541721616e-05,0.4866569747068953
42.09998,0.0025084378966534894,-0.7816852656542828,0.001148821264522001,-2.3537024442343872,-0.00534051768030277,1.566134372212299,0.7973367090378731,0.30685999089148674,1.7793666173233978e-05,0.48665905025638956
42.199978,0.0025041234756755537,-0.7816875173994141,0.0011484700022784216,-2.353698536842565,-0.0053394072418467215,1.566131345277987,0.7973330778923614,0.30685905793962265,1.810139166405554e-05,0.48665459797195754
42.29997,0.0025048307503330366,-0.7816859809221334,0.0011466819753442505,-2.35369833561438,-0.005342740954453288,1.5661345285316841,0.7973383310190635,0.3068598898197928,1.882729782387018e-05,0.48665909832419074
42.39998,0.0025084047621506318,-0.7816889760770142,0.0011466907408355803,-2.353700313138744,-0.0053405220071574885,1.5661345233847737,0.7973401482692988,0.3068586854352643,1.612608801012782e-05,0.4866574669865982
42.499982,0.002506594857892836,-0.7816894093348992,0.0011428254124326847,-2.3536980787917074,-0.0053421455252662675,1.5661304829246343,0.7973351944477313,0.30686021705651456,1.6670060139331437e-05,0.4866591578103453
42.599985,0.002502703129323074,-0.7816889760648775,0.0011503672191346393,-2.3536998613552265,-0.005341851068228638,1.5661336452578567,0.7973386842106029,0.3068599065989004,1.8060692473448456e-05,0.48665679516947513
42.699971,0.0025048336711240723,-0.7816856100366751,0.0011498849827848159,-2.3536980791933777,-0.005341279682026112,1.566132586253712,0.7973388418373685,0.30686054342847646,1.85296615560043e-05,0.48665805266425044
42.799986,0.0025068228185745555,-0.7816873813052404,0.0011522804114670587,-2.3536998613902194,-0.0053390068277731646,1.5661345248410563,0.797337013932645,0.3068600413687832,1.5983743228349862e-05,0.48665919558570464
42.89999,0.0025024109801191083,-0.7816872635676713,0.0011470376373589346,-2.3537016440374043,-0.005340521414520037,1.566133310131039,0.797338490078209,0.30686020109259354,1.7750639670589688e-05,0.48665867516745775
42.999972,0.0025083073188529536,-0.781687978823558,0.0011502560307428678,-2.3537023858217636,-0.005342145531255774,1.5661299374338213,0.7973403608419587,0.3068597659345843,1.8259493524376926e-05,0.48665774057135613
43.099986,0.0025068228185258765,-0.7816889761133619,0.0011470382147069735,-2.3536980817586244,-0.005338084003842746,1.5661336458857125,0.7973398593132759,0.3068606282981324,1.8649823529909445e-05,0.4866610699727176
43.199999,0.0025068315862444355,-0.7816926953057558,0.0011459791526244737,-2.3536959989842408,-0.0053397644458611435,1.5661349335531656,0.7973394329437186,0.30685967703247,1.5740617875322177e-05,0.48665703195337995
43.299916,0.002504833672913154,-0.78168726356782,0.0011466868462825092,-2.3537009552687325,-0.005340923145456647,1.5661304837920287,0.7973351923454638,0.30686045813044116,1.9197230839220446e-05,0.48665813112031486
43.400005,0.002506834508866781,-0.7816872635676705,0.0011486809810248117,-2.3536980777830903,-0.005340522063924382,1.5661343715662506,0.7973364103668087,0.3068587269192654,1.969768640246465e-05,0.4866564214750236
43.500018,0.0025085440834836776,-0.7816874143655321,0.0011498674605630109,-2.3536998329992844,-0.005340956207295757,1.5661334303177212,0.797333979076159,0.30686019481397925,1.8860000043889472e-05,0.4866599796832778
43.599925,0.0025092543408492566,-0.7816889849072912,0.001147038615608426,-2.353695991727456,-0.0053415873441357556,1.5661334651946968,0.7973375927577182,0.30685941227257524,1.6016194818854615e-05,0.48665561567629223
43.699975,0.0025078601894090264,-0.7816897285345161,0.0011470386396130294,-2.3536998613901963,-0.005340806248230549,1.5661336588043102,0.7973406450333236,0.30685833026202813,1.886461739213541e-05,0.4866560597683356
43.799964,0.0025085440834836776,-0.7816934105614938,0.0011505951817462183,-2.3536973886000645,-0.0053405220636521785,1.566135247548018,0.7973418120918423,0.30685918058245715,1.6187838934790316e-05,0.4866581650418194
43.899971,0.002503438112060091,-0.7816914397239603,0.001148819959787026,-2.353698888944811,-0.005339764446083856,1.5661298152843501,0.7973409189516505,0.30686028015376127,1.7484227184649467e-05,0.4866588237615277
43.999965,0.002506832885217031,-0.7816928697960855,0.0011505909603016014,-2.353693497856263,-0.005340522063949128,1.566134776605607,0.7973351922916286,0.30685934080757105,1.4294774643317247e-05,0.48665755632808866
44.099967,0.0025085323811678646,-0.7816911218684837,0.0011480993046892722,-2.3536991641217337,-0.005339764445861144,1.5661331904634523,0.7973390886132243,0.30686006210450295,1.982813706910612e-05,0.48665620940264626
44.199988,0.0025085440474025313,-0.7816872665479491,0.00114881996003458,-2.35370095387413,-0.005340522071999754,1.5661334695374356,0.7973376128030527,0.30685956405159825,1.743001303295224e-05,0.4866583984408723
44.299976,0.002508544083483678,-0.7816910064899771,0.0011502577865012036,-2.3536956693761972,-0.005339764427491507,1.566133452120868,0.7973336770561201,0.30685891847281105,1.8068067745011414e-05,0.48665969081696697
44.399987,0.00250683158629393,-0.7816892940657867,0.0011506039495152946,-2.3536977938011088,-0.005341292995333455,1.5661313500637783,0.7973398505919627,0.3068604312755889,1.749713994760884e-05,0.4866594845887452
44.499981,0.0025031211877431904,-0.7816879789692139,0.0011470373161685907,-2.3536977683892935,-0.005339764445861144,1.5661336501907526,0.7973421363938213,0.3068590341837714,1.8370940682884318e-05,0.48665781398135705
44.599987,0.0025119777426836493,-0.7816926618924689,0.001146723013821647,-2.3536992431655777,-0.005339764445861148,1.566132892625542,0.7973423069356718,0.30685978794122776,1.7589876140000973e-05,0.4866624837310617
44.699966,0.0025068315862959664,-0.7816882967148472,0.0011470269132901657,-2.353697093721816,-0.005337183983620388,1.5661313371512358,0.7973437827640095,0.3068606809267445,1.6242949179248408e-05,0.48665875509483386
44.799975,0.002508517780328,-0.7816872635732552,0.0011463008278106447,-2.353699260148837,-0.005342147479567801,1.5661302363744483,0.7973390929738774,0.30685944881711213,1.788388025429253e-05,0.4866588333041844
44.899963,0.002506803984216985,-0.781688979020562,0.0011481080484801278,-2.3536949878382325,-0.005336852952022428,1.5661313173128097,0.7973415100796698,0.30686033546275326,1.7565812437279546e-05,0.48666077631428584
44.999971,0.002504834972272604,-0.7816911217964564,0.001150568837214755,-2.353699543934699,-0.005345341209475325,1.566132126457357,0.7973403609502692,0.3068588341388775,1.9107762055588966e-05,0.4866611844889304
45.099977,0.002508544083483685,-0.7816875815616708,0.0011495737962613842,-2.3536967874586416,-0.005339764616269054,1.5661340562953785,0.7973344346735416,0.30685882302798134,1.7517979900655506e-05,0.48666148741204035
45.19998,0.00251067463909354,-0.7816894358742875,0.0011502852803642336,-2.353697046865538,-0.00534158746038883,1.5661302731983864,0.7973410748076553,0.3068596190245708,1.7149248444985553e-05,0.48666090848467053
45.300026,0.002504845363197302,-0.781692834329284,0.0011487833071332412,-2.3536929335961303,-0.005340522063949128,1.566129372418268,0.7973403323811352,0.3068600812559954,1.9230107541262317e-05,0.48666167749896583
45.39996,0.0025085440833370514,-0.7816911346961469,0.001148817511637119,-2.353698930284,-0.00534296012405551,1.5661328863537034,0.7973413615452501,0.3068596556502835,1.9932082434664196e-05,0.4866615954488553
45.499943,0.002504833674687675,-0.7816862194537657,0.0011488208300629355,-2.3536949792997834,-0.005339764499980278,1.5661290260177383,0.7973437829791373,0.3068597160383256,1.657989247136457e-05,0.4866584903999327
45.59998,0.00250683158629393,-0.7816911222682867,0.001147029413513692,-2.3536976803021683,-0.005341279682259822,1.5661306368579506,0.7973405014906493,0.30685968960571347,1.8295763715255628e-05,0.4866596458282222
45.699963,0.002510256580673427,-0.781694832243106,0.001150599728021986,-2.3536970455941364,-0.0053390068277731715,1.5661335397222622,0.7973366051427877,0.30685970532629,1.852255186091296e-05,0.4866592491477562
45.799973,0.002509309703001708,-0.7816872635677431,0.0011475177124348232,-2.3536967619642484,-0.00533824872261336,1.5661281897706871,0.7973359500972413,0.30686001002554114,1.862904415388469e-05,0.4866602049439719
45.899988,0.0025068315863599226,-0.7816911222130227,0.0011505990785604468,-2.353697709590776,-0.005338089848704567,1.5661299243299276,0.7973397574124522,0.3068600446059108,1.5567958499570806e-05,0.48666276718205487
45.999987,0.0025031211757106497,-0.781690776881827,0.0011488208315400957,-2.353698544702588,-0.005340527908819185,1.5661336443998164,0.7973398520723225,0.30685852244156325,1.61041470255009e-05,0.4866618019661149
46.099977,0.0025124222231935893,-0.7816899297566737,0.0011478743869985546,-2.3536976804063467,-0.005340522252363773,1.5661303666756927,0.7973389863894009,0.30685940318381427,1.7202492095255944e-05,0.4866601526736789
46.199969,0.00250483367290589,-0.7816912321565366,0.0011488174036225574,-2.3536985483770434,-0.005340561516766341,1.566127511103574,0.7973385286739604,0.306859358587312,1.7286695257774025e-05,0.4866599799533223
46.299976,0.002503121175716142,-0.7816920758510896,0.0011466868481574822,-2.353694979299778,-0.0053384683477548794,1.566134365839478,0.7973390891223334,0.30685883337069264,1.806397176259706e-05,0.48666092875329575
46.399975,0.0025031211770527506,-0.7816949159834464,0.001147034754266049,-2.3536949793002107,-0.005343021507820146,1.5661322444479335,0.7973336770794782,0.3068589879822029,1.8139664408992366e-05,0.48666225361309184
46.499986,0.0025048339976362017,-0.7816890908757397,0.001148821139796201,-2.353696761948691,-0.005340522063949128,1.566129608896764,0.7973381261948386,0.3068595747683541,1.9079105226481904e-05,0.4866593137263671
46.599985,0.002511282728475158,-0.781694915968714,0.0011487861201483075,-2.3536949793352027,-0.005339006827773161,1.5661312136289052,0.7973344409981791,0.30686022349902153,1.9001810444619878e-05,0.4866603172631029
46.699984,0.0025084651740221752,-0.7816900184057436,0.00115237779417835,-2.3536968385131023,-0.005342865622251986,1.5661338608301891,0.7973345526264541,0.30686032314829453,1.6491662984072686e-05,0.4866626136657889
46.799977,0.002506831586292104,-0.7816907945259294,0.0011487949978924376,-2.3536967874589347,-0.005339007314853227,1.5661311932253592,0.7973351923155553,0.3068602142017808,1.6500921257818642e-05,0.4866603246337914
46.899975,0.0025069108365273524,-0.7816911526271575,0.001148707195385793,-2.3536938178958215,-0.005340522553025355,1.5661343923497517,0.7973367075825342,0.3068603948416427,1.787170747138576e-05,0.48666126813173555
46.999987,0.002506857890785946,-0.7816926992684766,0.0011488384016636987,-2.3536967619486266,-0.005339682662044928,1.566128924063752,0.7973391432672425,0.30685918549045355,1.7606038043728955e-05,0.48666000962224143
47.099978,0.002506840354012489,-0.7816899563757065,0.0011478477585170515,-2.3536911424385987,-0.005341279682260739,1.5661312193034111,0.7973383368094363,0.3068598534234434,1.783737039689581e-05,0.4866603520608336
47.200015,0.002504763531159524,-0.7816920882633089,0.0011487157458768928,-2.353696838548097,-0.005339764499977485,1.566130360645043,0.7973383310491926,0.30685995902237134,1.7443325250138903e-05,0.4866607743147832
47.299935,0.002504859976078903,-0.7816889752654068,0.0011487935889461847,-2.3536967619485147,-0.005340522138112337,1.5661302884688972,0.7973387249072772,0.3068590913846021,1.8558144677536127e-05,0.48666066683511466
47.399948,0.002506831590110469,-0.7816901511306974,0.0011523862736989325,-2.353696761948691,-0.005341634757392039,1.5661332515062747,0.7973436804562158,0.30685969672497576,1.736755224527307e-05,0.48666076857903284
47.499936,0.0025069104957601545,-0.7816936560373666,0.00114418519915313,-2.3536966844744796,-0.005340522136107915,1.566133268877739,0.7973359499163629,0.3068600473437668,1.6197269035168188e-05,0.48666113087827195
47.599963,0.0025068315862947443,-0.7816941145674127,0.0011457321366419356,-2.353692925056407,-0.005341281143263668,1.5661331516947659,0.7973367080123225,0.3068594115073003,1.6324197715410194e-05,0.4866604358764699
47.699972,0.0025048336729077227,-0.7816921564464623,0.0011466966024224641,-2.3536985445976044,-0.0053398053598966615,1.5661305597108928,0.7973440847898355,0.3068580384234143,1.8040513541611562e-05,0.48666008918998915
47.799975,0.002504069863191251,-0.7816936295430459,0.0011505776940205082,-2.3536949027690595,-0.005342510114249527,1.5661298788012856,0.7973419297389156,0.30685910998658905,1.753456652069476e-05,0.4866620688546838
47.899975,0.002506831585855816,-0.7816938803948418,0.0011487946685099287,-2.353698544601492,-0.005337519254144227,1.5661301315579084,0.7973344366116158,0.30685872056934926,1.658646611379911e-05,0.4866614989516094
47.999968,0.0025076747386694126,-0.7816958929756499,0.0011459795851533722,-2.35369497929976,-0.0053401769956905225,1.5661306369062482,0.79733792812107,0.3068592361049591,1.769977118768276e-05,0.4866606939956739
48.099966,0.0025068588636460573,-0.7816918756838285,0.0011449472041331946,-2.3536928985977124,-0.005336981384984458,1.5661305185282655,0.7973351923634088,0.3068587457908256,1.6738604720307874e-05,0.4866600146359949
